/* XPM */
static char * loss_xpm[] = {
"556 304 3 1",
" 	c None",
".	c #940000",
"+	c #FFBC58",
"                                                                                                                                                                                                                                                                                                                                                                                                                                                                                                                                                                            ",
"                                                                                                                                                                                                                                                                                                                                                                                                                                                                                                                                                                            ",
"                                                                                                                                                                                                                                                                                                                                                                                                                                                                                                                                                                            ",
"                                                                                                                                                                                                                                                                                                                                                                                                                                                                                                                                                                            ",
"                                                                                                                                                                                                                                                                                                                                                                                                                                                                                                                                                                            ",
"                                                                                                                                                                                                                                                                                                                                                                                                                                                                                                                                                                            ",
"                                                                                                                                                                                                                                                                                                                                                                                                                                                                                                                                                                            ",
"                                                                                                                                                                                                                                                                                                                                                                                                                                                                                                                                                                            ",
"                                                                                                                                                                                                                                                                                                                                                                                                                                                                                                                                                                            ",
"                                                                                                                                                                                                                                                                                                                                                                                                                                                                                                                                                                            ",
"                                                                                                                                                                                                                                                                                                                                                                                                                                                                                                                                                                            ",
"                                                                                                                                                                                                                                                                                                                                                                                                                                                                                                                                                                            ",
"                                                                                                                                                                                                                                                                                                                                                                                                                                                                                                                                                                            ",
"                                                                                                                                                                                                                                                                                                                                                                                                                                                                                                                                                                            ",
"                                                                                                                                                                                                                                                                                                                                                                                                                                                                                                                                                                            ",
"                                                                                                                                                                                                                                                                                                                                                                                                                                                                                                                                                                            ",
"                                                                                                                                                                                                                                                                                                                                                                                                                                                                                                                                                                            ",
"                                                                                                                                                                                                                                                                                                                                                                                                                                                                                                                                                                            ",
"                                                                                                                                                                                                                                                                                                                                                                                                                                                                                                                                                                            ",
"                                                                                                                                                                                                                                                                                                                                                                                                                                                                                                                                                                            ",
"                                                                                                                                                                                                                                                                                                                                                                                                                                                                                                                                                                            ",
"                                                                                                                                                                                                                                                                                                                                                                                                                                                                                                                                                                            ",
"                                                                                                                                                                                                                                                                                                                                                                                                                                                                                                                                                                            ",
"                                                                                                                                                                                                                                                                                                                                                                                                                                                                                                                                                                            ",
"                                                                                                                                                                                                                                                                                                                                                                                                                                                                                                                                                                            ",
"                                                                                                                                                                                                                                                                                                                                                                                                                                                                                                                                                                            ",
"                                                                                                                                                                                                                                                                                                                                                                                                                                                                                                                                                                            ",
"                                                                                                                                                                                                                                                                                                                                                                                                                                                                                                                                                                            ",
"                                                                                                                                                                                                                                                                                                                                                                                                                                                                                                                                                                            ",
"                                                                                                                                                                                                                                                                                                                                                                                                                                                                                                                                                                            ",
"                                                                                                                                                                                                                                                                                                                                                                                                                                                                                                                                                                            ",
"                                                                                                                                                                                                                                                                                                                                                                                                                                                                                                                                                                            ",
"                                                                                                                                                                                                                                                                                                                                                                                                                                                                                                                                                                            ",
"                                                                                                                                                                                                                                                                                                                                                                                                                                                                                                                                                                            ",
"                                                                                                                                                                                                                                                                                                                                                                                                                                                                                                                                                                            ",
"                                                                                                                                                                                                                                                                                                                                                                                                                                                                                                                                                                            ",
"                                                                                                                                                                                                                                                                                                                                                                                                                                                                                                                                                                            ",
"                                                                                                                                                                                                                                                                                                                                                                                                                                                                                                                                                                            ",
"                                                                                                                                                                                                                                                                                                                                                                                                                                                                                                                                                                            ",
"                                                                                                                                                                                                                                                                                                                                                                                                                                                                                                                                                                            ",
"                                                                                                                                                                                                                                                                                                                                                                                                                                                                                                                                                                            ",
"                                                                                                                                                                                                                                                                                                                                                                                                                                                                                                                                                                            ",
"                                                                                                                                                                                                                                                                                                                                                                                                                                                                                                                                                                            ",
"                                                                                                                                                                                                                                                                                                                                                                                                                                                                                                                                                                            ",
"                                                                                                                                                                                                                                                                                                                                                                                                                                                                                                                                                                            ",
"                                                                                                                                                                                                                                                                                                                                                                                                                                                                                                                                                                            ",
"                                                                                                                                                                                                                                                                                                                                                                                                                                                                                                                                                                            ",
"                                                                                                                                                                                                                                                                                                                                                                                                                                                                                                                                                                            ",
"                                                                                                                                                                                                                                                                                                                                                                                                                                                                                                                                                                            ",
"                                                                                                                                                                                                                                                                                                                                                                                                                                                                                                                                                                            ",
"                                                                                                                                                                                                                                                                                                                                                                                                                                                                                                                                                                            ",
"                                                                                                                                                                                                                                                                                                                                                                                                                                                                                                                                                                            ",
"                                                                                                                                                                                                                                                                                                                                                                                                                                                                                                                                                                            ",
"                                                                                                                                                                                                                                                                                                                                                                                                                                                                                                                                                                            ",
"                                                                                                                                                                                                                                                                                                                                                                                                                                                                                                                                                                            ",
"                                                                                                                                                                                                                                                                                                                                                                                                                                                                                                                                                                            ",
"                                                                                                                                                                                                                                                                                                                                                                                                                                                                                                                                                                            ",
"                                                                                                                                                                                                                                                                                                                                                                                                                                                                                                                                                                            ",
"                                                                                                                                                                                                                                                                                                                                                                                                                                                                                                                                                                            ",
"                                                                                                                                                                                                                                                                                                                                                                                                                                                                                                                                                                            ",
"                                                                                                                                                                                                                                                                                                                                                                                                                                                                                                                                                                            ",
"                                                                                                                                                                                                                                                                                                                                                                                                                                                                                                                                                                            ",
"                                                                                                                                                                                                                                                                                                                                                                                                                                                                                                                                                                            ",
"                                                                                                                                                                                                                                                                                                                                                                                                                                                                                                                                                                            ",
"                                                                                                                                                                                                                                                                                                                                                                                                                                                                                                                                                                            ",
"                                                                                                                                                                                                                                                                                                                                                                                                                                                                                                                                                                            ",
"                                                                                                                                                                                                                                                                                                                                                                                                                                                                                                                                                                            ",
"                                                                                                                                                                                                                                                                                                                                                                                                                                                                                                                                                                            ",
"                                                                                                                                                                                                                                                                                                                   ...........                                                                                                                                                                                                                                              ",
"                                                                                                                                                                                                               ................                                                                                ....................                                                                                                                                                                                                                                         ",
"                                                                                                                                                                                                          .........................                                                                         ..........................                                                                                                                                                                                                                                      ",
"                                                                                                                                                                                                       ...............................                                                                    ...............................                                                                                                                                                                                                                                   ",
"                                                                                                                                                                                                     ...................................                                                                 ..................................                                                                                                                                                                                                                                 ",
"                                                                                                                                                                                                   .......................................                                                             ......................................                                                                                                                                                                                                                               ",
"                                                                                                                                                                                                 ...........................................                                                          .........................................                                                                                                                                                                                                                             ",
"                                                                                                                                                                                               ...............................................                                                       ............................................                                                                                                                                                                                                                           ",
"                                                                                                                                                                                              .................................................                                                     ..............................................                                                                                                                                                                                                                          ",
"                                                                                                                                                                                            ....................................................                                                   .................................................                                                                                                                                                                                                                        ",
"                                                                                                                                                                                           ......................................................                                                  ..................................................                                                                                                                                                                                                                       ",
"                                                                                                                                                                                          ........................................................                                                ....................................................                                                                                                                                                                                                                      ",
"                                                                                                                                                                                         ..........................................................                                               ......................................................                                                                                                                                                                                                                    ",
"                                                                                                                                                                                        ............................................................                                             ........................................................                                                                                                                                                                                                                   ",
"                                                                                                                                                                                       ..............................................................                                           ..........................................................                                                                                                                                                                                                                  ",
"                                                                                                                                                                                      ................................................................                                          ...........................................................                                                                                                                                                                                                                 ",
"                                                                                                                                                                                      ................................................................                                          ............................................................                                                                                                                                                       .........                                                ",
"                                                                                                                                                                                     ..................................................................                                        ..............................................................                                                                                                                                                     ............                                              ",
"                                                                                                                                                                                    ....................................................................                                       ...............................................................                                                                                                                                                   ..............                                             ",
"                                                                                                                                                                                   .....................................................................                                       ...............................................................                                                                                                                                                  ................                                            ",
"                                                                                                                                                                                   ......................................................................                                     .................................................................                                                                                                                                                ..................                                           ",
"                                                                                                                                                                                  .......................................................................                                     ..................................................................                                                                                                                                               ...................                                          ",
"                                                                                                                                                                                  ........................................................................                                    ..................................................................                                                                      ..........                                                              .....................                                         ",
"                                                                                                                                                                                 .........................................................................                                    .........................      ....................................                                                                 ................                                                            .....................                                         ",
"                                                                                                                                                                                 .................................        .................................                                  ........................           ..................................                                                            .....................                                                          ......................                                         ",
"                                                                                                                                                                                ...............................              ..............................                                  ........................             ................................                                                          ........................                                                         .......................                                        ",
"                                                                                                                                                                                .............................                  ............................                                  .......................                ...............................                                                       ...........................                                                       ........................                                        ",
"                                                                                                                                                                               ............................                     ............................                                 .......................                  .............................                                                     ..............................                                                      ........................                                        ",
"                                                                                                                                                                               ...........................                       ...........................                                ........................                   .............................                                                  ................................                                                     .........................                                        ",
"                                                                                                                                                                               ..........................                         ..........................                                .......................                      ...........................                                                 ..................................                                                    .........................                                        ",
"                                                                                                                                                                              ..........................                           ..........................                               .......................                       ..........................                                                ...................................                                                   ..........................                                        ",
"                                                                                                               ......                                                         .........................                             .........................                               .......................                        ..........................                                             .....................................                                                   .........................                                         ",
"                                                                                                         ..................                                                   .........................                             .........................                               .......................                         .........................                                            ......................................                                                  ..........................                                         ",
"                                                                                                     .........................                                                ........................                               ........................                              ........................                         .........................                                           ........................................                                                 ..........................                                         ",
"                                                                                                  ...............................                                            .........................                               .........................                             ........................                          ........................                                          .........................................                                                ..........................                                          ",
"                                                                                                ...................................                                          ........................                                .........................                             .......................                            ........................                                        ..........................................                                                ..........................                                          ",
"                                                                                              .......................................                                        ........................                                 ........................                             .......................                            ........................                                       ..........................................                                                ..........................                                           ",
"                                                                                            ..........................................                                       ........................                                 ........................                             .......................                             .......................                                      ...........................................                                                ..........................                                           ",
"                                                                                          ..............................................                                     .......................                                  ........................                            ........................                             .......................                                     ............................................                                               ..........................                                            ",
"                                                                                         ................................................                                   ........................                                   ........................                           ........................                             .......................                                     ............................................                                               ..........................                                            ",
"                                                                                       ...................................................                                  ........................                                   ........................                           ........................                             .......................                                    ............................................                                               ..........................                                             ",
"                                                                                      .....................................................                                 ........................                                   ........................                           .......................                              .......................                                    ...........................................                                                ..........................                                             ",
"                                                                                     .......................................................                                ........................                                   ........................                          ........................                              .......................                                   ...........................................                                                ..........................                                              ",
"                                                                                    .........................................................                               ........................                                    .......................                          ........................                             ........................                                  ..........................................                                                  ..........................                                              ",
"                                                                                   ...........................................................                              .......................                                     .......................                          ........................                             ........................                                  .......................................                                                    ..........................                                               ",
"                                                                                  .............................................................                             .......................                                     ........................                         ........................                            .........................                                  ................................                                                           ..........................                                               ",
"                                                                                 ...............................................................                            .......................                                     ........................                         .......................                             ........................                                  .............................                                                              ..........................                                                ",
"                                                                                ................................................................                            .......................                                     ........................                        ........................                            .........................                                  ...........................                                                                ..........................                                                ",
"                                                                               ..................................................................                           .......................                                     ........................                        ........................                           ..........................                                  .........................                                                                 ..........................                                                 ",
"                                                                               ...................................................................                          .......................                                      .......................                        ........................                          ...........................                                 .........................                                                                  ..........................                                                 ",
"                                                                              ....................................................................                          .......................                                      .......................                        ........................                        ............................                                  ........................                                                                  ..........................                                                  ",
"                                                                             ......................................................................                         .......................                                      .......................                        ...........................                   ..............................                                  ........................                                                                  ..........................                                                  ",
"                                                                             .......................................................................                        .......................                                      .......................                       ................................           .................................                                   .......................                                                                  ..........................                                                   ",
"                                                                            ........................................................................                        .......................                                      .......................                       ............................................................................                                   .......................                                                                 ...........................                                                   ",
"                                                                            .........................................................................                       .......................                                      .......................                       ...........................................................................                                    .......................                                                                 ..........................                                                    ",
"                                                                           .................................         ................................                       .......................                                      .......................                       ...........................................................................                                    .......................                                                                ...........................                                                    ",
"                                                                           ..............................              ...............................                      .......................                                      .......................                       ..........................................................................                                     .......................                                                                ..........................                                                     ",
"                                                                           .............................                 .............................                      ........................                                     .......................                      ...........................................................................                                     ........................                                                              ...........................                                                     ",
"                                                                          ............................                    .............................                     ........................                                     .......................                      ..........................................................................                                      ........................                                                              ..........................                                                      ",
"                                                                          ...........................                       ...........................                     ........................                                     .......................                      .........................................................................                                       .........................                                                            ...........................                                                      ",
"                                                                         ...........................                         ...........................                    ........................                                    ........................                      .........................................................................                                        .........................                                                           ..........................                                                       ",
"                                                                         ..........................                          ...........................                     .......................                                    ........................                      ........................................................................                                         ..........................                                                         ...........................                                                       ",
"                                                                         .........................                            ...........................                    .......................                                    ........................                     ........................................................................                                          ..........................                                                        ...........................                                                        ",
"                                                                         ........................                              ..........................                    ........................                                   ........................                     .......................................................................                                           ...........................                                                       ..........................                                                         ",
"                                                                        .........................                              ..........................                    ........................                                   .......................                      ......................................................................                                             ...........................                                                     ...........................                                                         ",
"                                                                        ........................                                ..........................                   ........................                                   .......................                      .....................................................................                                              ............................                                                    ..........................                                                          ",
"                                                                        ........................                                 .........................                   ........................                                  ........................                      ....................................................................                                                ............................                                                  ...........................                                                          ",
"                                                                        ........................                                 ..........................                   ........................                                 ........................                     ....................................................................                                                 .............................                                                 ..........................                                                           ",
"                                                                        .......................                                   .........................                   ........................                                 ........................                     ..................................................................                                                    .............................                                               ...........................                                                           ",
"                                                                        .......................                                   .........................                   ........................                                ........................                      .................................................................                                                     ..............................                                             ...........................                                                            ",
"                                                                        .......................                                    .........................                  ........................                                ........................                      ...............................................................                                                        ..............................                                            ...........................                                                            ",
"                                                                        .......................                                    .........................                  .........................                              .........................                      .............................................................                                                           .............................                                           ...........................                                                             ",
"                                                                        .......................                                     ........................                   ........................                              .........................                     ............................................................                                                             ..............................                                          ..........................                                                              ",
"                                                                       ........................                                     .........................                  .........................                            .........................                      ..........................................................                                                                ..............................                                        ...........................                                                              ",
"                                                                       ........................                                     .........................                  .........................                            .........................                      ........................   ...........................                                                                     .............................                                       ...........................                                                               ",
"                                                                        .......................                                      ........................                  ..........................                          ..........................                      .......................         ...................                                                                         .............................                                      ...........................                                                               ",
"                                                                        .......................                                      ........................                   .........................                          .........................                       .......................                                                                                                      ............................                                     ...........................                                                                ",
"                                                                        .......................                                       ........................                  ..........................                        ..........................                      ........................                                                                                                       ............................                                    ...........................                                                                ",
"                                                                        .......................                                       ........................                  ..........................                       ...........................                      ........................                                                                                                        ...........................                                   ...........................                                                                 ",
"                                                                        .......................                                       ........................                   ..........................                     ...........................                       ........................                                                                                                        ............................                                 ...........................                                                                  ",
"                                                                        ........................                                      ........................                   ...........................                   ............................                       .......................                                                                                                          ...........................                                 ...........................                                                                  ",
"                                                                        ........................                                       .......................                    ...........................                 ............................                        .......................                                                                                                           ..........................                                ...........................                                                                   ",
"                                                                        ........................                                       ........................                   ............................              ..............................                       ........................                                                                                                            ..........................                              ............................                                                                   ",
"                                                                        ........................                                       ........................                    .............................          ...............................                        ........................                                                                                                             .........................                              ...........................                                                                    ",
"                                                                         .......................                                       ........................                    ................................   ...................................                        ........................                                                                                                             .........................                             ...........................                                                                     ",
"                                                                         ........................                                      ........................                    .....................................................................                         .......................                                                                                                               ........................                            ............................                                                                     ",
"                                                                         ........................                                       .......................                     ...................................................................                          .......................                                                                                                               .........................                           ...........................                                                                      ",
"                                                                         ........................                                       .......................                      ..................................................................                         ........................                                                                                                                ........................                          ............................                                                                      ",
"                                                                         .........................                                      .......................                      .................................................................                          ........................                                                                                                                ........................                         ............................                                                                       ",
"                                                                          ........................                                      .......................                       ...............................................................                           ........................                                                                                                                 .......................                         ...........................                                                                        ",
"                                                                          ........................                                      .......................                       ...............................................................                           .......................                                                                        .........                                 .......................                        ............................                                                                        ",
"                                                                          .........................                                     .......................                        .............................................................                            .......................                                                                      ..............                              .......................                        ...........................                                                                         ",
"                                                                          .........................                                     .......................                         ...........................................................                            ........................                                                                     ................                             .......................                       ...........................                                                                          ",
"                                                                           .........................                                    .......................                          .........................................................                             ........................                                                                    ..................                            .......................                      ............................                                                                          ",
"                                                                           .........................                                    .......................                          ........................................................                              ........................                                                                   ....................                           .......................                      ...........................                                                                           ",
"                                                                           .........................                                    .......................                           ......................................................                               .......................                                                                    .....................                          .......................                     ............................                                                                           ",
"                                                                            .........................                                   .......................                            ....................................................                                .......................                                                                   ......................                          .......................                    ............................                                                                            ",
"                                                                            .........................                                   .......................                             ..................................................                                ........................                                                                   .......................                        ........................                    ...........................                                                                             ",
"                                                                            ..........................                                 ........................                              ................................................                                 ........................                                                                   .......................                        ........................                   ............................                                                                             ",
"                                                                             .........................                                 ........................                               .............................................                                   ........................                                                                   ........................                      .........................                  ............................                                                                              ",
"                                                                             ..........................                                .......................                                 ...........................................                                    .......................                                                                    .........................                     ........................                   ...........................                                                                               ",
"                                                                             ...........................                               .......................                                   ........................................                                     .......................                                                                    ..........................                   .........................                  ............................                                                                               ",
"                                                                              ..........................                              ........................                                    .....................................                                      ........................                                                                    .............................               ..........................                  ...........................                                                                                ",
"                                                                              ...........................                             ........................                                     ..................................                                        ........................                                                                     ...............................          ............................                  ..........................                                                                                 ",
"                                                                               ...........................                           .........................                                       ..............................                                          .......................                                                                      ....................................................................                   ..........................                                                                                 ",
"                                                                               ...........................                           ........................                                          ..........................                                            .......................                                                                      ....................................................................                   .........................                                                                                  ",
"                                                                                ...........................                         .........................                                             ....................                                               .......................                                                                       ...................................................................                   ........................                                                                                   ",
"                                                                                ............................                        .........................                                                .............                                                  ........................                                                                       ..................................................................                    ........................                                                                                   ",
"                                                                                 ............................                      .........................                                                                                                                ........................                                                                        .................................................................                    .......................                                                                                    ",
"                                                                                 ............................                     ..........................                                                                                                                .......................                                                                         ................................................................                      .....................                                                                                     ",
"                                                                                  ............................                   ...........................                                                                                                                 ......................                                                                          ...............................................................                      .....................                                                                                     ",
"                                                                                  ..............................                ...........................                                                                                                                  ......................                                                                           .............................................................                        ...................                                                                                      ",
"                                                                                   ..............................              ............................                                                                                                                  .....................                                                                            ............................................................                          .................                                                                                       ",
"                                                                                   ................................          .............................                                                                                                                    ...................                                                                              ...........................................................                            ..............                                                                                        ",
"                                                                                    ..................................    ................................                                                                                                                     .................                                                                                .........................................................                               ..........                                                                                          ",
"                                                                                     ....................................................................                                                                                                                       ...............                                                                                  .......................................................                                    ..                                                                                              ",
"                                                                                     ....................................................................                                                                                                                        .............                                                                                    .....................................................                                                                                                                                     ",
"                                                                                      ..................................................................                                                                                                                           .........                                                                                       ...................................................                                                                                                                                      ",
"                                                                                       .................................................................                                                                                                                                                                                                                            .................................................                                                                                                                                       ",
"                                                                                       ................................................................                                                                                                                                                                                                                               ..............................................                                                                                                                                        ",
"                                                                                        ..............................................................                                                                                                                                                                                                                                 ............................................                                                                                                                                         ",
"                                                                                         .............................................................                                                                                                                                                                                                                                  .........................................                                                                                                                                           ",
"                                                                                          ...........................................................                                                                                                                                                                                                                                     ......................................                                                                                                                                            ",
"                                                                                           .........................................................                                                                                                                                                                                                                                        ..................................                                                                                                                                              ",
"                                                                                            .......................................................                                                                                                                                                                                                                                            .............................                                                                                                                                                ",
"                                                                                             ......................................................                                                                                                                                                                                                                                              ........................                                                                                                                                                   ",
"                                                                                              ....................................................                                                                                                                                                                                                                                                    ...............                                                                                                                                                       ",
"                                                                                               ..................................................                                                                                                                                                                                                                                                                                                   ..........                                                                                                              ",
"                                                                                                ................................................                                                                                                                                                                                                                                                                                                  ..............                                                                                                            ",
"                                                                                                 .............................................                                                                                                                                                                                                                                                                                                   ................                                                                                                           ",
"                                                                                                  ...........................................                                                                                                                                                                                                                                                                                                   ..................                                                                                                          ",
"                                                                                                    ........................................                                                                                                                                                                                                                                                                                                   ....................                                                                                                         ",
"                                                                                                     .....................................                                                                                                                                                                                                                                                                                                    .....................                                                                                                         ",
"                                                                                                       ..................................                                                                                                                                                                                                                                                                                                     ......................                                                                                                        ",
"                                                                                                         ..............................                                                                                                                                                                                                                                                                                                      .......................                                                                                                        ",
"                                                                                                           ..........................                                                                                                                                                                                                                                                                                                        ........................                                                                                                       ",
"                                                                                                             ......................                                                                                                                                                                                                                                                                                                          ........................                                                                                                       ",
"                                                                                                                 ..............                                                                                                                                                                                                                                                                                                             .........................                                                                                                       ",
"                                                                                                                                                                                                                                                                                                                                                                                                                                            .........................                                                                                                       ",
"                                                                                                                                                                                                                                                                                                                                                                                                                                            .........................                                                                                                       ",
"                                                                                                                                                                                                                                                                                                                                                                                                                                             ........................                                                                                                       ",
"                                                                                                                                                                                                                                                                                                                                                                                                                                             .......................                                                                                                        ",
"                                                                                                                                                                                                                                                                                                                                                                                                                                             .......................                                                                                                        ",
"                                                                                                                                                                                                                                                                                                                                                                                                                                              ......................                                                                                                        ",
"                                                                                                                                                                                                                                                                                                                                                                                                                                              .....................                                                                                                         ",
"                                                                                                                                                                                                                              +++                                                                                                                                                                                                              ...................                                                                                                          ",
"                                                                                                                                                                                                              ++++           ++++                                                      ++                                                                                                                                                      ..................                                                                                                           ",
"                                                                                                                                                                                                              ++++          +++++                                                     ++++                                                         ++                                                                                            ...............                                                                                                            ",
"                                                                                                                                                                                                              +++++         +++++                                                     ++++                                                        ++++                                                                                            .............                                                                                                             ",
"                                                                                                                                                                                                              +++++        +++++                                                      ++++                                                        ++++                                                                                              ........                                                                                                                ",
"                                                                                                                                                                                                               ++++       +++++                                                       ++++                                        ++++            ++++                                                                                                                                                                                                                      ",
"                                                                                                                                                                                                               +++++      +++++                                                       ++++                                      ++++++++          ++++                                                                                                                                                                                                                      ",
"                                                                                                                                                                                                                ++++     +++++                                                        ++++                                     +++++++++          ++++                                                                                                                                                                                                                      ",
"                                                                                                                                                                                                                +++++   ++++++          +++++                   ++++                  ++++                      +++++         +++++++++++         ++++                                                                                                                                                                                                                      ",
"                                                                                                                                                                                                                +++++   +++++          ++++++++       +++       ++++                  ++++                     ++++++++       +++++++++++        ++++++                                                                                                                                                                                                                     ",
"                                                                                                                                                                                                                 +++++ +++++          +++++++++++     +++      +++++                  ++++                    +++++++++++     ++++   +++++     ++++++++++++                                                                                                                                                                                                                 ",
"                                                                                                                                                                                                                 +++++++++++          ++++++++++++    ++++     +++++                  ++++                   +++++++++++++   +++++   +++++    ++++++++++++++                                                                                                                                                                                                                ",
"                                                                                                                                                                                                                  +++++++++          ++++++++++++++   ++++     +++++                  ++++                   ++++++++++++++  +++++    +++     ++++++++++++++                                                                                                                                                                                                                ",
"                                                                                                                                                                                                                  +++++++++          +++++   ++++++   ++++     +++++                  ++++                  +++++   ++++++   +++++++   +      +++++++++++++                                                                                                                                                                                                                 ",
"                                                                                                                                                                                                                  ++++++++          +++++    ++++++   ++++     +++++                  +++++                 +++++    +++++    +++++++          ++++++++                                                                                                                                                                                                                     ",
"                                                                                                                                                                                                                   ++++++           +++++     ++++    ++++    ++++++                  +++++                 ++++     +++++     ++++++++           ++++                                                                                                                                                                                                                      ",
"                                                                                                                                                                                                                   ++++++           ++++      ++++    +++++   ++++++                  +++++                 ++++     +++++      ++++++++          +++++                                                                                                                                                                                                                     ",
"                                                                                                                                                                                                                   +++++            ++++      ++++    +++++   ++++++                  +++++                +++++     +++++        +++++++         +++++                                                                                                                                                                                                                     ",
"                                                                                                                                                                                                                   +++++            ++++      ++++    +++++  +++++++                   ++++                +++++      ++++         +++++++        +++++                                                                                                                                                                                                                     ",
"                                                                                                                                                                                                                   +++++            ++++      ++++     +++++ +++++++                   ++++                +++++     +++++           ++++++        ++++                                                                                                                                                                                                                     ",
"                                                                                                                                                                                                                    ++++            ++++      ++++     ++++++++++++++                  +++++++++++++++      ++++     +++++    ++      +++++        ++++                                                                                                                                                                                                                     ",
"                                                                                                                                                                                                                    ++++            +++++    +++++      +++++++++++++                  +++++++++++++++++    ++++     +++++    ++++     ++++        ++++                                                                                                                                                                                                                     ",
"                                                                                                                                                                                                                    ++++            ++++++  ++++++      +++++++++++++                   +++++++++++++++++   +++++   +++++    +++++++  +++++        +++++   ++                                                                                                                                                                                                               ",
"                                                                                                                                                                                                                    ++++             ++++++++++++        +++++++++++                     ++++++++++++++++   +++++++++++++    ++++++++++++++        +++++ +++++                                                                                                                                                                                                              ",
"                                                                                                                                                                                                                    ++++             ++++++++++++          +++   +++                          ++++++++++     +++++++++++      ++++++++++++          ++++++++++                                                                                                                                                                                                              ",
"                                                                                                                                                                                                                    ++++              ++++++++++                                                              +++++++++         +++++++++           +++++++++                                                                                                                                                                                                               ",
"                                                                                                                                                                                                                    ++++                ++++++                                                                 +++++++            ++++++             ++++++++                                                                                                                                                                                                               ",
"                                                                                                                                                                                                                    +++++                                                                                                                             +++++                                                                                                                                                                                                                 ",
"                                                                                                                                                                                                                    ++++                                                                                                                                                                                                                                                                                                                                                    ",
"                                                                                                                                                                                                                     ++                                                                                                                                                                                                                                                                                                                                                     ",
"                                                                                                                                                                                                                                                                                                                                                                                                                                                                                                                                                                            ",
"                                                                                                                                                                                                                                                                                                                                                                                                                                                                                                                                                                            ",
"                                                                                                                                                                                                                                                                                                                                                                                                                                                                                                                                                                            ",
"                                                                                                                                                                                                                                                                                                                                                                                                                                                                                                                                                                            ",
"                                                                                                                                                                                                                                                                                                                                                                                                                                                                                                                                                                            ",
"                                                                                                                                                                                                                                                                                                                                                                                                                                                                                                                                                                            ",
"                                                                                                                                                                                                                                                                                                                                                                                                                                                                                                                                                                            ",
"                                                                                                                                                                                                                                                                                                                                                                                                                                                                                                                                                                            ",
"                                                                                                                                                                                                                                                                                                                                                                                                                                                                                                                                                                            ",
"                                                                                                                                                                                                                                                                                                                                                                                                                                                                                                                                                                            ",
"                                                                                                                                                                                                                                                                                                                                                                                                                                                                                                                                                                            ",
"                                                                                                                                                                                                                                                                                                                                                                                                                                                                                                                                                                            ",
"                                                                                                                                                                                                                                                                                                                                                                                                                                                                                                                                                                            ",
"                                                                                                                                                                                                                                                                                                                                                                                                                                                                                                                                                                            ",
"                                                                                                                                                                                                                                                                                                                                                                                                                                                                                                                                                                            ",
"                                                                                                                                                                                                                                                                                                                                                                                                                                                                                                                                                                            ",
"                                                                                                                                                                                                                                                                                                                                                                                                                                                                                                                                                                            ",
"                                                                                                                                                                                                                                                                                                                                                                                                                                                                                                                                                                            ",
"                                                                                                                                                                                                                                                                                                                                                                                                                                                                                                                                                                            ",
"                                                                                                                                                                                                                                                                                                                                                                                                                                                                                                                                                                            ",
"                                                                                                                                                                                                                                                                                                                                                                                                                                                                                                                                                                            ",
"                                                                                                                                                                                                                                                                                                                                                                                                                                                                                                                                                                            ",
"                                                                                                                                                                                                                                                                                                                                                                                                                                                                                                                                                                            ",
"                                                                                                                                                                                                                                                                                                                                                                                                                                                                                                                                                                            ",
"                                                                                                                                                                                                                                                                                                                                                                                                                                                                                                                                                                            ",
"                                                                                                                                                                                                                                                                                                                                                                                                                                                                                                                                                                            ",
"                                                                                                                                                                                                                                                                                                                                                                                                                                                                                                                                                                            ",
"                                                                                                                                                                                                                                                                                                                                                                                                                                                                                                                                                                            ",
"                                                                                                                                                                                                                                                                                                                                                                                                                                                                                                                                                                            ",
"                                                                                                                                                                                                                                                                                                                                                                                                                                                                                                                                                                            ",
"                                                                                                                                                                                                                                                                                                                                                                                                                                                                                                                                                                            ",
"                                                                                                                                                                                                                                                                                                                                                                                                                                                                                                                                                                            ",
"                                                                                                                                                                                                                                                                                                                                                                                                                                                                                                                                                                            ",
"                                                                                                                                                                                                                                                                                                                                                                                                                                                                                                                                                                            ",
"                                                                                                                                                                                                                                                                                                                                                                                                                                                                                                                                                                            ",
"                                                                                                                                                                                                                                                                                                                                                                                                                                                                                                                                                                            ",
"                                                                                                                                                                                                                                                                                                                                                                                                                                                                                                                                                                            ",
"                                                                                                                                                                                                                                                                                                                                                                                                                                                                                                                                                                            ",
"                                                                                                                                                                                                                                                                                                                                                                                                                                                                                                                                                                            ",
"                                                                                                                                                                                                                                                                                                                                                                                                                                                                                                                                                                            ",
"                                                                                                                                                                                                                                                                                                                                                                                                                                                                                                                                                                            ",
"                                                                                                                                                                                                                                                                                                                                                                                                                                                                                                                                                                            ",
"                                                                                                                                                                                                                                                                                                                                                                                                                                                                                                                                                                            ",
"                                                                                                                                                                                                                                                                                                                                                                                                                                                                                                                                                                            ",
"                                                                                                                                                                                                                                                                                                                                                                                                                                                                                                                                                                            ",
"                                                                                                                                                                                                                                                                                                                                                                                                                                                                                                                                                                            ",
"                                                                                                                                                                                                                                                                                                                                                                                                                                                                                                                                                                            ",
"                                                                                                                                                                                                                                                                                                                                                                                                                                                                                                                                                                            ",
"                                                                                                                                                                                                                                                                                                                                                                                                                                                                                                                                                                            ",
"                                                                                                                                                                                                                                                                                                                                                                                                                                                                                                                                                                            ",
"                                                                                                                                                                                                                                                                                                                                                                                                                                                                                                                                                                            ",
"                                                                                                                                                                                                                                                                                                                                                                                                                                                                                                                                                                            ",
"                                                                                                                                                                                                                                                                                                                                                                                                                                                                                                                                                                            ",
"                                                                                                                                                                                                                                                                                                                                                                                                                                                                                                                                                                            ",
"                                                                                                                                                                                                                                                                                                                                                                                                                                                                                                                                                                            ",
"                                                                                                                                                                                                                                                                                                                                                                                                                                                                                                                                                                            ",
"                                                                                                                                                                                                                                                                                                                                                                                                                                                                                                                                                                            ",
"                                                                                                                                                                                                                                                                                                                                                                                                                                                                                                                                                                            ",
"                                                                                                                                                                                                                                                                                                                                                                                                                                                                                                                                                                            ",
"                                                                                                                                                                                                                                                                                                                                                                                                                                                                                                                                                                            ",
"                                                                                                                                                                                                                                                                                                                                                                                                                                                                                                                                                                            "};
