/* XPM */
static char * moleUp[] = {
"256 256 2255 2",
"  	c #adb27b",
". 	c #1E1611",
"+ 	c #3B2D25",
"@ 	c #2A1D15",
"# 	c #211813",
"$ 	c #040202",
"% 	c #060402",
"& 	c #624E40",
"* 	c #725B4D",
"= 	c #705849",
"- 	c #695243",
"; 	c #624B3D",
"> 	c #4C392D",
", 	c #32251E",
"' 	c #0F0A07",
") 	c #060403",
"! 	c #654E41",
"~ 	c #745D4F",
"{ 	c #725A49",
"] 	c #72594A",
"^ 	c #725B4A",
"/ 	c #6D5546",
"( 	c #644D3E",
"_ 	c #4C382D",
": 	c #281C16",
"< 	c #030201",
"[ 	c #291D17",
"} 	c #49362C",
"| 	c #664E40",
"1 	c #6B5343",
"2 	c #735A4B",
"3 	c #715849",
"4 	c #715949",
"5 	c #715A4A",
"6 	c #6A5445",
"7 	c #5C4739",
"8 	c #34261D",
"9 	c #0E0907",
"0 	c #070403",
"a 	c #251B15",
"b 	c #3A2A22",
"c 	c #5E483B",
"d 	c #6A5243",
"e 	c #725A4A",
"f 	c #705848",
"g 	c #705748",
"h 	c #3C2B22",
"i 	c #120C09",
"j 	c #070503",
"k 	c #050201",
"l 	c #2C231D",
"m 	c #2C1E16",
"n 	c #3D2D23",
"o 	c #3D2B20",
"p 	c #3C291E",
"q 	c #4E3B2F",
"r 	c #564236",
"s 	c #5B473A",
"t 	c #5A4639",
"u 	c #594539",
"v 	c #584437",
"w 	c #534034",
"x 	c #453126",
"y 	c #3B281E",
"z 	c #402F26",
"A 	c #271912",
"B 	c #30231A",
"C 	c #1F1814",
"D 	c #010100",
"E 	c #020201",
"F 	c #271B14",
"G 	c #49352A",
"H 	c #6F5748",
"I 	c #624C3D",
"J 	c #3E2E24",
"K 	c #130E0B",
"L 	c #0E0A07",
"M 	c #2E241D",
"N 	c #3D2D24",
"O 	c #413025",
"P 	c #584438",
"Q 	c #584135",
"R 	c #675042",
"S 	c #644C3E",
"T 	c #675041",
"U 	c #6A5344",
"V 	c #6C5545",
"W 	c #6F5747",
"X 	c #705948",
"Y 	c #6F5848",
"Z 	c #6E5747",
"` 	c #6E5647",
" .	c #6F5746",
"..	c #6E5646",
"+.	c #6F5647",
"@.	c #6D5545",
"#.	c #705747",
"$.	c #695142",
"%.	c #634C3D",
"&.	c #674F40",
"*.	c #574234",
"=.	c #4C3A2E",
"-.	c #37281F",
";.	c #2C221D",
">.	c #110C09",
",.	c #33251C",
"'.	c #5C463A",
").	c #6C5547",
"!.	c #725949",
"~.	c #725849",
"{.	c #725848",
"].	c #050302",
"^.	c #040302",
"/.	c #150F0B",
"(.	c #2A1E17",
"_.	c #3E2E25",
":.	c #453327",
"<.	c #554134",
"[.	c #604A3C",
"}.	c #654E3E",
"|.	c #685142",
"1.	c #6C5343",
"2.	c #6F5646",
"3.	c #6D5544",
"4.	c #6D5445",
"5.	c #6D5444",
"6.	c #6E5545",
"7.	c #6E5645",
"8.	c #6F5545",
"9.	c #6E5544",
"0.	c #6D5443",
"a.	c #654E3F",
"b.	c #513E31",
"c.	c #37271E",
"d.	c #1E1510",
"e.	c #020101",
"f.	c #5E4739",
"g.	c #705949",
"h.	c #5D4839",
"i.	c #291D16",
"j.	c #010101",
"k.	c #070504",
"l.	c #241C17",
"m.	c #2D2018",
"n.	c #3F2F24",
"o.	c #564235",
"p.	c #60493C",
"q.	c #664E3F",
"r.	c #6A5343",
"s.	c #6E5546",
"t.	c #6B5242",
"u.	c #695041",
"v.	c #695141",
"w.	c #7A604E",
"x.	c #8B705D",
"y.	c #927663",
"z.	c #977A67",
"A.	c #9A7C68",
"B.	c #9D7F6B",
"C.	c #A0816C",
"D.	c #A1816C",
"E.	c #A48470",
"F.	c #A4836F",
"G.	c #A0816D",
"H.	c #9E7E6A",
"I.	c #9B7D69",
"J.	c #967965",
"K.	c #8E725F",
"L.	c #806553",
"M.	c #695040",
"N.	c #6E5444",
"O.	c #6E5445",
"P.	c #674E40",
"Q.	c #584235",
"R.	c #34251C",
"S.	c #19120E",
"T.	c #2F221B",
"U.	c #5C4639",
"V.	c #6E5547",
"W.	c #523E30",
"X.	c #1B130E",
"Y.	c #030202",
"Z.	c #2B1D15",
"`.	c #402E22",
" +	c #533E32",
".+	c #664F41",
"++	c #675040",
"@+	c #6F5644",
"#+	c #7E6351",
"$+	c #957764",
"%+	c #9E7F6B",
"&+	c #A58571",
"*+	c #AB8975",
"=+	c #B5927D",
"-+	c #BB9680",
";+	c #C09B84",
">+	c #C29D86",
",+	c #C19C85",
"'+	c #BC9881",
")+	c #B9957F",
"!+	c #B8947E",
"~+	c #B7937D",
"{+	c #B7937E",
"]+	c #B8937D",
"^+	c #B8927D",
"/+	c #BB967F",
"(+	c #C09A83",
"_+	c #C49E86",
":+	c #B9957E",
"<+	c #AE8B76",
"[+	c #A68570",
"}+	c #987A66",
"|+	c #7E6251",
"1+	c #6A5141",
"2+	c #6F5544",
"3+	c #6F5645",
"4+	c #49362A",
"5+	c #271C15",
"6+	c #37271D",
"7+	c #634C3E",
"8+	c #715748",
"9+	c #715848",
"0+	c #715948",
"a+	c #634C3C",
"b+	c #3F2F25",
"c+	c #271D17",
"d+	c #36271E",
"e+	c #4E3A2E",
"f+	c #6F5648",
"g+	c #6A5041",
"h+	c #7A604F",
"i+	c #947765",
"j+	c #A38470",
"k+	c #A98874",
"l+	c #B3917B",
"m+	c #BC9882",
"n+	c #C49F87",
"o+	c #B8937E",
"p+	c #B8947D",
"q+	c #B7937C",
"r+	c #C19B84",
"s+	c #BF9A83",
"t+	c #B08D77",
"u+	c #9F7F6B",
"v+	c #7C6250",
"w+	c #725948",
"x+	c #513D31",
"y+	c #281D15",
"z+	c #705847",
"A+	c #584335",
"B+	c #231812",
"C+	c #1F1510",
"D+	c #34241A",
"E+	c #4F3B2E",
"F+	c #614A3C",
"G+	c #705646",
"H+	c #715746",
"I+	c #8B6E5C",
"J+	c #9D7D69",
"K+	c #A88772",
"L+	c #B6937D",
"M+	c #C19B85",
"N+	c #B9947E",
"O+	c #B9947F",
"P+	c #B8947F",
"Q+	c #BA957F",
"R+	c #A3836E",
"S+	c #7F6452",
"T+	c #1E140F",
"U+	c #281D16",
"V+	c #362820",
"W+	c #3D2C21",
"X+	c #3A291E",
"Y+	c #3F2D22",
"Z+	c #3C2A1F",
"`+	c #3C2B1F",
" @	c #2D1F18",
".@	c #2F231C",
"+@	c #1E1712",
"@@	c #080503",
"#@	c #010000",
"$@	c #241912",
"%@	c #594235",
"&@	c #695242",
"*@	c #3D2E23",
"=@	c #080504",
"-@	c #2C211B",
";@	c #443227",
">@	c #5C473A",
",@	c #674F41",
"'@	c #6A5241",
")@	c #8F7260",
"!@	c #AD8B76",
"~@	c #BB9780",
"{@	c #C39D86",
"]@	c #B8937F",
"^@	c #BF9A82",
"/@	c #B5927C",
"(@	c #977966",
"_@	c #6C5443",
":@	c #705645",
"<@	c #664E3E",
"[@	c #0B0705",
"}@	c #47362C",
"|@	c #6C5546",
"1@	c #70584A",
"2@	c #71584A",
"3@	c #71594A",
"4@	c #6B5344",
"5@	c #594436",
"6@	c #302118",
"7@	c #251A14",
"8@	c #040201",
"9@	c #3F2E24",
"0@	c #674F3F",
"a@	c #594335",
"b@	c #6B5244",
"c@	c #775C4C",
"d@	c #987966",
"e@	c #B99580",
"f@	c #C29D87",
"g@	c #BC9780",
"h@	c #BB957F",
"i@	c #BE9982",
"j@	c #9D7E6A",
"k@	c #261A13",
"l@	c #554337",
"m@	c #715A4C",
"n@	c #725A4B",
"o@	c #73594A",
"p@	c #4A362A",
"q@	c #33241C",
"r@	c #160F0C",
"s@	c #211711",
"t@	c #574235",
"u@	c #6B5243",
"v@	c #765C4C",
"w@	c #9A7C6A",
"x@	c #AA8975",
"y@	c #BA9681",
"z@	c #B8957F",
"A@	c #B7947E",
"B@	c #947763",
"C@	c #6F5444",
"D@	c #3E2D23",
"E@	c #1E1612",
"F@	c #46352A",
"G@	c #47342B",
"H@	c #3C2B21",
"I@	c #3D2B22",
"J@	c #433127",
"K@	c #4F3C32",
"L@	c #564337",
"M@	c #544033",
"N@	c #685042",
"O@	c #715747",
"P@	c #685041",
"Q@	c #503B2F",
"R@	c #090604",
"S@	c #0D0806",
"T@	c #4F3A2E",
"U@	c #705746",
"V@	c #957D6B",
"W@	c #AE917D",
"X@	c #BF9F88",
"Y@	c #C3A08A",
"Z@	c #B8957E",
"`@	c #BC9781",
" #	c #B5917C",
".#	c #7D6251",
"+#	c #4F3A2D",
"@#	c #15100C",
"##	c #060302",
"$#	c #2B1C15",
"%#	c #3E2C21",
"&#	c #523E32",
"*#	c #665041",
"=#	c #4C372C",
"-#	c #523E31",
";#	c #A79380",
">#	c #D3B59F",
",#	c #CFAD96",
"'#	c #CBA892",
")#	c #BE9B85",
"!#	c #BA9781",
"~#	c #BA9680",
"{#	c #BF9983",
"]#	c #997A66",
"^#	c #564033",
"/#	c #110906",
"(#	c #221813",
"_#	c #38271E",
":#	c #513C2F",
"<#	c #654D3E",
"[#	c #7E6453",
"}#	c #876A59",
"|#	c #715847",
"1#	c #735948",
"2#	c #735949",
"3#	c #BDA693",
"4#	c #D8B7A0",
"5#	c #D6B59F",
"6#	c #C9A790",
"7#	c #BD9883",
"8#	c #BB9681",
"9#	c #BA9580",
"0#	c #B08E78",
"a#	c #735847",
"b#	c #5E4738",
"c#	c #231A14",
"d#	c #523D30",
"e#	c #AC8E79",
"f#	c #BC9A84",
"g#	c #B2907A",
"h#	c #957664",
"i#	c #B79F8B",
"j#	c #DBBAA4",
"k#	c #DBBBA4",
"l#	c #D6B49D",
"m#	c #C39F89",
"n#	c #BB9782",
"o#	c #B7947D",
"p#	c #BD9982",
"q#	c #7E6452",
"r#	c #614A3A",
"s#	c #231914",
"t#	c #37261C",
"u#	c #5A4436",
"v#	c #99806C",
"w#	c #BE9E87",
"x#	c #A78975",
"y#	c #735A48",
"z#	c #CEB9A6",
"A#	c #DDBCA5",
"B#	c #DCBCA5",
"C#	c #DAB9A2",
"D#	c #CBA891",
"E#	c #BC9782",
"F#	c #B7927E",
"G#	c #A88673",
"H#	c #BD9983",
"I#	c #8A6C5B",
"J#	c #604A3B",
"K#	c #201813",
"L#	c #49372B",
"M#	c #AC907B",
"N#	c #BB9C85",
"O#	c #A08773",
"P#	c #7C6A5B",
"Q#	c #C9B7A4",
"R#	c #DFC1AA",
"S#	c #DDBDA5",
"T#	c #DDBCA6",
"U#	c #CEAC96",
"V#	c #6E5443",
"W#	c #755B4A",
"X#	c #BB9781",
"Y#	c #BE9A84",
"Z#	c #574033",
"`#	c #100A06",
" $	c #070402",
".$	c #2A211B",
"+$	c #22140E",
"@$	c #362720",
"#$	c #947A66",
"$$	c #C2A18A",
"%$	c #CBAA93",
"&$	c #BEA794",
"*$	c #C5B19E",
"=$	c #E1C8B3",
"-$	c #DFBFA8",
";$	c #DEBEA7",
">$	c #DEBDA6",
",$	c #D0AD97",
"'$	c #A2826F",
")$	c #917360",
"!$	c #BF9982",
"~$	c #8E715F",
"{$	c #1D1611",
"]$	c #2E2018",
"^$	c #3E2D22",
"/$	c #544034",
"($	c #5F493B",
"_$	c #654D3F",
":$	c #735B4B",
"<$	c #AD8E78",
"[$	c #D8B6A0",
"}$	c #DDBDA6",
"|$	c #DCBBA4",
"1$	c #9F806C",
"2$	c #695140",
"3$	c #BF9A84",
"4$	c #4B372B",
"5$	c #241A13",
"6$	c #594337",
"7$	c #6F5847",
"8$	c #765C4B",
"9$	c #D1B49C",
"0$	c #E0BFA7",
"a$	c #E0BFA8",
"b$	c #DFBEA8",
"c$	c #DEBDA7",
"d$	c #DCBBA5",
"e$	c #CBA893",
"f$	c #AC8A75",
"g$	c #6C5442",
"h$	c #B38F7B",
"i$	c #B9937E",
"j$	c #C09B85",
"k$	c #7F6352",
"l$	c #6C5444",
"m$	c #33261D",
"n$	c #574336",
"o$	c #685141",
"p$	c #664F40",
"q$	c #7B6453",
"r$	c #CAB5A1",
"s$	c #E1C2AB",
"t$	c #DFBEA7",
"u$	c #DDBDA7",
"v$	c #DAB9A3",
"w$	c #C5A18B",
"x$	c #BE9A83",
"y$	c #775D4C",
"z$	c #B4917C",
"A$	c #B99680",
"B$	c #644E3E",
"C$	c #140E0B",
"D$	c #433228",
"E$	c #634D3E",
"F$	c #684F41",
"G$	c #664D3F",
"H$	c #564135",
"I$	c #463329",
"J$	c #3B2B22",
"K$	c #261912",
"L$	c #2E241E",
"M$	c #0C0705",
"N$	c #0C0806",
"O$	c #2E221A",
"P$	c #A89684",
"Q$	c #E0C6AF",
"R$	c #DFBDA5",
"S$	c #D4B29C",
"T$	c #705745",
"U$	c #795F4F",
"V$	c #B3907A",
"W$	c #533F33",
"X$	c #30221B",
"Y$	c #5E493B",
"Z$	c #6E5748",
"`$	c #231913",
" %	c #150E09",
".%	c #4B382C",
"+%	c #816F60",
"@%	c #D0BBA7",
"#%	c #D7B59F",
"$%	c #A88873",
"%%	c #BB9580",
"&%	c #A0806C",
"*%	c #403027",
"=%	c #49382E",
"-%	c #6B5446",
";%	c #71594B",
">%	c #6F5849",
",%	c #533E33",
"'%	c #36271F",
")%	c #130D0A",
"!%	c #2D1F16",
"~%	c #634A3C",
"{%	c #B5A18D",
"]%	c #D3B29B",
"^%	c #C4A08A",
"/%	c #856A57",
"(%	c #241914",
"_%	c #382920",
":%	c #160D08",
"<%	c #513C30",
"[%	c #977E6B",
"}%	c #C09F88",
"|%	c #554133",
"1%	c #332620",
"2%	c #6A5549",
"3%	c #675043",
"4%	c #48362D",
"5%	c #1D1510",
"6%	c #48352A",
"7%	c #896D5B",
"8%	c #BD9882",
"9%	c #A2826D",
"0%	c #31241D",
"a%	c #2A201A",
"b%	c #221A14",
"c%	c #34261E",
"d%	c #816554",
"e%	c #5C4638",
"f%	c #0C0805",
"g%	c #211610",
"h%	c #644A3C",
"i%	c #7F6453",
"j%	c #AA8973",
"k%	c #3A2A21",
"l%	c #1D130E",
"m%	c #60483A",
"n%	c #725847",
"o%	c #826654",
"p%	c #79604F",
"q%	c #120B06",
"r%	c #5A4234",
"s%	c #866A58",
"t%	c #AD8A75",
"u%	c #120904",
"v%	c #5D4436",
"w%	c #8F7361",
"x%	c #785D4C",
"y%	c #564335",
"z%	c #1C140F",
"A%	c #624A3B",
"B%	c #A0816E",
"C%	c #A68571",
"D%	c #634B3B",
"E%	c #6F5546",
"F%	c #B2907B",
"G%	c #BF9B84",
"H%	c #47352A",
"I%	c #6C5242",
"J%	c #755A4A",
"K%	c #B7927D",
"L%	c #9B7C68",
"M%	c #19120D",
"N%	c #927562",
"O%	c #B7947F",
"P%	c #6C5342",
"Q%	c #573E33",
"R%	c #B18F7A",
"S%	c #BE9881",
"T%	c #5D4739",
"U%	c #211712",
"V%	c #7C6251",
"W%	c #C09C85",
"X%	c #B7927C",
"Y%	c #AC8974",
"Z%	c #3F2D24",
"`%	c #B89580",
" &	c #9F7F6C",
".&	c #664F3F",
"+&	c #251C17",
"@&	c #2F221A",
"#&	c #9F806D",
"$&	c #BA957E",
"%&	c #463227",
"&&	c #543F33",
"*&	c #B7937F",
"=&	c #927360",
"-&	c #644C3D",
";&	c #2B1E17",
">&	c #A1816E",
",&	c #B4917B",
"'&	c #433227",
")&	c #745B4A",
"!&	c #BE9983",
"~&	c #866B58",
"{&	c #60493B",
"]&	c #31231B",
"^&	c #AE8C77",
"/&	c #38281E",
"(&	c #5D4638",
"_&	c #917361",
":&	c #402E24",
"<&	c #201611",
"[&	c #A98773",
"}&	c #5A4537",
"|&	c #090504",
"1&	c #18120E",
"2&	c #342921",
"3&	c #382B22",
"4&	c #372A21",
"5&	c #372A1F",
"6&	c #362920",
"7&	c #2E251E",
"8&	c #0A0705",
"9&	c #594236",
"0&	c #907460",
"a&	c #AA8974",
"b&	c #6E5543",
"c&	c #6A5242",
"d&	c #291E16",
"e&	c #3A2A20",
"f&	c #503C2F",
"g&	c #674E3F",
"h&	c #634B3C",
"i&	c #665040",
"j&	c #685040",
"k&	c #665042",
"l&	c #574133",
"m&	c #473529",
"n&	c #32241B",
"o&	c #32231A",
"p&	c #342319",
"q&	c #4E3B2E",
"r&	c #5C4637",
"s&	c #423125",
"t&	c #251B14",
"u&	c #674F3E",
"v&	c #B9937F",
"w&	c #A78772",
"x&	c #231912",
"y&	c #49372C",
"z&	c #654F3F",
"A&	c #6D5646",
"B&	c #6D5343",
"C&	c #674E3E",
"D&	c #6D5645",
"E&	c #594435",
"F&	c #C09A84",
"G&	c #735A49",
"H&	c #543F31",
"I&	c #685140",
"J&	c #856957",
"K&	c #A58671",
"L&	c #B5937D",
"M&	c #BA9881",
"N&	c #B89680",
"O&	c #AB8974",
"P&	c #A58570",
"Q&	c #997B67",
"R&	c #684F3F",
"S&	c #917460",
"T&	c #A68670",
"U&	c #6D5543",
"V&	c #271C16",
"W&	c #2A1F17",
"X&	c #403025",
"Y&	c #564234",
"Z&	c #6C5544",
"`&	c #9E806B",
" *	c #B28F79",
".*	c #B6927C",
"+*	c #AB8A75",
"@*	c #8B6F5D",
"#*	c #BE9A82",
"$*	c #1F1610",
"%*	c #5F4939",
"&*	c #6B5444",
"**	c #917461",
"=*	c #B08F79",
"-*	c #C29C85",
";*	c #9C7D69",
">*	c #B6927D",
",*	c #A2826E",
"'*	c #261C16",
")*	c #513D30",
"!*	c #6C5344",
"~*	c #987A67",
"{*	c #BA9780",
"]*	c #937663",
"^*	c #1C130E",
"/*	c #4D392D",
"(*	c #6D5542",
"_*	c #6A5342",
":*	c #675141",
"<*	c #6B5442",
"[*	c #907461",
"}*	c #BB9882",
"|*	c #AD8C77",
"1*	c #654F3E",
"2*	c #735F4E",
"3*	c #ADA191",
"4*	c #D1BDA5",
"5*	c #D4C1A6",
"6*	c #6B5341",
"7*	c #B18E7B",
"8*	c #C39E88",
"9*	c #C49E88",
"0*	c #443226",
"a*	c #564133",
"b*	c #74614F",
"c*	c #BFB19F",
"d*	c #F4DBC0",
"e*	c #FBD9B4",
"f*	c #FAD6B0",
"g*	c #E8D0B2",
"h*	c #68503E",
"i*	c #C49F89",
"j*	c #C5A08A",
"k*	c #C5A18A",
"l*	c #6C5341",
"m*	c #614939",
"n*	c #18100C",
"o*	c #60493A",
"p*	c #AA9B8B",
"q*	c #EFD9BC",
"r*	c #FAD9B3",
"s*	c #FBD9B2",
"t*	c #FAD6B1",
"u*	c #FADAB5",
"v*	c #AA927B",
"w*	c #806653",
"x*	c #A1816D",
"y*	c #6D5342",
"z*	c #A58470",
"A*	c #997B68",
"B*	c #8C705D",
"C*	c #7A5F4E",
"D*	c #67503F",
"E*	c #68503F",
"F*	c #6B5241",
"G*	c #795F4D",
"H*	c #927662",
"I*	c #A2816E",
"J*	c #AF8D78",
"K*	c #C19C86",
"L*	c #6D5442",
"M*	c #35251A",
"N*	c #6C5542",
"O*	c #78695B",
"P*	c #D9C8B2",
"Q*	c #FBDCB9",
"R*	c #FBDAB4",
"S*	c #FCDAB4",
"T*	c #FCD9B4",
"U*	c #FBD7B2",
"V*	c #D4BA9B",
"W*	c #BA967E",
"X*	c #A68773",
"Y*	c #A98873",
"Z*	c #967966",
"`*	c #6E5442",
" =	c #6C5241",
".=	c #8F725F",
"+=	c #5B4535",
"@=	c #0F0B08",
"#=	c #2E2016",
"$=	c #978A7C",
"%=	c #F0D9BD",
"&=	c #FCDAB5",
"*=	c #FAD7B2",
"==	c #E2C6A3",
"-=	c #B39179",
";=	c #BE9882",
">=	c #A68572",
",=	c #A88672",
"'=	c #826655",
")=	c #6A5140",
"!=	c #69503F",
"~=	c #674E3D",
"{=	c #6B5240",
"]=	c #684F3E",
"^=	c #35261D",
"/=	c #31251D",
"(=	c #362317",
"_=	c #412E21",
":=	c #4D382A",
"<=	c #4B382A",
"[=	c #3F2B1E",
"}=	c #332318",
"|=	c #251A12",
"1=	c #B1A595",
"2=	c #FBDDBC",
"3=	c #FBD8B4",
"4=	c #F8DDBF",
"5=	c #E4CDB3",
"6=	c #C1B09B",
"7=	c #967B65",
"8=	c #836755",
"9=	c #A88874",
"0=	c #BA967F",
"a=	c #9C7E6A",
"b=	c #A88773",
"c=	c #B18E79",
"d=	c #B28F7A",
"e=	c #694F3F",
"f=	c #806654",
"g=	c #69503E",
"h=	c #614837",
"i=	c #5B4333",
"j=	c #604634",
"k=	c #614835",
"l=	c #604633",
"m=	c #604533",
"n=	c #5F4533",
"o=	c #5B4230",
"p=	c #563F2E",
"q=	c #3D2B1F",
"r=	c #1D140F",
"s=	c #312218",
"t=	c #C7B7A1",
"u=	c #FADBB8",
"v=	c #F9DFBF",
"w=	c #D8C4AB",
"x=	c #786552",
"y=	c #67513F",
"z=	c #6E5644",
"A=	c #6D5341",
"B=	c #947864",
"C=	c #AC8B76",
"D=	c #684F3D",
"E=	c #694F3D",
"F=	c #664C3A",
"G=	c #634938",
"H=	c #614634",
"I=	c #5F4432",
"J=	c #5F4532",
"K=	c #5F4633",
"L=	c #604734",
"M=	c #58402F",
"N=	c #3B291C",
"O=	c #35261E",
"P=	c #685343",
"Q=	c #CFC2AF",
"R=	c #FCDBB7",
"S=	c #FBDBB6",
"T=	c #F0D9BE",
"U=	c #C0B19E",
"V=	c #7F6F5F",
"W=	c #695343",
"X=	c #90725F",
"Y=	c #B3907B",
"Z=	c #A78671",
"`=	c #8A6D5A",
" -	c #AD8B75",
".-	c #654B39",
"+-	c #634937",
"@-	c #684B38",
"#-	c #70513D",
"$-	c #755540",
"%-	c #765440",
"&-	c #6E4F3C",
"*-	c #6A4C39",
"=-	c #5D4230",
"--	c #5E4432",
";-	c #4B3527",
">-	c #1A120C",
",-	c #1F1712",
"'-	c #614A3B",
")-	c #6C5543",
"!-	c #6B5342",
"~-	c #CDC1AD",
"{-	c #FCDCB7",
"]-	c #FBD9B5",
"^-	c #EFD9BE",
"/-	c #B3A694",
"(-	c #6A5645",
"_-	c #7B6858",
":-	c #B5A897",
"<-	c #D8C6AB",
"[-	c #EAD3B5",
"}-	c #EAD5B7",
"|-	c #C19D86",
"1-	c #6B5141",
"2-	c #9B7C69",
"3-	c #A1826D",
"4-	c #654C3A",
"5-	c #664C39",
"6-	c #7F5C48",
"7-	c #755343",
"8-	c #745243",
"9-	c #785545",
"0-	c #7C5945",
"a-	c #74543E",
"b-	c #5E4431",
"c-	c #513A2A",
"d-	c #1F1710",
"e-	c #C0AF9C",
"f-	c #FCDBB8",
"g-	c #FAD8B3",
"h-	c #EDD6BD",
"i-	c #B1A495",
"j-	c #6B5646",
"k-	c #6A523F",
"l-	c #847669",
"m-	c #D0C0AB",
"n-	c #FBD8B3",
"o-	c #FCD8B4",
"p-	c #EFD4B3",
"q-	c #B28E79",
"r-	c #654C3C",
"s-	c #644A38",
"t-	c #775741",
"u-	c #7C5845",
"v-	c #694A38",
"w-	c #5E4330",
"x-	c #4C3627",
"y-	c #120A05",
"z-	c #3C2C22",
"A-	c #AB9E8D",
"B-	c #F9DDBB",
"C-	c #F5DBBD",
"D-	c #BAAD9A",
"E-	c #6D5847",
"F-	c #6A5444",
"G-	c #BEB09D",
"H-	c #F6DBBC",
"I-	c #FAD9B4",
"J-	c #FADDBA",
"K-	c #9C7C68",
"L-	c #BB9881",
"M-	c #977965",
"N-	c #664D3A",
"O-	c #644B39",
"P-	c #644836",
"Q-	c #795645",
"R-	c #75553F",
"S-	c #5D4330",
"T-	c #5E4532",
"U-	c #453022",
"V-	c #0C0907",
"W-	c #5E4839",
"X-	c #8D7E6F",
"Y-	c #F5DABD",
"Z-	c #C3B5A1",
"`-	c #796757",
" ;	c #837466",
".;	c #E4CFB8",
"+;	c #FBDAB6",
"@;	c #C7AB91",
"#;	c #8F7360",
"$;	c #624937",
"%;	c #624835",
"&;	c #785743",
"*;	c #775544",
"=;	c #75543F",
"-;	c #5E4331",
";;	c #5A412E",
">;	c #281C13",
",;	c #30241D",
"';	c #CCBEAD",
");	c #B8A994",
"!;	c #766553",
"~;	c #95877B",
"{;	c #F2DBBE",
"];	c #FCD9B3",
"^;	c #FBD7B3",
"/;	c #F6DABC",
"(;	c #BEA991",
"_;	c #957965",
":;	c #644C3C",
"<;	c #7D6351",
"[;	c #BE9883",
"};	c #8D715F",
"|;	c #866A57",
"1;	c #634936",
"2;	c #6B4E3A",
"3;	c #775545",
"4;	c #674B38",
"5;	c #4A3526",
"6;	c #36271D",
"7;	c #6A5240",
"8;	c #ACA293",
"9;	c #F9DCBB",
"0;	c #F8DCBD",
"a;	c #C2B3A2",
"b;	c #786657",
"c;	c #684E3E",
"d;	c #694F3E",
"e;	c #684E3D",
"f;	c #684D3C",
"g;	c #866B59",
"h;	c #957663",
"i;	c #826653",
"j;	c #BD9A83",
"k;	c #634A39",
"l;	c #644A37",
"m;	c #785643",
"n;	c #5A402F",
"o;	c #59402E",
"p;	c #443124",
"q;	c #392517",
"r;	c #332115",
"s;	c #2F2118",
"t;	c #251912",
"u;	c #5F493A",
"v;	c #ACA195",
"w;	c #F9DEBD",
"x;	c #FCD9B5",
"y;	c #FBDAB8",
"z;	c #DBC8B2",
"A;	c #817264",
"B;	c #6A523E",
"C;	c #6B513E",
"D;	c #8E7F6D",
"E;	c #877868",
"F;	c #664D3C",
"G;	c #977A66",
"H;	c #BC9680",
"I;	c #896C59",
"J;	c #755B49",
"K;	c #6F513D",
"L;	c #674A37",
"M;	c #5D4331",
"N;	c #5C4330",
"O;	c #59412F",
"P;	c #533B2B",
"Q;	c #3C2A1D",
"R;	c #18100A",
"S;	c #1A140F",
"T;	c #5D493B",
"U;	c #685242",
"V;	c #372920",
"W;	c #483428",
"X;	c #ACA193",
"Y;	c #FADEBE",
"Z;	c #FCDAB6",
"`;	c #FDDAB5",
" >	c #F4DABC",
".>	c #AFA18F",
"+>	c #67503E",
"@>	c #998C7D",
"#>	c #D2C1AC",
"$>	c #F6DEC2",
"%>	c #FBDEBE",
"&>	c #FBDEBF",
"*>	c #D0C1AD",
"=>	c #644C3B",
"->	c #674D3B",
";>	c #624938",
">>	c #6D5241",
",>	c #836754",
"'>	c #654B38",
")>	c #7E5A47",
"!>	c #6D4E3C",
"~>	c #5D4332",
"{>	c #573E2D",
"]>	c #312217",
"^>	c #271B13",
"/>	c #1F140C",
"(>	c #201712",
"_>	c #36261C",
":>	c #9E8E7F",
"<>	c #F8DCBC",
"[>	c #FCDBB5",
"}>	c #E4D2BA",
"|>	c #837364",
"1>	c #69513E",
"2>	c #694E3D",
"3>	c #8C7E70",
"4>	c #DECCB5",
"5>	c #FBDDBB",
"6>	c #FBDAB5",
"7>	c #FBDBB9",
"8>	c #9F8F7D",
"9>	c #735947",
"0>	c #765C4A",
"a>	c #644936",
"b>	c #795742",
"c>	c #755443",
"d>	c #735240",
"e>	c #785642",
"f>	c #74533F",
"g>	c #6F503D",
"h>	c #5D4431",
"i>	c #5A422F",
"j>	c #39291E",
"k>	c #1E150F",
"l>	c #614938",
"m>	c #8C7F70",
"n>	c #F5DCBE",
"o>	c #FCDBB6",
"p>	c #FADDBC",
"q>	c #CABBA8",
"r>	c #6D5745",
"s>	c #BDB09F",
"t>	c #F9DDBD",
"u>	c #BEB09A",
"v>	c #A88A76",
"w>	c #907360",
"x>	c #957763",
"y>	c #644B38",
"z>	c #634835",
"A>	c #694C38",
"B>	c #7C5947",
"C>	c #7F5A47",
"D>	c #5A412F",
"E>	c #302218",
"F>	c #756151",
"G>	c #EAD4B9",
"H>	c #F5DABB",
"I>	c #AB9E8F",
"J>	c #664E3C",
"K>	c #69503D",
"L>	c #746355",
"M>	c #DCCBB4",
"N>	c #FDDDB8",
"O>	c #A79B8B",
"P>	c #634A38",
"Q>	c #B8927E",
"R>	c #6A513E",
"S>	c #6B5140",
"T>	c #A68671",
"U>	c #624936",
"V>	c #624836",
"W>	c #7D5A45",
"X>	c #755243",
"Y>	c #7E5B47",
"Z>	c #654935",
"`>	c #523B2A",
" ,	c #110B08",
".,	c #281E16",
"+,	c #CEBDA9",
"@,	c #FDDAB6",
"#,	c #ECD5BB",
"$,	c #8D8274",
"%,	c #6A503E",
"&,	c #817062",
"*,	c #E9D3BB",
"=,	c #FADFC1",
"-,	c #756354",
";,	c #614734",
">,	c #614735",
",,	c #AD8E79",
"',	c #7D624F",
"),	c #836856",
"!,	c #70503C",
"~,	c #7E5B46",
"{,	c #5C4230",
"],	c #5D422F",
"^,	c #2D1D14",
"/,	c #4D392B",
"(,	c #9E9284",
"_,	c #FADDBB",
":,	c #FCDCB8",
"<,	c #DAC8B1",
"[,	c #736355",
"},	c #887A6B",
"|,	c #EED5B9",
"1,	c #FAD8B4",
"2,	c #E7D3BC",
"3,	c #5F4635",
"4,	c #614633",
"5,	c #826A58",
"6,	c #8F7463",
"7,	c #9B7E6B",
"8,	c #AC8C78",
"9,	c #6C5240",
"0,	c #5F4431",
"a,	c #422F22",
"b,	c #685444",
"c,	c #ECD7BE",
"d,	c #F9DDBC",
"e,	c #C0B19F",
"f,	c #664D3B",
"g,	c #674E3B",
"h,	c #7C6A5D",
"i,	c #EDD4B8",
"j,	c #F5DBBE",
"k,	c #C4B4A1",
"l,	c #796B5D",
"m,	c #5D432F",
"n,	c #5C422F",
"o,	c #5E4534",
"p,	c #9D816C",
"q,	c #C19D87",
"r,	c #7E6250",
"s,	c #8D705D",
"t,	c #5E4533",
"u,	c #775642",
"v,	c #594334",
"w,	c #33241B",
"x,	c #26170E",
"y,	c #261B13",
"z,	c #3C2B20",
"A,	c #695241",
"B,	c #AB9F91",
"C,	c #FBDBB7",
"D,	c #F1D9BE",
"E,	c #9A8C7F",
"F,	c #664F3D",
"G,	c #674D3C",
"H,	c #664C3B",
"I,	c #736255",
"J,	c #E7D3BA",
"K,	c #F3DBBE",
"L,	c #B9AB9A",
"M,	c #6E5C4E",
"N,	c #5E432F",
"O,	c #B4947F",
"P,	c #6A513F",
"Q,	c #B4927C",
"R,	c #7C614F",
"S,	c #604532",
"T,	c #6F503B",
"U,	c #5B412F",
"V,	c #583F2D",
"W,	c #5A402D",
"X,	c #583F2C",
"Y,	c #573E2C",
"Z,	c #543C2C",
"`,	c #3F2B1D",
" '	c #1F150E",
".'	c #523F31",
"+'	c #D9C6AD",
"@'	c #FADCBB",
"#'	c #D1BFAA",
"$'	c #756558",
"%'	c #674E3C",
"&'	c #614C3B",
"*'	c #DECCB6",
"='	c #F7DCBE",
"-'	c #BFB2A1",
";'	c #6D5948",
">'	c #5C4130",
",'	c #604433",
"''	c #6D4E39",
")'	c #664936",
"!'	c #5D4130",
"~'	c #5C412F",
"{'	c #5E422F",
"]'	c #957662",
"^'	c #6D5441",
"/'	c #815C48",
"('	c #72513F",
"_'	c #583F2E",
":'	c #3E2B1E",
"<'	c #100A07",
"['	c #4F3B2D",
"}'	c #654E3D",
"|'	c #CCBBA8",
"1'	c #D3C1AA",
"2'	c #94887B",
"3'	c #664F3E",
"4'	c #A99B8B",
"5'	c #D5C5AD",
"6'	c #7A6A5D",
"7'	c #5F4531",
"8'	c #5F4430",
"9'	c #6B4D39",
"0'	c #7A5843",
"a'	c #805C48",
"b'	c #775444",
"c'	c #7F5B48",
"d'	c #795842",
"e'	c #684B36",
"f'	c #5C422E",
"g'	c #5B402F",
"h'	c #B4937E",
"i'	c #B9937D",
"j'	c #6E5341",
"k'	c #775541",
"l'	c #765540",
"m'	c #755440",
"n'	c #6C4D3B",
"o'	c #6D4E3A",
"p'	c #5B4130",
"q'	c #493324",
"r'	c #0E0603",
"s'	c #533F30",
"t'	c #664E3D",
"u'	c #644A3A",
"v'	c #654C39",
"w'	c #644F3E",
"x'	c #EED8BE",
"y'	c #EBD4B9",
"z'	c #9C8F7F",
"A'	c #5E4230",
"B'	c #7F5B46",
"C'	c #785645",
"D'	c #7D5947",
"E'	c #72523D",
"F'	c #5C412E",
"G'	c #5D422E",
"H'	c #6B513F",
"I'	c #C29E86",
"J'	c #775E4C",
"K'	c #6B4D3A",
"L'	c #7F5B47",
"M'	c #70503E",
"N'	c #614533",
"O'	c #4A3322",
"P'	c #110B07",
"Q'	c #38281D",
"R'	c #6A5341",
"S'	c #69513F",
"T'	c #5D4333",
"U'	c #ACA093",
"V'	c #FBDAB7",
"W'	c #FADDBD",
"X'	c #C4B6A3",
"Y'	c #695443",
"Z'	c #6B4D38",
"`'	c #6B523F",
" )	c #957A66",
".)	c #5E4332",
"+)	c #7C5A45",
"@)	c #745341",
"#)	c #7D5A47",
"$)	c #765344",
"%)	c #7C5946",
"&)	c #5D4430",
"*)	c #402C1F",
"=)	c #4B382B",
"-)	c #644D3D",
";)	c #644B3B",
">)	c #5A4334",
",)	c #31221A",
"')	c #3E2C20",
"))	c #5E4837",
"!)	c #E4CFB5",
"~)	c #EBD4BB",
"{)	c #93877A",
"])	c #604632",
"^)	c #614632",
"/)	c #644734",
"()	c #5D412E",
"_)	c #5F4534",
":)	c #7A5F4D",
"<)	c #AE907B",
"[)	c #5A402E",
"})	c #71523C",
"|)	c #745240",
"1)	c #7E5A46",
"2)	c #7A5746",
"3)	c #583E2D",
"4)	c #1F150F",
"5)	c #21170F",
"6)	c #1D1109",
"7)	c #221710",
"8)	c #4F392A",
"9)	c #614937",
"0)	c #7A6958",
"a)	c #FADFC0",
"b)	c #CCBDA7",
"c)	c #6A5745",
"d)	c #5B412E",
"e)	c #72533D",
"f)	c #8C725F",
"g)	c #593F2E",
"h)	c #684A37",
"i)	c #795644",
"j)	c #664935",
"k)	c #3D2A1D",
"l)	c #5D4635",
"m)	c #604735",
"n)	c #9B9086",
"o)	c #F9D7B3",
"p)	c #A39788",
"q)	c #5E4430",
"r)	c #7B5944",
"s)	c #654835",
"t)	c #977B68",
"u)	c #C49F88",
"v)	c #846B5A",
"w)	c #5F4331",
"x)	c #5B402E",
"y)	c #5A3F2E",
"z)	c #6F4E3E",
"A)	c #745340",
"B)	c #553D2B",
"C)	c #573F2D",
"D)	c #5F4734",
"E)	c #978B7F",
"F)	c #D1BFAD",
"G)	c #76655A",
"H)	c #5F4632",
"I)	c #73533D",
"J)	c #7D5A46",
"K)	c #70503D",
"L)	c #A68774",
"M)	c #C29E88",
"N)	c #6A503D",
"O)	c #A0826E",
"P)	c #937764",
"Q)	c #B1907B",
"R)	c #C39D87",
"S)	c #C49F8A",
"T)	c #C29C86",
"U)	c #C39E87",
"V)	c #9E826E",
"W)	c #7E5A45",
"X)	c #755441",
"Y)	c #6C4E39",
"Z)	c #6A4B39",
"`)	c #795745",
" !	c #7B5846",
".!	c #563D2C",
"+!	c #5D4432",
"@!	c #5C4331",
"#!	c #5B422F",
"$!	c #7B5844",
"%!	c #70503F",
"&!	c #5B402D",
"*!	c #593F2C",
"=!	c #5A4130",
"-!	c #8D725F",
";!	c #AF8E7A",
">!	c #C29F88",
",!	c #694F3C",
"'!	c #684D3B",
")!	c #A08370",
"!!	c #A88974",
"~!	c #8A6F5C",
"{!	c #BF9B85",
"]!	c #AF8E79",
"^!	c #9F816E",
"/!	c #8B715E",
"(!	c #705543",
"_!	c #5F4735",
":!	c #876D5A",
"<!	c #9E806C",
"[!	c #AE8D79",
"}!	c #AE8E79",
"|!	c #594130",
"1!	c #624632",
"2!	c #765444",
"3!	c #5F4433",
"4!	c #593F2D",
"5!	c #21130A",
"6!	c #221913",
"7!	c #6E4F3B",
"8!	c #7C5A46",
"9!	c #5B412D",
"0!	c #896D5C",
"a!	c #C19E87",
"b!	c #A1836F",
"c!	c #846956",
"d!	c #896E5B",
"e!	c #A98976",
"f!	c #BD9881",
"g!	c #BA9882",
"h!	c #967A67",
"i!	c #5A4230",
"j!	c #5C4332",
"k!	c #957865",
"l!	c #B99781",
"m!	c #5D4232",
"n!	c #59402D",
"o!	c #2B1C13",
"p!	c #1A100A",
"q!	c #473022",
"r!	c #7C5944",
"s!	c #715846",
"t!	c #B7957F",
"u!	c #5E4531",
"v!	c #706156",
"w!	c #C2B3A1",
"x!	c #DFCDB6",
"y!	c #BDAF9F",
"z!	c #5E4736",
"A!	c #B1917C",
"B!	c #A78A76",
"C!	c #BB9A84",
"D!	c #987C69",
"E!	c #856A58",
"F!	c #AE8D7A",
"G!	c #BF9C85",
"H!	c #8F745F",
"I!	c #5C412D",
"J!	c #5C402E",
"K!	c #745B49",
"L!	c #5F4230",
"M!	c #5D4231",
"N!	c #23150C",
"O!	c #39261A",
"P!	c #604432",
"Q!	c #7B5945",
"R!	c #BB9883",
"S!	c #927765",
"T!	c #907664",
"U!	c #B0917B",
"V!	c #C4A089",
"W!	c #5E4635",
"X!	c #87796B",
"Y!	c #F0D9BF",
"Z!	c #C7B8A6",
"`!	c #876C5B",
" ~	c #9C806E",
".~	c #604531",
"+~	c #967967",
"@~	c #A38672",
"#~	c #5B422E",
"$~	c #9B7F6C",
"%~	c #AB8C77",
"&~	c #583D2C",
"*~	c #5F4232",
"=~	c #6F4F3A",
"-~	c #72523C",
";~	c #73533C",
">~	c #6F503A",
",~	c #715140",
"'~	c #795743",
")~	c #765543",
"!~	c #563D2B",
"~~	c #160E09",
"{~	c #4B3426",
"]~	c #6F4F3C",
"^~	c #6E4E3E",
"/~	c #725142",
"(~	c #74523F",
"_~	c #674935",
":~	c #947764",
"<~	c #745A48",
"[~	c #B1907A",
"}~	c #B8937C",
"|~	c #BA9983",
"1~	c #B89782",
"2~	c #B99984",
"3~	c #C2A08A",
"4~	c #E9D3B9",
"5~	c #FDD9B5",
"6~	c #FBDFC1",
"7~	c #7F7265",
"8~	c #594131",
"9~	c #C8A48C",
"0~	c #AB8F7A",
"a~	c #5C4433",
"b~	c #9F9487",
"c~	c #DFCBB3",
"d~	c #C4B4A0",
"e~	c #6B5A4B",
"f~	c #9B806E",
"g~	c #584331",
"h~	c #5C432F",
"i~	c #B4937D",
"j~	c #5A3F2D",
"k~	c #7C5846",
"l~	c #755344",
"m~	c #604431",
"n~	c #4F3929",
"o~	c #0F0804",
"p~	c #4B3424",
"q~	c #71503E",
"r~	c #8E7361",
"s~	c #C39F88",
"t~	c #987B68",
"u~	c #573F2E",
"v~	c #573D2C",
"w~	c #A89B8F",
"x~	c #BFB09B",
"y~	c #BEA48F",
"z~	c #5C4533",
"A~	c #6C5D4E",
"B~	c #DBC9B3",
"C~	c #FDD9B4",
"D~	c #DBC9B1",
"E~	c #5A4332",
"F~	c #A68874",
"G~	c #B0937E",
"H~	c #887B70",
"I~	c #E2CDB5",
"J~	c #F2DBBF",
"K~	c #AB9F8E",
"L~	c #C19E88",
"M~	c #886F5C",
"N~	c #674A35",
"O~	c #7C5A44",
"P~	c #795741",
"Q~	c #7B5845",
"R~	c #70513C",
"S~	c #372519",
"T~	c #090503",
"U~	c #4B3525",
"V~	c #694B37",
"W~	c #6A4C38",
"X~	c #5C402D",
"Y~	c #9D806C",
"Z~	c #997C68",
"`~	c #624837",
" {	c #D0BEAA",
".{	c #DDCAB3",
"+{	c #5B4231",
"@{	c #DBCAB5",
"#{	c #FDDBB6",
"${	c #FDDAB4",
"%{	c #FBDCBB",
"&{	c #8B7E72",
"*{	c #7F6D5E",
"={	c #634B3A",
"-{	c #817163",
";{	c #F5DCC0",
">{	c #FBDEBD",
",{	c #8F8173",
"'{	c #C1A48E",
"){	c #836C5B",
"!{	c #785641",
"~{	c #7A5745",
"{{	c #7D5946",
"]{	c #563E2D",
"^{	c #3A271A",
"/{	c #74533D",
"({	c #825D49",
"_{	c #815D48",
":{	c #785741",
"<{	c #DDCAB5",
"[{	c #E0CAB3",
"}{	c #553D2C",
"|{	c #85786C",
"1{	c #FADEBF",
"2{	c #BAAE9D",
"3{	c #5D4534",
"4{	c #E3CFB8",
"5{	c #CFBEA8",
"6{	c #533B2A",
"7{	c #120C08",
"8{	c #20160F",
"9{	c #6B4E39",
"0{	c #593E2D",
"a{	c #6E4E3B",
"b{	c #58402D",
"c{	c #DFCAB5",
"d{	c #E1CAB4",
"e{	c #563E2C",
"f{	c #A3968A",
"g{	c #FDDBB5",
"h{	c #C3B29F",
"i{	c #B3A494",
"j{	c #FDDCB9",
"k{	c #F4DBBF",
"l{	c #594434",
"m{	c #533A29",
"n{	c #0D0906",
"o{	c #3D2A1C",
"p{	c #7B5943",
"q{	c #573E2B",
"r{	c #583E2B",
"s{	c #6C4D38",
"t{	c #775640",
"u{	c #6E503C",
"v{	c #58402E",
"w{	c #E1CBB5",
"x{	c #DDCBB3",
"y{	c #B1A193",
"z{	c #CDB9A3",
"A{	c #5D412F",
"B{	c #57402E",
"C{	c #E6D0B8",
"D{	c #8A7C6D",
"E{	c #614531",
"F{	c #7F5A48",
"G{	c #4E3828",
"H{	c #553C2A",
"I{	c #72523F",
"J{	c #785544",
"K{	c #6A4C3A",
"L{	c #E3CCB6",
"M{	c #D6C2AA",
"N{	c #A99B8F",
"O{	c #C8B5A1",
"P{	c #CABBA7",
"Q{	c #B6A999",
"R{	c #73523D",
"S{	c #5E4232",
"T{	c #644735",
"U{	c #70513B",
"V{	c #694C37",
"W{	c #2E1F15",
"X{	c #573D2B",
"Y{	c #815D49",
"Z{	c #72523E",
"`{	c #58412E",
" ]	c #E0CAB4",
".]	c #BDAF9E",
"+]	c #978E86",
"@]	c #BEAE9E",
"#]	c #94867A",
"$]	c #FCDCBA",
"%]	c #72533E",
"&]	c #745241",
"*]	c #432E20",
"=]	c #6C4F39",
"-]	c #71523E",
";]	c #DDCAB4",
">]	c #B5A99A",
",]	c #867664",
"']	c #FCDFBE",
")]	c #FCD8B3",
"!]	c #BBB1A0",
"~]	c #5A4333",
"{]	c #EFD8BE",
"]]	c #EBD3BA",
"^]	c #57412F",
"/]	c #72513E",
"(]	c #372419",
"_]	c #3A2C22",
":]	c #DDCBB6",
"<]	c #968D82",
"[]	c #5A4638",
"}]	c #F8E0C5",
"|]	c #FBD8B2",
"1]	c #BDB19F",
"2]	c #C8B9A7",
"3]	c #F9DEC2",
"4]	c #685241",
"5]	c #3F2D20",
"6]	c #382415",
"7]	c #352112",
"8]	c #392719",
"9]	c #16100B",
"0]	c #271A11",
"a]	c #7B5746",
"b]	c #72513D",
"c]	c #73533E",
"d]	c #805C47",
"e]	c #6F4F3D",
"f]	c #DBC8B0",
"g]	c #FADFC3",
"h]	c #654834",
"i]	c #75553E",
"j]	c #E1CDB5",
"k]	c #FAD7B3",
"l]	c #B3A693",
"m]	c #8A7C6F",
"n]	c #FBDDBD",
"o]	c #FBDCBA",
"p]	c #948A7E",
"q]	c #583E2C",
"r]	c #7E5A48",
"s]	c #765441",
"t]	c #281B13",
"u]	c #241A12",
"v]	c #533B29",
"w]	c #CBB8A4",
"x]	c #F4DCC1",
"y]	c #5B4434",
"z]	c #C2B4A2",
"A]	c #FAD9B5",
"B]	c #9A9188",
"C]	c #614733",
"D]	c #584231",
"E]	c #E7D2BA",
"F]	c #B7AB9A",
"G]	c #614532",
"H]	c #6F4F3B",
"I]	c #634637",
"J]	c #4C3525",
"K]	c #503828",
"L]	c #674936",
"M]	c #BDB0A3",
"N]	c #DFCCB4",
"O]	c #73523E",
"P]	c #FBDDBA",
"Q]	c #938D86",
"R]	c #6D503A",
"S]	c #765640",
"T]	c #AFA497",
"U]	c #CBBAA3",
"V]	c #755341",
"W]	c #231610",
"X]	c #302117",
"Y]	c #593E2C",
"Z]	c #795744",
"`]	c #715040",
" ^	c #BDB2A4",
".^	c #C3B5A2",
"+^	c #5B4637",
"@^	c #F4DDC1",
"#^	c #FCDEBB",
"$^	c #948B80",
"%^	c #6C4F3A",
"&^	c #805D47",
"*^	c #695647",
"=^	c #F3DBC1",
"-^	c #513A29",
";^	c #251810",
">^	c #1E140D",
",^	c #38271B",
"'^	c #4F3A2C",
")^	c #463124",
"!^	c #170F0A",
"~^	c #614432",
"{^	c #785742",
"]^	c #664838",
"^^	c #A6998E",
"/^	c #B0A494",
"(^	c #785543",
"_^	c #CFBFA9",
":^	c #FCDFC0",
"<^	c #93836F",
"[^	c #6A4D38",
"}^	c #C2B4A3",
"|^	c #F6DEC1",
"1^	c #3F2A1D",
"2^	c #412C1F",
"3^	c #453023",
"4^	c #392619",
"5^	c #2F2016",
"6^	c #020100",
"7^	c #433024",
"8^	c #674A3A",
"9^	c #725240",
"0^	c #725441",
"a^	c #725340",
"b^	c #6F513F",
"c^	c #604535",
"d^	c #302319",
"e^	c #100803",
"f^	c #4E3625",
"g^	c #6A4B3A",
"h^	c #644737",
"i^	c #6D4F3A",
"j^	c #614534",
"k^	c #745440",
"l^	c #674937",
"m^	c #7A5842",
"n^	c #75533F",
"o^	c #735241",
"p^	c #958A81",
"q^	c #FCDEBC",
"r^	c #FBDEBC",
"s^	c #8F8175",
"t^	c #A19789",
"u^	c #FBDFC0",
"v^	c #8E7964",
"w^	c #7A5844",
"x^	c #716154",
"y^	c #F6DDC1",
"z^	c #FAE0C4",
"A^	c #675344",
"B^	c #5F4332",
"C^	c #553B2A",
"D^	c #0F0A06",
"E^	c #3B291E",
"F^	c #715041",
"G^	c #735242",
"H^	c #70513F",
"I^	c #654838",
"J^	c #251911",
"K^	c #100905",
"L^	c #493426",
"M^	c #76553F",
"N^	c #5C402F",
"O^	c #7F5B45",
"P^	c #6B5748",
"Q^	c #FBE0C4",
"R^	c #F9E0C4",
"S^	c #5A3F2F",
"T^	c #F1D9BF",
"U^	c #FBDFC2",
"V^	c #876F58",
"W^	c #654936",
"X^	c #FCDFBD",
"Y^	c #93887B",
"Z^	c #5E4231",
"`^	c #402A1C",
" /	c #5D4234",
"./	c #503A2A",
"+/	c #2D1E13",
"@/	c #624533",
"#/	c #624534",
"$/	c #F4DCC2",
"%/	c #E4CFB6",
"&/	c #C8B9A6",
"*/	c #89715A",
"=/	c #726257",
"-/	c #9F9489",
";/	c #7B5745",
">/	c #030101",
",/	c #5E4234",
"'/	c #654C3B",
")/	c #2A1E15",
"!/	c #39271B",
"~/	c #493122",
"{/	c #472F1F",
"]/	c #4D3628",
"^/	c #4E3725",
"//	c #DECBB3",
"(/	c #FDDCB7",
"_/	c #CDBDA8",
":/	c #817468",
"</	c #FADEBD",
"[/	c #FAE0C2",
"}/	c #88715A",
"|/	c #674A36",
"1/	c #BEB2A2",
"2/	c #825E49",
"3/	c #352519",
"4/	c #5C4233",
"5/	c #6F503F",
"6/	c #5E4535",
"7/	c #3A2617",
"8/	c #74543F",
"9/	c #C1B3A1",
"0/	c #B2A799",
"a/	c #795843",
"b/	c #594230",
"c/	c #DAC8B2",
"d/	c #876F59",
"e/	c #7E5B48",
"f/	c #645041",
"g/	c #BDB4A3",
"h/	c #3A2A1F",
"i/	c #715141",
"j/	c #6B4F3D",
"k/	c #38271C",
"l/	c #3A271B",
"m/	c #FCDDB9",
"n/	c #FCDEBE",
"o/	c #857465",
"p/	c #9A8F84",
"q/	c #FBE1C3",
"r/	c #866F57",
"s/	c #604333",
"t/	c #815C49",
"u/	c #9C9083",
"v/	c #5F4631",
"w/	c #6E4F3A",
"x/	c #6F523B",
"y/	c #684B37",
"z/	c #3B2A1E",
"A/	c #100B08",
"B/	c #533C2D",
"C/	c #6B4E3C",
"D/	c #725241",
"E/	c #725141",
"F/	c #715240",
"G/	c #6F503E",
"H/	c #422F23",
"I/	c #2C1C13",
"J/	c #6A5646",
"K/	c #F9E2C5",
"L/	c #F1DAC1",
"M/	c #5A4331",
"N/	c #E4CFB9",
"O/	c #FBE0C3",
"P/	c #826A53",
"Q/	c #C5B7A5",
"R/	c #FBDBB8",
"S/	c #BCB0A2",
"T/	c #7E5C46",
"U/	c #4C3526",
"V/	c #261910",
"W/	c #2E2119",
"X/	c #493427",
"Y/	c #594132",
"Z/	c #573F2F",
"`/	c #473326",
" (	c #563D2A",
".(	c #5B4330",
"+(	c #D0C0AC",
"@(	c #998E81",
"#(	c #FCDDBB",
"$(	c #FADFC2",
"%(	c #7A624C",
"&(	c #835E4A",
"*(	c #6C4E3A",
"=(	c #5C4535",
"-(	c #C6B9AC",
";(	c #9E9183",
">(	c #573D2A",
",(	c #523827",
"'(	c #422C1E",
")(	c #2D2017",
"!(	c #1A110B",
"~(	c #291A11",
"{(	c #382519",
"](	c #392518",
"^(	c #22170F",
"/(	c #483324",
"((	c #624633",
"_(	c #ABA193",
":(	c #9D9183",
"<(	c #DAC9B4",
"[(	c #624B3C",
"}(	c #825E4A",
"|(	c #573F2C",
"1(	c #39281C",
"2(	c #3C2719",
"3(	c #392416",
"4(	c #372314",
"5(	c #362213",
"6(	c #3C291C",
"7(	c #2A1B12",
"8(	c #271C14",
"9(	c #1F160E",
"0(	c #5C4231",
"a(	c #674C39",
"b(	c #4C3728",
"c(	c #110905",
"d(	c #25190F",
"e(	c #7F5C47",
"f(	c #5D4737",
"g(	c #BFB4A6",
"h(	c #5B4332",
"i(	c #805B48",
"j(	c #746457",
"k(	c #E2D3BE",
"l(	c #574232",
"m(	c #7D5945",
"n(	c #6A4D39",
"o(	c #291B13",
"p(	c #664937",
"q(	c #553C2C",
"r(	c #120A06",
"s(	c #402D1F",
"t(	c #584130",
"u(	c #795844",
"v(	c #342317",
"w(	c #19110B",
"x(	c #5A4131",
"y(	c #694D3A",
"z(	c #735142",
"A(	c #704F3F",
"B(	c #674C38",
"C(	c #452F21",
"D(	c #624532",
"E(	c #74533E",
"F(	c #805C49",
"G(	c #765541",
"H(	c #543C2B",
"I(	c #130D08",
"J(	c #684C39",
"K(	c #6F4F3F",
"L(	c #6E4E3D",
"M(	c #6B4F3B",
"N(	c #402C1E",
"O(	c #684A36",
"P(	c #644637",
"Q(	c #71513D",
"R(	c #775641",
"S(	c #6D4D3E",
"T(	c #825C49",
"U(	c #2B1E15",
"V(	c #4D3627",
"W(	c #6C4F3C",
"X(	c #5D4433",
"Y(	c #100B09",
"Z(	c #2A1C12",
"`(	c #5E4233",
" _	c #684939",
"._	c #6F503C",
"+_	c #4D3727",
"@_	c #6D4E3D",
"#_	c #6C503C",
"$_	c #442E20",
"%_	c #634733",
"&_	c #503827",
"*_	c #251910",
"=_	c #694C39",
"-_	c #6D4F3D",
";_	c #6B503C",
">_	c #0F0906",
",_	c #261810",
"'_	c #35261B",
")_	c #362114",
"!_	c #422C1D",
"~_	c #463024",
"{_	c #432C1F",
"]_	c #3C291D",
"^_	c #513929",
"/_	c #322218",
"(_	c #5C4232",
"__	c #684E3A",
":_	c #6C4F3D",
"<_	c #684C3A",
"[_	c #4E3729",
"}_	c #100B07",
"|_	c #523A29",
"1_	c #634633",
"2_	c #75543E",
"3_	c #7C5844",
"4_	c #7E5947",
"5_	c #795642",
"6_	c #412C1E",
"7_	c #271910",
"8_	c #382417",
"9_	c #473122",
"0_	c #4C3523",
"a_	c #4B3321",
"b_	c #4B3524",
"c_	c #3F2A1C",
"d_	c #342217",
"e_	c #20160E",
"f_	c #261A12",
"g_	c #684C38",
"h_	c #6B4E3B",
"i_	c #6A4E3A",
"j_	c #4C382A",
"k_	c #140D09",
"l_	c #3E2A1D",
"m_	c #71513C",
"n_	c #795643",
"o_	c #775542",
"p_	c #785542",
"q_	c #74523E",
"r_	c #493325",
"s_	c #150D09",
"t_	c #4E3627",
"u_	c #543D2D",
"v_	c #422E22",
"w_	c #1E130B",
"x_	c #402C1D",
"y_	c #6D4D3A",
"z_	c #2F1E14",
"A_	c #442F1F",
"B_	c #4F3828",
"C_	c #2A1C13",
"D_	c #37251A",
"E_	c #453122",
"F_	c #4A3321",
"G_	c #59412E",
"H_	c #553C29",
"I_	c #493121",
"J_	c #31241A",
"K_	c #060301",
"L_	c #2A2119",
"M_	c #32261D",
"N_	c #352A20",
"O_	c #342820",
"P_	c #5E442F",
"Q_	c #775540",
"R_	c #6C4D39",
"S_	c #3E2A1E",
"T_	c #412E20",
"U_	c #4E3829",
"V_	c #4D3728",
"W_	c #4B3526",
"X_	c #3B2619",
"Y_	c #3F2C1F",
"Z_	c #1C140D",
"`_	c #503726",
" :	c #644835",
".:	c #70523B",
"+:	c #6E503A",
"@:	c #4E3626",
"#:	c #3B291D",
"$:	c #523A28",
"%:	c #775442",
"&:	c #533928",
"*:	c #2E1E14",
"=:	c #130A05",
"-:	c #463022",
";:	c #2F1F14",
">:	c #0D0705",
",:	c #302014",
"':	c #180F0A",
"):	c #583D2B",
"!:	c #503727",
"~:	c #3C281C",
"{:	c #21150D",
"]:	c #291C13",
"^:	c #523927",
"/:	c #301F14",
"(:	c #17100B",
"_:	c #281A11",
"::	c #3B281B",
"<:	c #3A2719",
"[:	c #483224",
"}:	c #483325",
"|:	c #3E2A1C",
"1:	c #352214",
"2:	c #2F2116",
"3:	c #281B12",
"4:	c #22180F",
"5:	c #2F2015",
"6:	c #3E291B",
"7:	c #493322",
"8:	c #553C2B",
"9:	c #563C29",
"0:	c #543A27",
"a:	c #543B28",
"b:	c #553B29",
"c:	c #563C2A",
"d:	c #493221",
"e:	c #443021",
"f:	c #38261A",
"g:	c #040100",
"h:	c #030100",
"                                                                                                                                                                                                                                                                                                                                                                                                                                                                                                                                ",
"                                                                                                                                                                                                                                                                                                                                                                                                                                                                                                                                ",
"                                                                                                                                                                                                                                                                                                                                                                                                                                                                                                                                ",
"                                                                                                                                                                                                                                                                                                                                                                                                                                                                                                                                ",
"                                                                                                                                                                                                                                                                                                                                                                                                                                                                                                                                ",
"                                                                                                                                                                                                                                                                                                                                                                                                                                                                                                                                ",
"                                                                                                                                                                                                                                                                                                                                                                                                                                                                                                                                ",
"                                                                                                                                                                                                                                                                                                                                                                                                                                                                                                                                ",
"                                                                                                                                                                                                                                                                                                                                                                                                                                                                                                                                ",
"                                                                                                                                                                                                                                                                                                                                                                                                                                                                                                                                ",
"                                                                                                                                                                                                                                                                                                                                                                                                                                                                                                                                ",
"                                                                                                                                                                                                                                                                                                                                                                                                                                                                                                                                ",
"                                                                                                                                                                                                                                                                                                                                                                                                                                                                                                                                ",
"                                                                                                                                                                                                                                                                                                                                                                                                                                                                                                                                ",
"                                                                                                                                                                                                                                                                                                                                                                                                                                                                                                                                ",
"                                                                                                                                                                                                                                                                                                                                                                                                                                                                                                                                ",
"                                                                                                                                                                                                                                                                                                                                                                                                                                                                                                                                ",
"                                                                                                                                                                                                                                                                                                                                                                                                                                                                                                                                ",
"                                                                                                                                                                                                                                                                                                                                                                                                                                                                                                                                ",
"                                                                                                                                                                                                                                                                                                                                                                                                                                                                                                                                ",
"                                                                                                                                                                                                                                                                                                                                                                                                                                                                                                                                ",
"                                                                                                                                                                                                                                                                                                                                                                                                                                                                                                                                ",
"                                                                                                                                                                                                                                                                                                                                                                                                                                                                                                                                ",
"                                                                                                                                                                                                                                                                                                                                                                                                                                                                                                                                ",
"                                                                                                                                                                                                                                                                                                                                                                                                                                                                                                                                ",
"                                                                                                                                                                                                                                                                                                                                                                                                                                                                                                                                ",
"                                                                                                                                                                                                                                                                                                                                                                                                                                                                                                                                ",
"                                                                                                                                                                                                                                                                                                                                                                                                                                                                                                                                ",
"                                                                                                                                                                                                                                                                                                                                                                                                                                                                                                                                ",
"                                                                                                                                                                                                                                                                                                                                                                                                                                                                                                                                ",
"                                                                                                                                                                                                                                                                                                                                                                                                                                                                                                                                ",
"                                                                                                                                                                                                                                                                                                                                                                                                                                                                                                                                ",
"                                                                                                                                                                                                                                                                                                                                                                                                                                                                                                                                ",
"                                                                                                                                                                                                                                                                                                                                                                                                                                                                                                                                ",
"                                                                                                                                                                                                                                                                                                                                                                                                                                                                                                                                ",
"                                                                                                                                                                                                                                                                                                                                                                                                                                                                                                                                ",
"                                                                                                                                                                                                                                                                                                                                                                                                                                                                                                                                ",
"                                                                                                                                                                                                                                                                                                                                                                                                                                                                                                                                ",
"                                                                                                                                                                                                                                                                                                                                                                                                                                                                                                                                ",
"                                                                                                                                                                                                                                                                                                                                                                                                                                                                                                                                ",
"                                                                                                                                                                                                                                                                                                                                                                                                                                                                                                                                ",
"                                                                                                                                                                                                                                                                                                                                                                                                                                                                                                                                ",
"                                                                                                                                                                                                                                                                                                                                                                                                                                                                                                                                ",
"                                                                                                                                                                                                                                                                                                                                                                                                                                                                                                                                ",
"                                                                                                                                                                                                                                                                                                                                                                                                                                                                                                                                ",
"                                                                                                                                                                                                                                                                                                                                                                                                                                                                                                                                ",
"                                                                                                                                                                                                                                                                                                                                                                                                                                                                                                                                ",
"                                                                                                                                                                                                                                                                                                                                                                                                                                                                                                                                ",
"                                                                                                                                                                                                                                                                                                                                                                                                                                                                                                                                ",
"                                                                                                                                                                                                                                                                                                                                                                                                                                                                                                                                ",
"                                                                                                . + @ # $                                                                                                                                                                                                                                                                                                                                                                                                                       ",
"                                                                                              % & * = - ; > , '                                                                                                                                                                                                                                                                                                                                                                                                                 ",
"                                                                                              ) ! ~ { ] ] ^ / ( _ : <                                                                                                                                                                                                                                                                                                                                                                                                           ",
"                                                                                                [ } | 1 2 ] 3 4 5 6 7 8 9                                                                                                                                                                                                                                                                                                                                                                                                       ",
"                                                                                                    0 a b c d e 4 f ] g ; h i                                                                                                 j k l m m n o p q r s t u v u v u t w x y z A B C 0 D                                                                                                                                                                                                                                             ",
"                                                                                                          E F G | H 3 3 4 5 I J K                                                                             ) L M @ N O P Q R S T U V W X Y Z ` ` ` Z  .W ..+.@.` #.f f / $.%.&.*.=.-.;.j                                                                                                                                                                                                                                     ",
"                                                                                                                >.,.'.).!.~.{.3 %.h ].                                                            ^./.(._.:.<.[.}.|.1...2...3.4.3.3.5.5.6.6.6.6.6.7.6.6.8.6.9.9.9.9.9.6.5.0.3.5.9.9. ...d a.b.c.d.e.                                                                                                                                                                                                                            ",
"                                                                                                                    ].,.f.2.3 {.4 g.h.i.j.                                              k.l.m.n.o.p.q.r...f s.@.s.6.@.@.3.9.5.6.t.u.v.1.w.x.y.z.A.B.C.D.E.F.G.H.I.J.K.L.0.M.v.N.6.9.O.@...2.W  .P.Q.R.S.                                                                                                                                                                                                                        ",
"                                                                                                                        ^.T.U.V.4 f { / W.X.                                  Y.. Z.`. +.+++4.2.2.6.9.6.7.6.@+2.5.v.t.#+$+%+&+*+=+-+;+>+,+'+)+!+~+{+~+~+]+]+^+]+]+!+/+(+_+(+:+<+[+}+|+1+2+8.8.8.3+2.6.q.4+5+e.                                                                                                                                                                                                                  ",
"                                                                                                                            ].6+7+8+9+3 0+a+b+].                      ].c+d+e+7 &.Z f+` 2.s.7.8.6.8.t.g+h+i+j+k+l+m+n+;+)+~+~+~+o+~+!+!+p+o+o+!+!+!+!+o+!+!+]+]+]+]+!+]+!+p+~+]+q+q+r+s+t+u+v+t.3+8.3+3+w+v.x+y+j.                                                                                                                                                                                                              ",
"                                                                                                                                K O d e 9+z+#.A+B+            Y.C+D+E+F+++/ 2.7.3.6.2.G+H+1.8.I+J+K+L+M+;+N+~+~+!+!+N+!+!+!+!+!+O+O+!+!+P+!+P+P+!+!+O+!+!+!+!+!+!+o+N+!+!+!+!+o+o+o+!+p+]+]+;+Q+R+S+0.3+8.3+ .u.E+T+                                                                                                                                                                                                            ",
"                                                                                      < U+V+W+X+Y+Z+`+Z+N  @.@+@@@#@                $@%@W 9+f w+&@*@<   =@-@;@>@,@W W ....2.7.3+'@6.)@R+!@~@{@'+~+]+{+~+~+]+{+!+!+!+!+!+!+!+!+N+!+!+o+!+!+]@!+P+!+P+!+!+!+!+!+!+!+!+o+!+o+!+!+!+!+!+{+o+]+]+~+~+q+^@/@(@_@:@6.6.#.<@n.[@                                                                                                                                                                                                        ",
"                                                                                      }@|@1@2@3@3 3 ] e e = 4@T T 5@G 6@7@$           8@9@0@f #.3 ..a@x+( b@2.2.6.s.2.G+t.c@d@K+e@f@g@!+o+!+N+!+N+!+!+!+P+!+P+!+P+P+P+N+P+!+!+P+P+P+N+!+P+N+P+P+O+P+P+P+!+!+!+!+!+!+!+!+!+N+N+!+N+O+!+!+P+!+!+o+o+o+]+h@i@j@5.2+2+9.3.a@k@                                                                                                                                                                                                      ",
"                                                                                      l@m@n@3@e n@o@3@3 = 3 g 3 = X 4 W T p.p@q@r@        s@t@2.z+f f 4 ` 2.6.8.u@v@w@x@y@>+!+!+!+!+o+!+!+!+!+N+O+P+z@P+A@!+P+!+P+P+P+!+!+]+P+!+P+!+P+P+P+P+P+!+!+P+P+P+!+!+!+!+!+!+!+N+!+!+P+o+!+!+P+!+!+o+!+o+o+p+o+o+~+!+'+B@1.C@2. .v.D@<                                                                                                                                                                                                   ",
"                                                                                      E@F@G@H@I@J@K@L@M@Q.&.N@f+] 4 O@f 9+f !.#.P@Q@R.R@  S@T@U@#.#.#.#.G+9+V@W@X@Y@e@)+O+)+O+P+!+P+!+P+P+N+!+P+Z@O+O+P+!+!+!+!+!+!+!+!+!+!+!+!+!+!+P+O+!+P+!+P+!+!+N+!+!+N+o+!+P+!+P+!+N+o+!+!+!+P+!+!+!+!+!+o+o+!+]+o+!+!+!+`@ #.#3+8.8.5.+#@#                                                                                                                                                                                                ",
"                                                                                                        D ##. $#%#&#7+u.] 3 g f w+!.H *#=#-#W W #.H+#.O@w+;#>#,#'#)#!#~#)+O+P+O+O+O+P+O+P+O+P+P+O+P+P+P+!+!+P+!+!+!+!+o+!+!+!+!+P+!+!+P+!+P+P+P+!+P+P+P+P+!+!+!+!+N+!+!+o+!+!+P+P+P+!+!+!+N+!+!+!+!+!+o+!+!+!+o+]+{#]#0.8.8. .^#/#                                                                                                                                                                                              ",
"                                                                                                                    ].(#_#:#<#/ { 4 f 3 H f #.#.2.[#}#|#1#2#3#4#5#6#7#8#9#9#)+)+O+O+P+P+!+!+O+!+N+P+P+!+!+!+!+P+!+!+P+!+o+o+o+!+o+!+!+!+P+!+P+O+!+!+P+!+!+!+N+!+!+!+O+!+N+!+!+!+!+!+!+!+!+!+{+!+o+{+!+o+!+o+o+o+!+o+g@0#a#3+6.3+b#c#                                                                                                                                                                                            ",
"                                                                                                                            ' q@d#$.4 !.f z+g s.e#f#g#h#2#2#i#j#k#l#m#n#9#~#)+O+)+O+z@O+P+P+O+O+O+P+!+!+P+P+!+P+!+!+!+P+!+!+o+!+!+!+!+!+!+N+P+P+!+!+!+!+P+O+!+!+N+O+N+!+N+!+!+P+P+!+!+!+!+N+!+!+o+o+!+P+P+!+A@!+o+o+o#!+p#q#N.9.2.r#s#                                                                                                                                                                                          ",
"                                                                                                                                  /.t#u#4@W !.v#w#x#@.O@y#W z#A#B#C#D#E#y@~#e@e@O+)+)+)+O+O+N+!+N+P+P+P+P+P+P+P+:+P+N+P+F#Q+G#H#o+]+!+o+P+!+P+O+z@P+O+!+N+N+!+!+!+N+!+N+O+!+]@!+O+P+P+P+N+N+P+!+!+!+o+!+!+P+!+!+o+!+!+!+p+s+I#:@9.8.J#K#                                                                                                                                                                                        ",
"                                                                                                                                      e.L#Y 4 M#N#O#|#|#P#Q#R#S#T#j#U#m+~#~#e@)+)+)+)+O+O+O+)+)+O+N+P+O+P+P+O+P+P+P+!+o+e@5.V#W#X#]+!+!+P+!+!+P+!+P+P+N+P+O+!+!+N+N+N+P+N+P+!+P+P+N+!+!+!+!+!+!+!+!+!+!+!+P+P+P+!+!+!+!+p+!+Y#K.9.N.U@Z#`#                                                                                                                                                                                      ",
"                                                                                                                          ^. $.$@ +$@$D@r#W |##$$$%$&$*$=$-$;$>$T#k#,$E#8#~#)+)+)+O+O+)+)+O+O+O+O+N+O+P+P+!+O+P+P+P+N+!+'$9.0.0.)$`@p+o+!+!+P+P+P+!+P+P+N+!+N+P+!+P+N+N+!+!+!+!+O+P+P+P+P+!+!+!+!+!+o+!+!+!+!+!+!+!+!+o+!+N+!+!$~$3+8.3+^#/.                                                                                                                                                                                    ",
"                                                                                                                e.{$]$^$/$($_$&.3.W 3@:$W 2.z+z+<$[$}$-$-$-$;$}$T#|$,#X#-+~#e@)+)+)+P+O+O+O+O+P+N+N+P+!+P+N+!+P+P+!+!+o+1$9.0.V#2$3$o+o+o+!+!+P+P+!+!+!+!+P+P+N+!+N+!+!+!+!+!+P+!+!+!+N+P+N+P+P+o+N+P+!+N+P+P+!+N+o+!+!+A@!+!+o+Y#I+8.6. .4$<                                                                                                                                                                                   ",
"                                                                                                          E 5$%#6$&./ e 4 9+z+g g H f f #.7$W #.8$9$0$a$-$b$c$}$T#d$e$~#9#9#Q+)+)+O+O+P+P+O+O+O+O+O+O+!+P+P+N+P+N+P+!+]+f$g$9.9.V#h$]+]+!+o+!+!+N+!+!+!+P+!+O+!+O+!+N+!+N+N+!+P+N+O+!+!+!+!+!+P+P+!+!+!+N+P+!+!+!+!+o+o+!+!+i$!+N+j$k$G+8.l$m$                                                                                                                                                                                  ",
"                                                                                                      ' d+n$o$4 4 3 3 4 4 o@~.2.d p$&.1 |@_@#.#.{ q$r$s$b$t$u$}$T#v$w$9#9#9#)+e@)+)+z@O+P+O+O+O+O+N+P+!+P+P+P+!+!+N+!+!+x$y$N.9.0.z$~+]+!+!+P+P+P+P+P+P+!+N+N+!+!+!+O+P+!+!+!+!+!+O+N+O+!+!+!+!+P+N+!+!+!+!+!+!+!+!+o+!+!+!+!+o+N+i$A$1#6.8.B$s@                                                                                                                                                                                ",
"                                                                                                  C$D$E$` !.3 9+4 3 F$G$H$I$J$K$L$S@ $M$N$O$; f |#9+|#P$Q$R$>$>$T#S$Y#~#)+O+e@)+)+O+N+P+O+O+O+)+O+O+O+O+P+P+O+O+O+N+N+!+]+/@3+T$U$3$o+{+!+!+!+!+P+!+P+!+!+N+!+!+!+N+)+!+!+!+!+!+N+P+!+!+N+!+!+!+!+!+N+!+N+!+!+!+N+!+!+!+!+!+!+!+!+!+p+V$5.3+#.W$L                                                                                                                                                                               ",
"                                                                                              < X$Y$Z$g.!.e f $.M@_#`$##                     %.%1 9+w+y#+%@%;$j##%w$~#~#)+O+z@)+)+O+P+P+O+O+)+O+)+O+O+P+P+P+P+P+P+!+!+!+~+!+m+$%X#~+o+o+!+!+!+P+!+]@P+!+!+!+P+!+P+N+N+!+!+!+!+P+P+O+O+O+!+!+P+!+!+N+!+!+O+N+!+!+!+!+!+o+P+P+!+!+!+!+o+%%&%:@..@.*%                                                                                                                                                                              ",
"                                                                                            e.=%-%;%>%= P@,%'%)%                              D !%~%w+O@#...{%]%^%~#e@)+O+O+O+)+O+P+P+N+O+!+)+N+O+O+P+P+O+O+O+P+z@P+P+!+!+!+o+o+!+o+i$!+N+!+P+P+O+P+O+P+P+!+P+P+P+!+O+!+N+!+!+!+O+P+O+!+P+!+!+!+!+!+!+!+!+!+!+!+!+!+!+o+!+!+!+!+!+!+!+!+(+/%9.6.|.(%                                                                                                                                                                            ",
"                                                                                            _%* n@4 T 4$d.j.                                      :%<%+.#.O@U@[%}%O+O+)+)+O+)+!+P+O+P+)+!+P+O+O+P+P+P+O+P+O+P+O+P+P+!+P+!+!+o+]+!+!+P+P+!+N+!+P+P+P+P+!+!+!+!+P+!+N+!+O+!+!+!+!+P+P+O+N+!+!+!+P+!+!+!+!+!+!+P+!+!+!+!+!+!+!+o+!+!+o+!+o+]+~#5.2+z+|%$                                                                                                                                                                           ",
"                                                                                            1%2%3%4%5%                                              < 6%6.!.G+G+7%8%!+!+O+N+O+N+P+P+P+O+O+!+)+!+O+P+P+O+P+P+P+N+:+P+P+!+!+!+N+!+!+N+!+!+N+!+P+!+P+!+!+P+!+!+!+!+!+P+N+!+N+!+!+!+!+!+N+!+P+!+!+!+!+!+N+!+!+!+!+!+P+!+!+o+!+!+!+!+!+!+o+o+o+N+9%7.7.l$0%                                                                                                                                                                          ",
"                                                                                            e.a%b%                                                    D c%<@G+G+w+d%H#!+z@O+N+!+P+P+P+P+O+!+O+O+O+O+P+O+P+!+O+O+!+O+P+!+!+!+O+!+N+N+!+o+!+!+P+P+P+P+!+!+!+!+!+!+!+!+!+!+!+!+o+P+!+N+!+O+P+!+P+!+!+!+!+!+N+!+!+!+!+o+!+o+!+!+!+!+!+o+!+!+o+o+s+y$8.8.e%f%                                                                                                                                                                        ",
"                                                                                                                                                          g%h%!.U@H+i%m+N+!+:+P+O+O+!+!+P+P+O+N+O+P+N+N+N+N+!+N+N+P+O+N+!+N+!+O+O+!+O+!+N+N+O+!+!+!+!+!+!+N+O+!+N+N+N+!+i$!+!+!+N+N+!+!+N+:+!+P+!+!+!+!+N+!+!+!+!+N+!+!+!+!+!+!+!+!+N+o+N+!+p+j%V#9.3.k%                                                                                                                                                                        ",
"                                                                                                                                                            l%m%O@G+n%o%s+!+P+O+O+P+!+P+P+P+P+O+O+P+P+P+N+N+P+N+O+O+!+N+!+P+!+N+P+!+P+!+!+P+!+!+P+]@!+!+P+N+!+o+!+N+N+!+N+!+!+!+N+O+P+!+N+N+P+P+!+!+!+o+!+O+!+o+!+!+!+!+!+N+!+N+o+!+!+o+!+!+]+(+p%N.2.($].                                                                                                                                                                      ",
"                                                                                                                                                              q%r%8+2.:@s%Y#N+N+O+!+!+!+P+P+N+!+O+P+P+!+N+!+!+P+O+O+O+O+!+!+!+o+N+!+!+!+!+!+!+!+P+P+N+!+!+N+N+!+N+N+N+!+!+!+!+!+O+!+N+!+P+!+N+!+!+!+N+o+!+!+!+o+!+!+!+!+!+!+!+N+!+!+!+!+!+!+o+!+t%N.0.1.B                                                                                                                                                                       ",
"                                                                                                                                                                u%v%G+3+H+w%x$!+!+N+P+!+!+O+P+N+O+!+P+!+O+N+P+N+!+O+P+P+!+!+N+!+!+!+!+!+!+O+!+P+!+P+!+!+N+N+!+N+!+!+!+!+!+!+!+!+!+!+N+N+!+N+!+!+!+i$!+!+N+!+!+!+!+N+!+!+!+i$!+!+!+o+!+!+!+!+o+N+;+x%3.3.y%e.                                                                                                                                                                    ",
"                                                                                                                                                                  z%A%U@8.2+B%~#o+!+!+!+N+!+O+N+P+!+P+!+!+P+P+P+P+!+O+!+!+!+!+!+!+!+!+!+!+N+!+!+P+!+z@!+N+!+!+P+O+N+N+!+!+!+!+o+N+!+!+!+!+o+!+!+!+!+!+p+P+!+!+!+N+!+!+!+!+!+!+!+!+o+N+o+!+!+o+!+]+C%9.0.&@7@                                                                                                                                                                    ",
"                                                                                                                                                                    F D%3+:@E%F%!+!+!+]@o+P+N+P+O+!+P+P+P+P+P+!+P+!+O+O+!+!+P+P+!+!+!+!+P+!+!+P+P+P+!+!+!+P+!+N+!+N+!+!+!+!+!+!+O+!+!+N+!+N+!+!+!+!+o+!+!+!+!+!+P+!+o+!+!+!+o+N+!+o+!+o+!+!+o+o+{+G%0.N.9+H%                                                                                                                                                                    ",
"                                                                                                                                                                      R.I%#.G+J%i@K%!+!+!+!+O+P+:+O+P+!+P+!+O+N+!+P+O+P+!+!+!+!+!+!+!+!+!+!+!+!+!+P+O+!+!+!+O+!+P+N+P+N+i$!+!+P+!+P+N+!+O+N+!+N+!+N+N+o+N+!+o+!+P+!+!+!+!+!+!+!+!+N+!+!+!+o+o+o+p+:+L%3+3.%.M%                                                                                                                                                                  ",
"                                                                                                                                                                        :.2.2.:@N%8%!+!+!+!+!+P+z@O+P+P+O%!+P+P+P+!+P+O+O%!+!+!+!+!+P+!+!+P+!+P+!+o+P+N+!+P+P+!+!+!+!+P+o+!+P+!+!+!+!+O+!+P+!+!+!+!+!+!+P+P+!+!+!+!+!+i$P+!+!+P+o+o+!+!+!+o+!+o+o+!+p+P%@.5.-.                                                                                                                                                                  ",
"                                                                                                                                                                        ].Q%G+3+9.R%p+!+N+!+N+!+O+P+O+P+P+P+!+P+!+!+O+P+!+!+!+!+!+o+o+!+!+!+P+!+!+!+N+A@P+!+N+!+!+!+!+!+!+!+o+!+!+!+!+!+N+N+!+!+!+o+!+o+!+!+!+!+!+!+!+o+!+!+!+!+!+!+!+!+!+!+o+o+!+]+S%s%9.5.T%].                                                                                                                                                                ",
"                                                                                                                                                                          U%q.G+U@V%W%p+P+N+!+!+P+P+!+!+!+!+!+!+P+P+P+!+!+!+!+!+!+o+o+!+!+P+o+!+!+P+A@!+!+!+!+!+!+!+!+o+!+!+o+!+!+!+!+!+!+N+!+!+!+!+!+o+!+!+o+!+!+N+!+!+!+!+!+!+!+!+!+!+o+!+!+o+!+!+X%Y%9.9.1 B                                                                                                                                                                 ",
"                                                                                                                                                                            Z%9.U@3+&+!+P+!+N+!+O+P+P+P+O+O%!+!+P+!+O+P+P+!+!+!+!+!+P+!+!+!+!+P+!+A@P+!+!+!+!+!+N+!+N+N+N+!+!+!+P+P+P+!+N+!+P+!+P+!+O+!+P+!+!+!+!+!+!+!+!+!+!+!+!+!+o+!+!+!+!+{+!+!+!+M+|#@+2.<.e.                                                                                                                                                              ",
"                                                                                                                                                                            [@e%#.G+#.G%!+N+O+N+`%O+P+P+P+P+!+O+P+!+z@P+P+P+P+!+P+]@o+P+!+P+P+P+O%P+!+!+P+!+P+O+!+!+N+P+!+!+!+!+O+P+Z@!+!+P+P+P+!+!+P+!+P+!+!+!+P+!+!+!+N+N+!+!+!+!+!+!+!+!+]@o+!+!+!+N+ &2.6..&+&                                                                                                                                                              ",
"                                                                                                                                                                              @&0.U@|##&$&!+O+!+O+P+P+P+!+!+N+!+z@!+P+!+!+!+!+!+!+!+!+!+!+!+!+P+!+A@P+!+N+!+!+!+!+N+!+!+!+!+!+!+P+P+N+!+N+!+!+!+!+!+!+!+!+!+!+!+!+!+!+!+!+P+P+!+!+!+!+A@!+!+o+!+!+!+!+o+-+'@5.9.%&                                                                                                                                                              ",
"                                                                                                                                                                              < &&9+O@8.Y#!+N+!+N+!+P+!+P+P+P+P+P+!+P+P+!+!+O%!+A@P+*&o+!+!+!+P+!+O%!+!+P+P+!+!+P+P+!+!+!+!+!+!+!+!+P+N+N+O+!+P+!+!+!+!+P+O+!+!+!+!+!+o+!+!+!+!+!+!+!+!+!+o+!+!+!+!+!+o+/+=&5.0.-&d.                                                                                                                                                            ",
"                                                                                                                                                                                ;&g+2.U@>&~+N+!+P+P+N+!+P+!+O+N+P+!+P+!+!+!+!+!+!+P+!+]@!+!+!+!+!+o+P+!+!+!+O+!+Z@!+N+N+N+!+!+N+!+!+P+!+N+!+N+!+P+!+N+!+!+!+!+P+!+!+!+!+!+!+!+!+N+!+!+!+!+!+!+!+N+!+o+]+]+,&t.3.8.'&                                                                                                                                                            ",
"                                                                                                                                                                                e.x+2.G+)&M+!+!+P+!+P+P+P+P+!+P+P+P+P+P+!+P+!+!+P+!+!+!+o+o+!+!+!+!+P+!+P+!+P+!+!+o+!+!+!+!+!+P+!+!+!+N+!+P+!+!+!+o+!+!+!+!+!+P+!+o+!+!+!+!+!+!+!+!+!+!+!+P+!+o+!+!+{+o+~+!&~&9.6.{&)%                                                                                                                                                          ",
"                                                                                                                                                                                  ]&t.G+:@^&N+!+P+!+O+!+P+!+N+P+z@O+O+!+!+!+!+!+P+!+o+!+!+P+!+!+P+!+!+!+!+!+N+P+!+!+N+!+!+!+!+o+!+P+O+!+!+!+!+!+!+!+!+!+!+!+!+!+N+N+!+!+!+!+!+N+i$!+!+!+!+!+!+!+!+!+o+{+!+]+t+1.N.l$/&                                                                                                                                                          ",
"                                                                                                                                                                                  ].(&U@U@_&~@!+P+!+P+O+!+P+P+P+P+P+P+P+P+!+P+!+!+!+P+o+!+]@!+P+!+!+P+!+P+!+P+!+Z@!+P+!+!+!+!+!+P+P+O+P+P+P+O+P+!+!+!+!+!+!+!+!+!+!+!+o+P+!+!+P+o+!+!+!+!+!+!+o+o+!+o+o+o+]+!$S+5.5.b#f%                                                                                                                                                        ",
"                                                                                                                                                                                    :&G+:@I%Y#~+!+!+O+P+!+P+N+!+O+P+O+P+!+!+P+!+o+!+!+!+!+!+!+P+P+!+!+!+!+P+N+!+N+!+P+!+!+!+!+!+P+!+P+P+N+!+P+!+!+!+!+o+!+!+!+!+!+!+!+!+!+!+!+!+N+!+!+!+!+!+!+!+!+!+]+~+o+o+K%!@0.0.1.,.                                                                                                                                                        ",
"                                                                                                                                                                                    <&<@:@:@[&]+!+!+P+O+!+!+P+P+P+!+P+!+!+o+P+!+!+o+P+P+P+!+P+!+!+!+!+P+P+!+P+!+P+!+!+!+!+!+!+!+P+O+P+!+P+P+P+!+!+o+!+!+P+!+A@!+!+!+!+!+!+o+!+!+!+o+!+!+!+!+!+!+!+!+!+{+o+A@~+(+w.0.6.}&^.                                                                                                                                                      ",
"                                                                                                                                                  e.|&1&2&3&4&5&6&7& $8&D           e.9&2.3+0&~#O+P+P+P+P+P+P+!+P+P+P+!+!+P+!+!+!+o+!+!+!+!+!+!+!+!+!+!+!+!+P+P+N+N+N+o+!+o+o+A@P+!+!+!+P+!+P+!+P+!+!+!+!+!+P+!+!+!+!+o+P+!+!+!+!+o+!+!+!+o+o+o+!+!+{+o+]@o+o+]+a&b&3.c&@&                                                                                                                                                      ",
"                                                                                                                                          0 d&e&f&*.g&h&q.*#T i&j&}.h&k&l&m&n&# $     o&6.8.1.>+P+O+P+P+P+P+P+P+P+P+P+P+!+P+!+P+P+o+!+P+A@!+A@{+!+!+!+P+!+P+!+!+!+P+!+o+!+!+!+!+!+!+!+!+!+O+!+!+!+o+!+!+!+!+!+!+o+!+!+o+o+!+!+!+!+o+!+o+!+!+!+!+!+!+{+o+o+o+]+]+(+y$0.0.a@$                                                                                                                                                     ",
"                                                                                                                                    /.p&q&( '@6.5.l$0.1.P%P%1.1.P%P%1.g$_@5.1.<@r&s&t&t&u&8.0.V$!+P+P+!+P+!+P+P+P+!+P+!+!+!+!+!+o+o+!+o+o+!+!+!+!+A@!+!+P+!+!+!+v&!+!+!+o+!+!+o+!+!+!+!+!+!+o+!+o+!+!+P+!+!+]@!+!+!+]+o+!+o+!+!+o+!+!+o+!+!+!+o+!+!+o+o+o+o+o+~+K%w&0._@c&O$                                                                                                                                                    ",
"                                                                                                                              e.x&y&z&A&..3.0.0.1.B&1.0.M.0@<@C&u&2$1.0.1.1.0.1.3.D&j&E&1 6.U@9%!+!+P+P+!+!+P+P+P+P+P+!+!+]@!+!+P+!+P+!+{+!+o+o+!+!+!+o+P+!+!+!+!+!+!+!+!+!+A@!+!+!+!+!+!+!+!+o+!+o+!+o+!+!+{+!+P+!+!+o+!+!+!+!+!+o+!+o+o+o+!+o+!+!+o+o+o+o+A@{+~+F&G&0.7.W.e.                                                                                                                                                  ",
"                                                                                                                          ) U+H&0@@.5.0.5.5.I%I&J&L%K&f$L&z@~#M&N&=+O&P&Q&v+R&B&B&B&5.3.9.6.2+S&Q+{+P+P+!+!+!+!+]@A@P+!+!+o+!+!+!+!+!+o+!+!+!+]@!+A@o+{+!+!+!+!+!+o+o+o+!+o+!+A@!+!+{+!+!+!+!+!+o+o+!+o+!+o+o+o+!+!+!+!+o+!+!+!+!+!+!+A@!+o+!+!+o+!+!+o+A@o+o+o+]+~+T&U&0.}.V&                                                                                                                                                  ",
"                                                                                                                  ].W&X&Y&z&U Y Z&Z&l$1 8$`& *,+i@q+L+q+K%~+~+~+o+p+q+.*q+;+s++*@*M.5.0.7.6.9.U@>+!+!+!+!+!+!+P+P+P+P+P+!+!+!+!+!+o+O%o+!+!+!+!+{+A@A@o+!+!+A@!+!+o+A@!+o+o+{+o+{+!+!+!+!+o+!+o+!+o+o+]@!+P+{+o+P+!+!+!+!+!+A@o+A@!+!+o+!+!+!+o+!+o+]@!+A@!+o+A@!+o+#*w+_@0.E+j.                                                                                                                                                ",
"                                                                                                            j.$*6%%*o$&*3.l$5._@3.v.**=*-*p+o+p+!+]+!+!+o+!+A@!+!+!+!+!+!+]+]+{+'+X#;*c&9.5.8.2$~#o+P+!+!+!+P+P+P+!+P+P+!+!+!+!+!+!+!+!+!+o+!+!+!+!+!+!+!+!+!+o+!+!+!+o+!+o+o+!+P+!+!+!+P+!+!+!+!+o+P+!+!+!+!+!+!+!+!+!+P+!+!+!+!+!+P+!+!+!+!+!+P+!+o+!+o+o+o+!+!+~+>*,*V#_@0@B+                                                                                                                                                ",
"                                                                                                        j.'*)*p$3.l$1.!*_@1._@c&~*m+{*~+]+p+!+!+!+!+!+!+!+!+!+o+]+o+!+!+!+o+o+o+~+]+!+'+]*t.9.N.O&o+P+P+!+P+!+P+!+P+P+!+P+!+P+!+P+!+A@!+!+!+!+!+P+!+!+!+!+!+!+o+!+!+N+N+!+!+!+!+!+N+P+P+!+!+P+!+!+!+!+!+!+P+!+P+!+!+A@o+!+P+!+P+!+o+!+!+!+P+P+!+!+!+o+]@!+!+o+o+o+]+K%!&0.0.#.m&                                                                                                                                                ",
"                                                                                                      ^*/*0@3.0.(*g$_*:*_@<*[*}*~#!+!+!+!+!+!+!+!+!+!+!+P+!+P+!+N+!+!+!+!+!+!+!+P+!+{+~+8%|*'@0.}+)+!+!+!+!+!+P+P+P+O+P+P+!+!+!+P+!+!+!+P+!+!+!+P+!+!+{+!+!+N+!+!+!+!+o+!+o+!+!+!+!+!+!+!+o+N+!+!+!+!+!+P+!+!+A@!+o+!+!+!+!+o+!+!+!+!+!+!+!+!+!+P+P+!+!+!+!+!+!+!+!+!+!+G.9.0.%.d.                                                                                                                                              ",
"                                                                                                  ].b+1*D&3._@V#2*3*4*5*b&6*7*O+o+o+!+!+!+!+o+!+!+o+!+!+P+!+P+!+P+!+!+o+P+N+]@!+P+!+{+o+{+8*7.0.w+9*P+!+P+!+O%P+P+!+P+!+!+P+!+!+P+]@P+P+!+!+A@!+A@!+o+!+!+!+!+!+!+!+!+!+!+!+!+!+!+!+!+P+!+!+!+!+!+P+P+!+!+!+o+!+o+o+P+!+!+!+o+!+o+o+P+!+!+P+!+!+P+P+!+!+o+!+o+o+!+!+{+o+H#t.0.0.0*                                                                                                                                              ",
"                                                                                                d.a*P%_@g$U&b*c*d*e*f*g*'@@+K&~+]+o+!+!+o+!+o+!+!+]@!+!+!+!+o+!+!+o+N+N+!+!+!+!+!+!+!+o+o+-+**P%h*m+!+o+P+!+!+!+O+!+O+P+P+!+!+!+!+!+!+!+!+!+!+!+!+!+o+o+!+!+N+o+o+!+!+!+o+!+o+!+!+!+!+!+N+!+!+o+o+{+!+!+A@{+{+8#j$i*j*k*j*j*f@~#!+!+!+!+!+!+o+!+N+o+!+o+!+!+o+!+!+!+!+o+N+Q&P%l*m*n*                                                                                                                                            ",
"                                                                                              : o*3.1.g$_*p*q*e*r*s*t*u*v*w*o#o+o+o+!+!+!+!+!+!+!+o+!+!+!+o+!+!+!+!+P+!+!+!+!+i$!+O%o+o+p+~+x*y*U&!@{+o+!+!+P+]@P+!+P+!+O+P+!+!+!+!+]@P+!+!+!+!+A@o+A@o+!+!+A@o+o+o+!+o+!+!+o+!+!+!+!+N+!+!+{+!+~+Q+8*-+!@z*A*B*C*g$D*0@E*F*G*H*I*J*K*9#!+!+!+!+!+i$o+o+o+o+o+o+o+o+o+!+~+z@M.F*L*`+                                                                                                                                            ",
"                                                                                            M*2$1.P%N*O*P*Q*R*S*T*e*U*t*V*W*]+]+]+]+!+o+!+o+!+!+N+o+P+!+!+!+]@!+!+!+!+P+O+!+P+P+!+!+o+!+{+]+k+0.b&X*!+!+!+!+!+!+!+P+N+N+P+!+!+!+!+P+!+!+!+!+!+!+!+o+!+o+!+!+!+!+!+!+!+!+o+!+o+!+N+!+!+!+~+~+!&~@Y*Z*:@E*`*y* = =F*F*F*F*F* = =l*l*l*1+Q&~@!+!+!+o+!+!+!+!+!+o+!+!+!+!+!+o+`@.=P%F*+=@=                                                                                                                                          ",
"                                                                                        j.#=j&0.P%P%$=%=R*&=e*S*e*T**=t*==-=$&(+;=K%o+!+o+N+!+o+!+!+P+P+P+!+P+O+!+!+!+!+P+!+!+P+P+!+P+o+o+o+V$F*_@>=o+!+A@o+!+P+!+!+P+!+P+!+P+!+!+!+!+!+!+!+P+!+P+!+o+!+!+!+!+!+!+!+o+!+o+!+~+!+!+!+o+)+;+,='=)=@+V#P%P%P%P%F*y*F*!=<@C&C&u&~=F*y* =L*y*C*M+!+!+P+!+P+!+P+!+o+!+o+o+!+o+N+o+ *)={=]=^=/=(=_=:=<=[=}=|=%                                                                                                                         ",
"                                                                                        W+v.0.0.I&1=2=&=S*S*&=&=3=e*4=5=6=7=0&L.8=}+Q+]+i$o+N+o+!+!+P+!+!+!+P+P+!+!+!+P+P+!+P+!+P+!+!+]@o+!+z$F*b&9=!+P+!+P+P+P+P+P+O+O+!+!+!+!+!+!+!+!+!+!+!+P+P+o+!+!+!+!+!+!+!+P+N+!+!+!+o+o+!+0=m+a=F*V#L*B&L*0.2+)=0.~$u+b=c=z@m+i@{#p#0=d=K+(@H+e=h+r+!+!+N+P+!+!+!+!+!+!+o+!+!+!+o+o+{#f=g=h*h=i=j=k=j=l=m=n=o=p=q=r=                                                                                                                    ",
"                                                                                      s=P@_@1.&*t=u=&=&=&=&=R*v=w=3*x=y=z=A=y*P%_@U&h#]+o+o+!+!+!+o+P+P+!+o+!+P+P+P+!+!+P+!+P+!+P+P+!+o+!+o+e@E*'@8%o+]@P+P+P+P+!+P+P+!+!+!+P+!+!+P+P+P+!+o+!+P+!+!+!+!+!+o+!+!+!+!+P+o+!+N+~+!+3$;*F*b&1.L*P%0.t.B=a&~@n+`@~+~+~+K%~+]+o+]+~+]+K%!+{@0=3$!+!+!+P+P+!+o+]@P+!+!+!+o+o+!+!+o+~+C=D=E=F=G=H=H=I=J=I=J=K=l=L=M=N=R@                                                                                                                ",
"                                                                                    O=}._@_@P=Q=R=T*S*T*S=T=U=V=F*y*P%l*b&6*D*W=N.X=X#p+]@o+o+o+P+!+N+P+P+!+P+N+N+N+!+!+!+!+P+P+!+!+o+!+o+!+h@Y=e@)+!+P+!+!+!+P+P+P+O+P+!+!+!+!+!+!+P+o+!+o+o+P+!+A@!+o+o+!+P+!+!+!+o+o+]+~+s+Z=V#L*y*P%V#{=`= -M+-+o+!+N+!+!+!+o+!+o+!+o+!+]+]+o+o+o+o+!+!+!+o+!+o+!+!+N+!+o+!+o+!+!+o+o+!+!+,+H+D=.-+-@-#-$-%-&-*-=-m=J=J=--;->-                                                                                                              ",
"                                                                                  ,-'-)-!-&@~-{-]-T*R=^-/-(-U&g$l* =F*_-:-<-[-}-|-Q+p+]+o+!+!+o+P+o+P+P+P+!+!+P+P+P+!+!+!+!+!+P+P+P+{+]@o+o+{+]+P+o+P+P+P+!+!+!+!+!+P+P+!+!+P+!+!+!+o+!+A@o+P+P+A@!+!+!+!+!+P+o+{+o+{+o+o+~#'=V#P%P%y*1-2-~#8%~+!+]+!+!+!+!+o+!+o+!+o+o+o+!+o+o+!+!+!+!+!+o+{+o+!+!+!+o+]@!+o+o+!+!+!+o+o+!+{+p+3-E=4-5-6-7-8-8-8-9-0-a-b-I=n=n=c-d-                                                                                                            ",
"                                                                                ^.W._@_@o$e-f-T*g-h-i-j-y*l*F*F*k-l-m-4=n-n-o-p-q-~+N+o+o+o+o+]+o+{+P+!+!+!+!+!+!+!+!+P+o+!+!+P+!+o+!+{+!+o+o+{+!+o+!+!+]@!+!+P+!+!+P+!+!+!+!+!+o+o+o+!+o+o+o+!+!+!+o+o+o+o+{+o+]+]+~+g@t%L*P%l*L*{=}+i@0=!+o+p+o+o+o+]+o+o+o+!+!+o+o+o+o+!+o+o+o+o+o+o+!+A@o+!+o+!+o+o+o+!+o+o+o+o+!+o+]+!+]+o+{#r-F=s-t-8-8-8-8-8-8-7-u-v-w-I=J=x-y-                                                                                                          ",
"                                                                                z-U _@_@A-B-e*C-D-E-U&l*F*I%{=F-G-H-I-e*3=3=3=J-,&K%!+o+]+o+~+o+o+o+P+P+P+o+P+!+!+P+!+P+P+!+!+o+P+!+{+o+o+o+o+o+!+P+A@o+A@!+!+P+A@!+N+!+!+!+o+o+!+P+o+!+{+o+!+!+o+!+o+o+~+o+o+~+~+~+8%K-l*0.l* =J&L--+]+A@!+o+!+!+o+o+o+o+!+{+o+!+!+o+o+o+!+o+!+!+!+!+o+o+!+!+o+!+!+]@!+o+o+o+o+!+o+!+o+o+!+~+o+Q+M-N-O-P-Q-8-8-8-8-8-8-8-9-R-S-J=T-U-e.                                                                                                        ",
"                                                                              V-W-Z&U&X-Y-C-Z-`-0.L*P%P%6*l* ;.;+;T*T*e*e*e*e*3=@;Q+i*K*{@j$]+~+o+]+!+!+o+!+o+!+!+!+!+!+o+!+!+P+P+P+o+!+o+!+P+!+i$!+o+A@!+!+!+!+!+!+P+!+!+!+!+!+o+!+o+o+o+!+P+!+!+!+o+o+]+p+]+~+.*H##;A=A=A=F*9%M+!+!+!+p+o+~+o+!+o+!+!+!+!+o+!+!+!+p+o+o+o+!+!+o+!+o+!+!+!+!+o+!+!+o+o+o+o+!+o+o+!+o+{+o+~+]+~+o#z@$;.-%;&;8-8-8-8-8-8-8-8-*;=;=--;;;>;                                                                                                        ",
"                                                                              ,;v.l$&@';);!;5.0.1.P%P%P%'@~;{;];S*T*e*e*e*3=^;/;(;_;5.a+:;<;b=[;]+]+o+!+!+o+P+o+!+]@P+P+P+o+P+P+o+]@!+o+!+P+!+o+!+!+A@o+A@o+o+!+P+!+P+P+!+!+!+o+!+!+o+o+o+o+!+!+]@!+!+o+{+{+~+^+8%};`*y*P%W#.*0=N+N+!+!+o+!+!+o+o+!+!+o+!+!+A@o+!+!+!+o+!+!+!+o+!+!+!+P+!+o+!+o+!+!+o+o+!+!+A@o+!+o+o+o+{+{+o+{+p+i@|;5-1;2;9-8-8-8-8-8-8-8-8-3;4;-;b-5;e.                                                                                                      ",
"                                                                              6; .@._@v.3.0.l$!-P%I%6*7;8;9;&=&=&=&=T*e*g-0;a;b;c;d;g=]=e;e;f;g;s+]+N+!+o+!+!+!+o+!+!+P+!+!+!+P+!+!+P+P+!+P+!+!+P+P+P+!+!+A@N+P+P+!+P+P+!+!+!+!+!+o+!+o+o+o+!+!+!+o+!+A@{+]+K%i@h;A= =A=i;j;!+!+!+!+!+!+!+!+o+!+o+!+o+!+!+!+P+P+P+N+o+o+o+!+!+!+!+!+!+!+!+o+!+!+!+!+P+!+!+o+!+!+o+!+!+o+o+{+o+o+p+]+d=k;l;j=m;8-8-8-8-8-8-8-8-8-0-n;-;o;p;q;r;s;t;##                                                                                            ",
"                                                                              d+W 7.l$5.6.t.u;++!-P%6*v;w;&=x;T*x;&=]-y;z;A;B;C;d;d;:*D;E;F;e;e;G;H;o+o+o+o+!+!+P+N+!+!+O+N+!+i$*&!+o+!+P+P+!+!+P+o+P+P+P+!+!+!+P+P+P+!+P+!+!+!+!+!+o+o+!+!+P+v&!+o+{+!+o+o+)+,*l*A=y*I;x$~+]+!+P+O+P+!+!+!+!+!+!+!+A@o+O+!+P+!+!+!+!+!+o+!+!+N+!+!+!+!+N+!+!+o+!+v&!+P+!+o+!+!+!+o+o+o+!+o+o+o+~+]+,+J;s-+-K;7-8-8-8-8-8-8-8-8-9-L;-;S-M;b-J=N;O;P;Q;R;                                                                                        ",
"                                                                              S;T;).7$U;7 V;W;7;6*l*X;Y;&=&=&=Z;S*`; >.>~=d;g=+>@>#>$>%>&>*>=>->;>j$N+o+o+!+!+N+O+N+N+N+!+P+P+P+!+]@!+P+P+P+!+O+O+P+O+P+P+P+P+P+P+P+:+O+P+P+N+P+!+!+!+!+o+!+o+!+!+!+o+!+]+~+Y=)= =>>,>{#o+o+o+!+O+P+P+!+!+!+!+!+P+o+!+!+!+P+P+P+P+P+!+!+O+P+P+N+O+!+P+N+!+!+!+!+!+!+!+o+N+!+o+N+!+!+!+o+o+!+o+!+p+o+]+z*'>l;j=)>8-8-8-8-8-8-8-8-8-!>-;b--;b--;b-b---~>{>]>e.                                                                                    ",
"                                                                                ' ^>/>(>e._><@F*g$:><>&=&=&=[>&=&=}>|>1>2>D=3>4>5>&=6>Z;]-7>8>->->C=o+o+o+o+!+N+!+!+!+!+!+!+]@P+!+]@!+!+P+o+P+N+P+!+P+!+P+!+!+!+P+!+P+!+!+!+P+!+P+v&!+o+o+o+]@!+!+o+!+]+~+i@9>A= =0>p#~+]+o+!+!+!+N+!+!+!+!+!+!+!+o+P+!+!+!+!+!+!+N+!+!+!+!+!+!+!+!+P+!+P+!+!+!+P+!+N+!+P+!+!+P+!+o+A@o+{+!+o+A@!+]+!+G%$;a>k=b>8-8-8-8-8-8-8-8-8-c>d>e>e>f>g>L;n;b-M;h>i>j>j.                                                                                  ",
"                                                                                        k>l>)={=m>n>&=`;o>[>&=p>q>r>D=D=.&s>t>&=&=&=x;&=x;n-u>'>s-v>]+]+o+!+!+!+]@N+!+!+!+N+!+N+!+!+!+!+!+o+P+!+P+!+P+P+N+!+P+O+P+P+)+P+!+N+!+!+!+P+!+o+!+o+P+!+o+o+o+]+`@w> = =F*A$!+p+o+!+!+!+O+N+!+N+!+!+!+!+i$!+!+!+!+!+P+!+N+P+!+!+N+!+P+!+N+!+!+!+P+!+o+!+!+!+!+!+!+!+o+!+P+!+!+!+!+A@o+o+!+!+o+9#x>y>z>A>B>8-8-8-8-8-8-8-8-8-8-8-8-8-7-9-C>&-S--;h>D>E>                                                                                  ",
"                                                                                      e.f&g$)=F>G>&=o>&=&=Z;H>I>J>K>D=L>M>N>&=&=6>&=x;x;]-n-O>l;P>x#Q>]+o+o+!+o+!+o+!+o+!+!+!+!+!+P+P+o+o+]@P+!+P+!+]@P+P+P+!+P+P+P+O+P+!+P+!+!+!+o+]@]@o+!+!+o+!+{+o+~+c=R> =S>T>p+]+o+o+o+!+!+P+!+P+N+P+O+!+!+!+!+!+!+!+P+P+P+P+!+!+!+]@P+P+!+!+P+!+!+!+P+!+o+!+o+P+!+P+!+P+!+o+!+!+o+{+A@{+o+p+!+o+!+V$U>V>K=W>8-8-8-8-8-8-8-8-8-8-8-8-8-8-8-8-X>Y>Z>M;M;`> ,                                                                                ",
"                                                                                      .,E*F*D*+,&=&=@,&=R*#,$,g=D=%,&,*,&=&=&=Z;Z;&=&=x;o-=,-,;,>,,,)+{+o+{+]+]+o+]+o+!+o+o+!+!+o+o+!+o+o+!+!+!+P+!+P+!+!+!+!+P+O+P+O+P+!+!+!+!+!+o+!+!+o+o+!+!+o+o+X%!&',l*l*),(+]+]+o+o+o+o+!+O+N+P+!+!+!+!+!+!+!+!+!+N+!+P+P+!+!+N+!+!+!+!+!+o+!+N+!+!+!+!+!+o+o+!+o+i$]@!+!+N+!+!+o+o+o+{+o+{+{+]+]+>+n%%;>,!,7-8-8-8-8-8-8-8-8-8-8-8-8-8-8-8-8-8-~,{,S-],^,                                                                                ",
"                                                                                    j./,t.F*(,_,Z;Z;[>:,<,[,g=D=D=},|,`;[>&=Z;&=Z;Z;x;x;1,2,3,4,J=5,6,7,8,f@o+]+o+o+]+o+o+o+o+!+P+!+o+!+o+o+N+!+P+!+o+P+!+!+!+P+P+!+P+!+!+O+!+!+!+!+!+!+o+!+o+!+{+o+.* -9,A=)=A@!+o+o+o+o+!+A@!+P+O+P+O+!+N+N+!+!+!+P+!+!+P+P+P+!+o+!+!+!+P+o+!+!+!+!+!+!+o+!+!+!+!+P+!+P+!+P+!+!+!+!+!+o+o+{+{+{+o+]+]+!+3-V>>,~>Y>8-8-8-8-8-8-8-8-8-8-8-8-8-8-8-8-8-7-&--;0,a,                                                                                ",
"                                                                                    $*r#7;b,c,&=&=&=d,e,.&~=f,g,h,i,&=&=&=&=Z;&=[>&=g-j,k,l,-;w-w-w-m,=-n,o,p,q,N+]+]+]+]+o+o+!+o+{+o+o+o+o+!+!+!+!+P+o+!+!+!+P+O+P+P+P+!+!+!+!+!+o+o+!+!+o+o+!+o+o+i@r,{=9,s,8%!+o+o+o+!+!+o+!+!+!+!+!+!+!+!+N+!+!+]@!+!+!+!+P+P+P+!+!+!+P+!+o+o+!+!+!+!+o+o+o+o+o+o+o+P+!+]@!+o+o+!+o+o+{+{+o+o+{+!+o+!+X#t,H=n=u,8-8-8-8-8-8-8-8-8-8-8-8-8-8-8-8-8-8-d>=-{,v,w,x,y,].                                                                        ",
"                                                                                    z,A,7;B,C,&=&=D,E,F,G,F;H,I,J,T*x;&=Z;`;Z;Z;Z;K,L,M,b-N,S-=-w-w-=-=-],n,S-]=O,/+]+]+]+]+{+{+!+o+{+o+o+o+!+o+N+P+P+o+o+]@!+!+P+P+P+o+!+!+!+o+o+o+o+o+o+o+{+o+o+]+ *P,F*)=Q,o+o+!+o+o+{+o+!+!+!+!+!+P+!+o+!+!+o+o+!+P+!+P+P+P+!+P+!+!+!+!+o+!+!+o+o+o+!+!+!+o+A@!+o+o+o+!+!+o+o+o+o+{+!+{+{+{+~+~+o+!+!+W%R,l=S,T,9-8-8-8-8-8-8-8-8-8-8-8-8-8-8-8-8-8-m;U,;;V,W,X,Y,Z,`, '                                                                    ",
"                                                                                    .'_@u&+'3=@'#'$'g=]=%'f,&'*'Z;`;&=@,&=`;]-='-';'0,w-w-w-=->',''')'!'~'{'],],n;|*/+]+]+]+o+]+o+o+o+o+o+o+o+!+!+!+P+!+o+O%P+N+P+P+N+P+!+!+!+P+P+!+!+o+o+]@o+o+]+N+]'^'l*o%;+N+o+i$o+o+!+o+!+o+o+!+!+!+!+!+o+!+o+!+]@!+P+!+P+!+P+!+P+P+!+P+!+!+o+o+o+o+!+!+!+!+P+!+o+o+P+o+o+!+o+o+o+!+!+A@o+o+o+o+!+o+o+]+P&k=I=n,/'8-8-8-8-8-8-8-8-8-8-8-8-8-8-8-8-8-('=-{,=-{,{,S-S-M;_':'<'                                                                ",
"                                                                                    ['<*}'|'1'2'3'1>d;e;F;->4'Q*&=&=&=&=&=5>5'6'7'8'w--;U,9'0'a'*;7-b'c'd'e'~'n,f'g'h'i']+]+F#~+o+o+{+o+o+o+!+!+]@!+!+!+!+!+O%!+P+P+P+O+!+!+!+!+P+o+o+o+{+o+o+!+A@K*F*j'L**+o+N+o+o+o+!+o+o+!+P+!+!+!+!+!+!+]@!+P+o+o+o+P+P+P+!+!+!+o+o+!+!+o+o+]+o+o+!+o+o+{+o+!+o+o+o+]@o+!+!+o+!+!+]@o+o+{+o+{+o+!+!+o+o+0=t,I=0,k'8-8-8-8-8-8-8-8-8-8-8-8-8-8-8-8-8-*;l'$-m'n'o'p'{,S-w-N;q'r'                                                              ",
"                                                                                    s'3.P,F;t'h*!=S>u'C&v'w'x'&=&=&=&=6>y'z'=-A'w-w-U,T,B'C'8-8-8-8-8-8-8-D'E'F'G'F'd;G%]+^+]+~+~+{+o+~+{+o+o+o+o+o+!+]@o+o+!+!+!+!+!+!+!+!+!+!+!+P+o+o+o+o+o+o+~+^&H'H'!=K*!+!+i$o+o+o+o+o+o+o+!+!+!+!+!+!+o+!+o+o+{+o+!+!+!+o+!+!+!+o+!+!+!+o+o+o+o+o+!+!+o+o+]+]+o+o+o+o+o+!+o+o+o+o+!+!+o+{+{+]+!+o+p+]+I'J'0,0,K'7-8-8-8-8-8-8-8-8-8-8-8-8-8-8-8-8-8-8-8-8-8-7-L'M'N'w-w--;O'P'                                                            ",
"                                                                                    Q'R'S'P,!=!=~=['c%T'v'U'V'&=6>&=W'X'Y'S,w-A'F'Z'W>*;8-8-8-8-8-8-8-8-8-8-9-E'F'F'w-;*i']+K%~+~+K%{+o+{+o+o+o+o+o+o+o+o+o+!+!+P+N+!+o+!+!+!+o+!+o+]@o+o+o+o+!+~+2-`'H'x>Q+!+i$!+i$o+o+o+o+o+o+o+!+!+!+!+N+o+o+o+o+{+o+!+]@!+o+P+o+o+o+!+!+o+o+o+]+o+{+A@o+{+o+{+o+o+o+o+{+{+o+o+o+o+o+!+o+{+o+o+]+P+i$o+o+m# )0,-;.)+)@)Y>#)$)8-8-8-8-8-8-8-8-8-8-8-8-8-8-8-8-8-8-8-8-%)o'>'w-&)*)#@                                                          ",
"                                                                                    $ =)-)!-;)>),)< ')P>))!)&=&=6>~){)])-;w-N,^)0'Q-8-8-8-8-8-8-8-8-8-8-8-8-8-#)/)],()_)8*]+]+]+o+o+{+~+o+]+]+o+o+o+o+A@o+o+o+!+!+!+!+!+o+!+!+!+!+o+!+]@o+o+o+o+F&:)%,C;O&~+!+o+N+o+N+!+o+p+o+]+o+!+!+!+!+!+o+!+o+o+o+o+o+!+!+!+!+!+o+o+!+o+!+o+o+o+]+o+!+A@!+o+o+!+]+]+o+]+~+{+o+p+o+o+{+{+{+]+!+!+N+!+j$<) .[)m,],{,{,~'V,[)})|)1)2)8-8-8-8-8-8-8-8-8-8-8-8-8-8-8-8-8-8-9-T,n,=-3)4)                                                          ",
"                                                                                      e.5)6)7)<   j.8)9)0)a)Z;5>b)c)J=b-S-d)e))>8-8-8-8-8-8-8-8-8-8-8-8-8-8-8-8-m;W,G'],8,i']+~+]+]+{+]+~+]+o+{+o+o+{+o+o+o+o+!+!+!+!+!+!+o+o+!+P+o+A@o+o+o+o+o+i@F;%,f,'+o+o+!+!+i$o+o+o+o+]+o+!+o+!+o+!+o+{+o+!+o+!+o+!+P+!+!+!+!+!+!+o+!+!+o+o+o+o+o+o+]+{+o+o+o+o+{+~+o+o+{+o+~+o+~+~+]+o+]+A@!+!+K*f)S-=-],=-m,n,n,n,n,{,~'=-g)h)i)8-8-8-8-8-8-8-8-8-8-8-8-8-8-8-8-8-8-%)j)n,S-k)                                                          ",
"                                                                                                  R@l)m)n)o)D,p)b-q)w-=-N'r)*;8-8-8-8-8-8-8-8-8-8-8-8-8-8-8-8-8-2)s)F'()t)X%~+~+o+K%]+~+~+~+]+]+o+~+]+~+p+o+o+p+o+!+o+!+!+!+!+o+o+o+!+o+o+o+o+~+d=%,%,2+u)!+o+!+!+!+i']+]+]+o+o+i$o+o+o+p+o+]+o+]+~+!+o+!+!+P+o+i$!+!+~+!+o+o+o+]+]+o+]+]+]+]+~+]+~+]+{+]+]+]+~+]+~+~+~+]+~+~+~+p+]+G%v)w)S-w-w-g'x)~'y)[)=--;=-=-=-!'z)8-8-8-8-8-8-8-8-8-8-8-8-8-8-8-8-8-8-8-A)n,=-B) $                                                        ",
"                                                                                                  k C)D)E)F)G)H)S-=-U,I)J)8-8-8-8-8-8-8-8-8-8-8-8-8-8-8-8-8-8-8-8-K)F'f'Y G.L)h'M)h@K%]+~+~+~+~+{+K%~+K%~+{+A@o+!+o+!+o+!+!+o+o+!+o+o+o+]+o+o+o+C%9,N)w>i@Y#O)P)%+Q)s+]+]+]+o+o+!+i'N+N+!+o+o+o+]+~+{+]+!+!+P+o+!+p+!+!+!+!+o+!+{+~+~+~+o+!+~+]+`@R)S)i*T)-+o+]+o+]+{+~+~+]+~+-+U)u)V)--S-A'n,!,W)a'/'%)L'X)l'!,Y),'Z)`)8-8-8-8-8-8-8-8-8-8-8-8-8-8-8-8-8-8-8- !g)S-Y,W&                                                        ",
"                                                                                                  ##.!+!@!#!N;S-{,^)$!9-8-8-8-8-8-8-8-8-8-8-8-8-8-8-8-8-8-8-8-8-8-%!d)d)&!F'n,*!=!-!;!>!~+~+X%X%]+~+]+~+~+~+!+!+o+]+o+!+o+]+]+o+o+!+o+o+~+~+^+K%J+,!'!)!!!t,S,J=0,w-~!{!i'i'o+o+N+N+!+!&i*8%]+~+]+]+]+o+!+!+!+N+o+p+o+!+!+p+]+]+]+]+p+p+~#m#]!^!/!(!_!3,9,:!<![!8*~#]+q+q+|-}!w>+-|!U,n,w-1!0-7-8-8-8-8-8-8-8-7-7-D'2!8-8-8-8-8-8-8-8-8-8-8-8-8-8-8-8-8-8-8-8-Q-3!S-4!5!                                                        ",
"                                                                                                D 6!l)M;{,=-n,d)7!8!8-8-8-8-8-8-8-8-8-8-8-8-8-8-8-8-8-8-8-8-8-8-8-0-X,F'9!F'x)F'U,~'{,6*X*{!X%X%{+~+~+~+K%K%]+o+]+!+]+]+]+o+o+]+o+]+o+o+K%o+K%h@s,->v'w.b-S,])w-J=0,l=0!j$i'o+o+Q+a!b!c!`*d!e!{!]+^+{+o+!+o+O+T)p#]+o+o+o+o+~+]+~+]+f!g!h!i!U,n,U,F'd)g'U,U,n,n,j!k!l!u)]!b&=-S-{'],n,n,0,W>8-8-8-8-8-8-8-8-8-8-8-8-8-8-8-8-8-8-8-8-8-8-8-8-8-8-8-8-8-8-8-8-8-8-m!S-n!o!                                                        ",
"                                                                                              p!q!4!=-n,{,n,S,r!*;8-8-8-8-8-8-8-8-8-8-8-8-8-8-8-8-8-8-8-8-8-8-8-8-2)9'y)4!~'G'f'F'F'F'F'],s!t!N+X%X%~+~+K%P+!+{+K%K%]+~+X%K%K%K%K%K%~+~+K%]+]+q,A=V>4,J=u!v!w!x!y!z!w-=-A!]+i${!B!o,b-w-w--;-;v){!o+]+]+~#C!D!9>E!F!3$o+]+o+K%X%p+G!H!n!I!d)F'd)F'F'F'F'F'F'F'F'J!F'd)K![)~'],=-L!=-A'~'0'8-8-8-8-8-8-8-8-8-8-8-8-8-8-8-8-8-8-8-8-8-8-8-8-8-8-8-8-8-8-8-8-8-8-D'M!{,d)N!                                                        ",
"                                                                                          8@O!3)b-w-],],S-P!Q!8-8-8-8-8-8-8-8-8-8-8-8-8-8-8-8-8-8-8-8-8-8-8-8-8-8-8-7-c'+)('l'o'~'F'F'~'],m,N;w&'+X%H#R!b!S!T!7,U!|-q+K%~+q+K%X%K%X%K%~+K%^+~+V!W!;,J=0,X!Y!n-&=R=Z!S-w-`!p#Y# ~@!w-S-S,[).~-;M;+~m+]+Y#@~o=n,F'#~#!$~!&]+o+q+p#%~m)f'F'F'F'x)&~*~=~-~;~>~M!*!F'F'F'~'F'F'F'4!9'm',~'~r!9-8-8-8-8-8-8-8-8-8-8-8-8-8-8-8-8-8-8-8-8-8-8-8-8-8-8-8-8-8-8-8-8-8-8-)~o;{,!~5$                                                        ",
"                                                                                        ~~{~U,M;=-n,N']~^~/~8-8-8-8-8-8-8-8-8-8-8-8-8-8-8-8-8-8-8-8-8-8-8-8-8-8-8-8-8-8-8-8-8-7-/'(~_~F'()F'F'&!:~;!c!X,F'F'F'F'9!<~[~8%}~]+]+]+!+!+i*M)|~1~2~3~o=0,q)))4~5~5~&=`;6~7~n,8~9~0~#!q)a~b~1'c~d~e~N;p')#Y#f~n,w-i>g~n,h~#!i~]+p+G!Z*9!F'F'F'j~Y)X)~,k~l~l~l~l~#)W)f>m~J!F'F'F'j)%)7-8-8-8-8-8-8-8-8-8-8-8-8-8-8-8-8-8-8-8-8-8-8-8-8-8-8-8-8-8-8-8-8-8-8-8-8-8-8-X>!>n,{,n~e.                                                        ",
"                                                                                      o~p~b-=-S-0,q~9-8-8-8-8-8-8-8-8-8-8-8-8-8-8-8-8-8-8-8-8-8-8-8-8-8-8-8-8-8-8-8-8-8-8-8-8-8-8-8- !k'0,~'G'F'~'d)F'F'F'F'F'F'f'f'N;r~W%]+N+s~;!t~2+u~v~*!Y,C)q)0,q)w~V'`;&=`;S*T*x~b-Y,y~z~h~A~B~Q*C~`;];D~E~h>F~G~h>7'H~I~J~K~#!n,h+m#L~M~m,G'F'd)N~O~Q-8-8-8-8-8-8-8-8-8-8-Q-P~n,d))'Q~8-8-8-8-8-8-8-8-8-8-8-8-8-8-8-8-8-8-8-8-8-8-8-8-8-8-8-8-8-8-8-8-8-8-8-8-8-8-8-8-8-R~n,n,S~                                                          ",
"                                                                                    T~U~S-=-~'V~J)8-8-8-8-8-8-8-8-8-8-8-8-8-8-8-8-8-8-8-8-8-8-8-8-8-8-8-8-8-8-8-8-8-8-8-8-8-8-8-8-8-8-8- !W~F'()F'F'~'~'j~x)J!4!],],X~J!P>Y~Z~`~&!x)x)&!F'F'F'F'],S-S- {T*&=Z;Z;&=`;.{*!n!2*F'+{@{#{&=&=`;${%{&{&!*{={n,-{;{`;`;>{,{F'n!'{){],f'F'd)!{ !8-8-8-8-8-8-8-8-8-8-8-8-8-8-~{^~ !8-8-8-8-8-8-8-8-8-8-8-8-8-8-8-8-8-8-8-8-8-8-8-8-8-8-8-8-8-8-8-8-8-8-8-8-8-8-8-8-8-8-{{V,n,]{%                                                         ",
"                                                                                    ^{b-n,~'@-%)8-8-8-8-8-8-8-8-8-8-8-8-8-8-8-8-8-8-8-8-8-8-8-8-8-8-8-8-8-8-8-8-8-8-8-8-8-8-8-8-8-8-8-8-8-~{E'x)F'd)[)/{0-({_{1):{^)J!X~f'F'd)X~&!&!x)x)F'F'~'],],],]{<{&=&=&=`;&=5~[{}{#!d)F'|{1{#{&=&=&=`;3=2{n,#!#!3{4{`;`;&=x;5{m,F'>,q)n,()8'r)7-8-8-8-8-8-8-8-8-8-8-8-8-8-8-8-8-8-8-8-8-8-8-8-8-8-8-8-8-8-8-8-8-8-8-8-8-8-8-8-8-8-8-8-8-8-8-8-8-8-8-8-8-8-8-8-8-8-8-8-8-a'M;n,6{7{                                                        ",
"                                                                                  8{Y,n,n,9{2)8-8-8-8-8-8-8-8-8-8-8-8-8-8-8-8-8-8-8-8-8-8-8-8-8-8-8-8-8-8-8-8-8-8-8-8-8-8-8-8-8-8-8-8-8-8-8-9-=;o'm'k~7-8-8-8-8-8-#)!,j~F'd)&!J!x)0{Z'!,l'!{a{9'~'S-b{c{&=#{#{@,`;`;d{e{],],F'f{T*g{@,@,`;`;S*h{.~~'q)i{j{`;`;&=@,k{l{d)f'n,],1!~,8-8-8-8-8-8-8-8-8-8-8-8-8-8-8-8-8-8-8-8-8-8-8-8-8-8-8-8-8-8-8-8-8-8-8-8-8-8-8-8-8-8-8-8-8-8-8-8-8-8-8-8-8-8-8-8-8-8-8-8-8-8-`)o;{,m{n{                                                        ",
"                                                                                  o{N;#!7'Q~8-8-8-8-8-8-8-8-8-8-8-8-8-8-8-8-8-8-8-8-8-8-8-8-8-8-8-8-8-8-8-8-8-8-8-8-8-8-8-8-8-8-8-8-8-8-8-8-8-8-7-8-8-8-8-8-8-8-8-8-b'p{],q{r{s{t{a'2!8-8-8-8-l~u{w-v{w{Z;Z;Z;#{&=`;x{q{],],f'y{3=@,&=`;&=`;&=z{S,A{B{C{#{`;Z;&=o>>{D{f'F'n,E{L'8-8-8-8-8-8-8-8-8-8-8-8-8-8-8-8-8-8-8-8-8-8-8-8-8-8-8-8-8-8-8-8-8-8-8-8-8-8-8-8-8-8-8-8-8-8-8-8-8-8-8-8-8-8-8-X>D'F{7-l~7-7-Y>L;{,{,G{<                                                         ",
"                                                                                ' H{d)[)I{8-8-8-8-8-8-8-8-8-8-8-8-8-8-8-8-8-8-8-8-8-8-8-8-8-8-8-8-8-8-8-8-8-8-8-8-8-8-8-8-8-8-8-8-8-8-8-8-8-8-8-8-8-8-8-8-8-8-8-8-8-8-8-Y>~,c'J{8-8-8-8-8-8-8-8-K{w-D>L{g{#{`;@,${x;M{],G'm,],N{n-`;`;`;`;&=${O{1!n,q)P{`;g{`;&=g{T*Q{m,F'w-~,8-8-8-8-8-8-8-8-8-8-8-8-8-8-8-8-8-8-8-8-8-8-8-8-8-8-8-8-8-8-8-8-8-8-8-8-8-8-8-8-8-8-8-8-8-8-8-8-8-8-8-8-8-8-8-*;R{S{M!T{>~U{V{;;{,n,D>W{                                                          ",
"                                                                                @ X{d)[)Y{8-8-8-8-8-8-8-8-8-8-8-8-8-8-8-8-8-8-8-8-8-8-8-8-8-8-8-8-8-8-8-8-8-8-8-8-8-8-8-8-8-8-8-8-8-8-8-8-8-8-8-8-8-8-8-8-8-8-8-8-8-8-8-8-8-8-8-8-8-8-8-8-8-8-l~Z{w-`{ ]&=`;&=`;&=T*.]m,()],],+]T*&=o>`;`;`;C~@]S,A{f'#]$]`;`;`;`;`;1'S-d)%]7-8-8-8-8-8-8-8-8-8-8-8-8-8-8-8-8-8-8-8-8-8-8-8-8-8-8-8-8-8-8-8-8-8-8-8-8-8-8-8-8-8-8-8-8-8-8-8-8-8-8-8-8-8-8-8-&]~'n,n,h~=-=-=-{,{,n,*]<                                                           ",
"                                                                                s;W,U,=]l~8-8-8-8-8-8-8-8-8-8-8-8-8-8-8-8-8-8-8-8-8-8-8-8-8-8-8-8-8-8-8-8-8-8-8-8-8-8-8-8-8-8-8-8-8-8-8-8-8-8-8-8-8-8-8-8-8-8-8-8-8-8-8-8-8-8-8-8-8-8-8-8-8-8-7--]=-4!;]`;#{o>#{`;T*>]G'G'],F',]']&=@,&=&=&=)]!]=-n,F'~]{]T*@,`;`;@,]]^]d)Y)7-8-8-8-8-8-8-8-8-8-8-8-8-8-8-8-8-8-8-8-8-8-8-8-8-8-8-8-8-8-8-8-8-8-8-8-8-8-8-8-8-8-8-8-8-8-8-8-8-8-8-8-8-8-8-8-/]=-m,=-b-J=I=0,W,H{(]<                                                             ",
"                                                                                _]d)U,U{l~8-8-8-8-8-8-8-8-8-8-8-8-8-8-8-8-8-8-8-8-8-8-8-8-8-8-8-8-8-8-8-8-8-8-8-8-8-8-8-8-8-8-8-8-8-8-8-8-8-8-8-8-8-8-8-8-8-8-8-8-8-8-8-8-8-8-8-8-8-8-8-8-8-8-7-K)S-[):][>#{@,#{g{:,<]G'],1!n,[]}]`;@,`;&=`;|]1]],F'F'w-2]&=`;`;`;`;3]4]F'!'c'8-8-8-8-8-8-8-8-8-8-8-8-8-8-8-8-8-8-8-8-8-8-8-8-8-8-8-8-8-8-8-8-8-8-8-8-8-8-8-8-8-8-8-8-8-8-8-8-8-8-8-8-8-8-9-h)=-n,;-5]6]7]8]6@9]                                                                ",
"                                                                                0]X,d)P!a]8-8-8-8-8-8-8-8-8-8-8-8-8-8-8-8-8-8-8-8-8-8-8-8-8-8-8-8- !Q~l'b]c]k'd]9-8-8-8-8-8-8-8-8-8-8-8-8-8-8-8-8-8-8-8-8-8-8-8-8-8-8-8-8-8-8-8-8-8-8-8-8-8-8-8-e]A'm,f][>#{@,#{#{g];'F'h]i]F'd)j]o>&=&=Z;`;k]l]f'=-x)d)m]n]`;[>@,g{o]p]f'q]a'8-8-8-8-8-8-8-8-8-8-8-8-8-8-8-8-8-8-8-8-8-8-8-8-8-8-8-8-8-8-8-8-8-8-8-8-8-8-8-8-8-8-8-8-8-8-8-X>Q~{{r]7-8-9-s]y)~'!~t]                                                                            ",
"                                                                                u]v]n,n!%)8-8-8-8-8-8-8-8-8-8-8-8-8-8-8-8-8-8-8-8-8-8-8-8-8-8-*;'~_~3)F'~'F'x)&~)'b>9-8-8-8-8-8-8-8-8-8-8-8-8-8-8-8-8-8-8-8-8-8-8-8-8-8-8-8-8-8-8-8-8-8-8-8-8-8-$-w-])w]&=@,#{#{o>x]y]n,U{t{F'8'z]Z;&=&=@,`;A]B]d)>~C]U,D]E]&=&=#{#{x;F]],x)m;8-8-8-8-8-8-8-8-8-8-8-8-8-8-8-8-8-8-8-8-8-8-8-8-8-8-8-8-8-8-8-8-8-8-8-8-8-8-8-8-8-8-8-8-8-8-8-1)d){>G]H]I]7!x)n,n,J]8@                                                                            ",
"                                                                                < K]=-n,)'%)8-8-8-8-8-8-8-8-8-8-8-8-8-8-8-8-8-8-8-8-8-8-8-8-9-=;4!d)F'd)J!d)U,F'J!j~L]0-8-8-8-8-8-8-8-8-8-8-8-8-8-8-8-8-8-8-8-8-8-8-8-8-8-8-8-8-8-8-8-8-8-8-8-8-'~=-])M]`;#{@,#{Z;N]F'=-O]'~x)F'$=P]#{g{g{`;Z;Q]F'R]S]],S-T]x;&=#{#{o>U].~],k'8-8-8-8-8-8-8-8-8-8-8-8-8-8-8-8-8-8-8-8-8-8-8-8-8-8-8-8-8-8-8-8-8-8-8-8-8-8-8-8-8-8-8-8-8-8-8-V]A{],],],S-=-=-S-.!W]                                                                              ",
"                                                                                  X]U,=-=-Y)#)8-8-8-8-8-8-8-8-8-8-8-8-8-8-8-8-8-8-8-8-8-8-*;c]x)F'J!F'&!Y]F'q]d)F'F'n,w-Z]8-8-8-8-8-8-8-8-8-8-8-8-8-8-8-8-8-8-8-8-8-8-8-8-8-8-8-8-8-8-8-8-8-8-8-`]{,q) ^x;@,o>#{&=.^E{{'s]/'g)f'+^@^#{g{Z;g{#^$^U,%^&^[)f'*^=^`;#{#{&=N]n!],7!8-8-8-8-8-8-8-8-8-8-8-8-8-8-8-8-8-8-8-8-8-8-8-8-8-8-8-8-8-8-8-8-8-8-8-8-8-8-8-8-8-8-8-8-8-8-7-b]n,n,],w-N,-;=--^;^                                                                                ",
"                                                            j.>^,^'^)^D+!^        8@q'S-=-=-~^X)a'l~X>8-8-l~l~8-8-8-8-8-8-8-8-8-8-8-8-8-8-{^4!d)F'[)s{m;L'/'D'A)_~F'd)d)]^8-8-8-8-8-8-8-8-8-8-8-8-8-8-8-8-8-8-8-8-8-8-8-8-8-8-8-8-8-8-8-8-8-8-8-J)[)n,^^3=#{`;`;e*/^N,F'(^7-Z)],{,_^`;g{g{#{:^<^~'[^Q-R~],],}^`;@,#{#{|^+=],>~l~8-8-8-8-8-8-8-8-8-8-8-8-8-8-8-8-8-8-8-8-8-8-8-8-8-8-8-8-8-8-8-8-8-8-8-8-8-8-8-8-8-8-8-8-8-c'0,n,j~1^2^3^4^5^8@                                                                                  ",
"                                                          6^7^8^9^0^a^b^c^d^        e^f^S-w-S-~'U,9'g^I]h^Z{i^j^k^k~8-8-8-8-8-8-8-8-8-8-9-l^d)~'~'m^9-8-8-8-8-8-~{n^N'G]o^8-8-8-8-8-8-8-8-8-8-8-8-8-8-8-8-8-8-8-8-8-8-8-8-8-8-8-8-8-8-8-8-8-8-8- !3)n,p^q^#{Z;`;r^s^G'q]D'8-V]~'n,t^f-`;[>@,u^v^n,W~7-w^n!F'x^y^#{#{#{z^A^],B^D'8-8-8-8-8-8-8-8-8-8-8-8-8-8-8-8-8-8-8-8-8-8-8-8-8-8-8-8-8-8-8-8-8-8-8-8-8-8-8-8-8-8-8-8-8-:{~'n,C^D^                                                                                            ",
"                                                          E^F^8-8-8-8-G^H^I^J^        K^L^U,w-q)=-],],],{'],n,~'g'M^X>8-8-8-8-8-8-8-8-8-a'N^x)],O^7-8-8-8-8-8-8-8-8-a]2)8-8-8-8-8-8-8-8-8-8-8-8-8-8-8-8-8-8-8-8-8-8-8-8-8-8-8-8-8-8-8-8-8-8-8-8-a'[)f'P^Q^#{@,#{R^h.],{,Y{8-{{S^f'r&T^&=`;g{U^V^n,W^7-D'V~=-=-Z!`;g{#{X^Y^f'W,Y{8-8-8-8-8-8-8-8-8-8-8-8-8-8-8-8-8-8-8-8-8-8-8-8-8-8-8-8-8-8-8-8-8-8-8-8-8-8-8-8-8-8-8-8-1)Z^],S-`^                                                                                              ",
"                                                        8@ /8-8-8-8-8-8-G^g>./#@        < +/6{n!S-N,S-N,w-],d)n,~'n'8-8-8-8-8-8-8-8-8-8-X>f>@/O~X>8-8-8-8-8-8-8-8-8-8-8-8-8-8-8-8-8-8-8-8-8-8-8-8-8-8-8-8-8-8-8-8-8-8-8-8-8-8-8-8-8-8-8-8-8-8-8-2)#/n,l{$/#{#{`;%/C)~'Y)l~8-7-7!n,q)&/&=[>`;=,*/~'m!8-8-0'n,m,=/;{`;o>x;-/n,v~;/8-8-8-8-8-8-8-8-8-8-8-8-8-8-8-8-8-8-8-8-8-8-8-8-8-8-8-8-8-8-8-8-8-8-8-8-8-8-8-8-8-8-8-J)/)=-=-.!p!                                                                                              ",
"                                                        >/,/8-8-8-8-8-8-8-%!'/@@            ].)/!/;-~/{/]/`,^/],],l'8-8-8-8-8-8-8-8-8-8-8-8-8-8-8-8-8-8-8-8-8-8-8-8-8-8-8-8-8-8-8-8-8-8-8-8-8-8-8-8-8-8-8-8-8-8-8-8-8-8-8-8-8-8-8-8-8-8-8-8-8-8-l~#-],d)//(/@,`;_/q)],#-8-8-8-w^W,f':/</@,g{[/}/n,S{Q-8- !|/=-w-1/[>@,e*2{m,Y]2/8-8-8-8-8-8-8-8-8-8-8-8-8-8-8-8-8-8-8-8-8-8-8-8-8-8-8-8-8-8-8-8-8-8-8-8-8-8-8-8-8-c'b>b-m,m,W,3/                                                                                                ",
"                                                        $ 4/8-8-8-8-8-8-8-5/6/^.                            7/w-n,l'8-8-8-8-8-8-8-8-8-8-8-8-8-8-8-8-8-8-8-8-8-8-8-8-8-8-8-8-8-8-8-8-8-8-8-8-8-8-8-8-8-8-8-8-8-8-8-8-8-8-8-8-8-8-8-8-8-8-8-8-8-8-8-8/],m~9/#{g{&=0/f'~'a/8-8-8- !N'n,b/c/[>&=[/d/n,B^e/8-8-r)x)],f/{]o>T*g/q)4!L'8-8-8-8-8-8-8-8-8-8-8-8-8-8-8-8-8-8-8-8-8-8-8-8-8-8-8-8-*;J{B>D'7-l~l~l~7-#)D'w^E'E{n,w-m,F'a,<                                                                                                 ",
"                                                          h/i/8-8-8-8-8-8-j/k/                              l/0,],7!7-8-8-8-8-8-8-8-8-8-8-8-8-8-8-8-8-8-8-8-8-8-8-8-8-8-8-8-8-8-8-8-8-8-8-8-8-8-8-8-8-8-8-8-8-8-8-8-8-8-8-8-8-8-8-8-8-8-8-8-8-8-8-m;~'],b~m/o>n/o/f'q]#)8-8-8-8-t{n,F'p/%{#{q/r/F's/t/8-8- !T{w-S-u/n]Z;y!v/j~W>8-8-8-8-8-8-8-8-8-8-8-8-8-8-8-8-8-8-8-8-8-8-8-8-8-8-8-8-#-3)4!B^L]w/U{x/y/M!q][)S-S-m,S-e{z/$                                                                                                   ",
"                                                          A/B/C/D/E/F/G/'!H/e.                              I/d)],m= !8-8-8-8-8-8-8-8-8-8-8-8-8-8-8-8-8-8-8-8-8-8-8-8-8-8-8-8-8-8-8-8-8-8-8-8-8-8-8-8-8-8-8-8-8-8-8-8-8-8-8-8-8-8-8-8-8-8-8-8-8-8-#)3)],J/K/R=L/i=F'G]D'8-8-8-8-#)n;9!M/N/&=O/P/d){,Y{8-8-8-+)U,f'n,Q/R/S/q)g)T/8-8-8-8-8-8-8-8-8-8-8-8-8-8-8-8-8-8-8-8-8-8-8-8-8-8-8-8-e]],A{n,],],n,],n,],],],w-w-W,U/V/                                                                                                      ",
"                                                            ].W/X/Y/Z/`/@ e.                                >- (w-n,0'8-8-8-8-8-8-8-8-8-8-8-8-8-8-8-8-8-8-8-8-8-8-8-8-8-8-8-8-8-8-8-8-8-8-8-8-8-8-8-8-8-8-8-8-8-8-8-8-8-8-8-8-8-8-8-8-8-8-8-8-8-8-2)|/=-.(c~Z;+(w-G'I)7-8-8-8-8-X>Z{d)U,@(#($(%(d)[)&(8-8-8-9-*(~'f'=(-(;(f'Y,a'8-8-8-8-8-8-8-8-8-8-8-8-8-8-8-8-8-8-8-8-8-8-8-8-8-8-8-8-Q~3)n,n,b-H)S-&)q)0,m,>(,('()(<         j.!(~({(](Z+^(e.                                                                                ",
"                                                                  < j.                                      j./(S-A'((J{8-8-8-8-8-8-8-8-8-8-8-8-8-8-8-8-8-8-8-8-8-8-8-8-8-8-8-8-8-8-8-8-8-8-8-8-8-8-8-8-8-8-8-8-8-8-8-8-8-8-8-8-8-8-8-8-8-8-8-8-8-8-=;S-q)_(2=:(f'F'e>8-8-8-8-8-8-k~4!F'b/<(R^[(F'U,}(8-8-8-8-%)b-G'#~V,W,F'4!c'8-8-8-8-8-8-8-8-8-8-8-8-8-8-8-8-8-8-8-8-8-8-8-8-8-8-8-8-%)3)n,|(1(2(3(4(5(6(7(8(<             9(L^0(a>4;a(5-o,b(c(                                                                              ",
"                                                                                                              d(*!w-=-|/e(X>8-8-8-8-8-8-8-8-8-8-8-8-8-8-8-8-8-8-8-8-8-8-8-8-8-8-8-8-8-8-8-8-8-8-8-8-8-8-8-8-8-8-8-8-8-8-8-8-8-8-8-8-8-8-8-8-8-8-8-8-%)0{],f(g(h(d)[)i(8-8-8-8-8-8-8-c][)d)j(k(l(F'B^Y{8-8-8-8-8-m(~'F'F'~'F'n(9-8-8-8-8-8-8-8-8-8-8-8-8-8-8-8-8-8-8-8-8-8-8-8-8-8-8-8-7-=;~'],U/j.                          o(M;L;|/p(p(h)@-@-@-q(r(                                                                            ",
"                                                                                                              j.s(w-S-=-=-P~#)8-8-8-8-8-8-8-8-8-8-8-8-8-8-8-8-8-8-8-8-8-8-8-8-8-8-8-8-8-8-8-8-8-8-8-8-8-8-8-8-8-8-8-8-8-8-8-8-8-8-8-8-8-8-8-8-8-8-8-9-)'],G'{,f'd)o'7-8-8-8-8-8-8-8-#)S,d)~'t(d)~'j^2!8-8-8-8-8-X>W>y)~'d)j~u(8-8-8-8-8-8-8-8-8-8-8-8-8-8-8-8-8-8-8-8-8-8-8-8-8-8-8-8-Q!n,=-S-v(                          w(x(y(L;n'`]G^z(A(K{@-B(a,                                                                            ",
"                                                                                                                >/C(N,S-w-n,D(E(r!F(b'l~8-8-7-l~7-8-8-8-8-8-8-8-8-8-8-8-8-8-8-8-8-8-8-8-8-8-8-8-8-8-8-8-8-8-8-8-8-8-8-8-8-8-8-8-8-8-8-8-8-8-8-8-8-8-8-r)[)n,n,F'y)~,8-8-8-8-8-8-8-8-8-r)g)~'~'f'n,7!X>8-8-8-8-8-8-8-Q~R~w/G(l~8-8-8-8-8-8-8-8-8-8-8-8-8-8-8-8-8-8-8-8-8-8-8-8-8-8-Q-r)M;S-S-H(I(                          _=J(L;K(8-8-8-8-8-8-L(M(o,##                                                                          ",
"                                                                                                                  8@N(9!q)w-{'],n;U,O(R{]^P(K)E'T,g^2)8-8-8-8-8-8-8-8-8-8-8-8-8-8-8-8-8-8-8-8-8-8-8-8-8-8-8-8-8-8-8-8-8-8-8-8-8-8-8-8-8-8-8-8-8-8-8-8-*;Q(~'],x)R(7-8-8-8-8-8-8-8-8-8-3;a-~'n,~'x)m;8-8-8-8-8-8-8-8-8-7-l~8-8-8-8-8-8-8-8-8-8-8-8-8-Q-S(L'T(8-8-8-8-8-8-8-8-$)r]Z]%^U,=-S-4!U(                            V(@-n'8-8-8-8-8-8-8-D/W(X(Y(                                                                          ",
"                                                                                                                    j.Z(H(M;q)S-=-],],m,],n,],],A{n,y/#)8-8-8-8-8-8-8-8-8-8-8-8-8-8-8-8-8-8-8-8-8-8-8-8-8-8-8-8-8-8-8-8-8-8-8-8-8-8-8-8-8-8-8-8-8-8-8-8-9-l'>~R(C'8-8-8-8-8-8-8-8-8-8-8-9-8/x)g)Q(9-8-8-8-8-8-8-8-8-8-8-8-8-8-8-8-8-8-8-8-8-8-8-8-%)Z>n,0{w-`( _l'd'0'd'R(._}){,~'w-h~S-V,]>                              +_L;@_8-8-8-8-8-8-8-E/#_i=8@                                                                          ",
"                                                                                                                        ##W{$_X{4!],=-=-],],],],n,],=-%_0-9-8-8-8-8-8-8-8-8-8-8-8-8-8-8-8-8-8-8-8-8-8-8-8-8-8-8-8-8-8-8-8-8-8-8-8-8-8-8-8-8-8-8-8-8-8-8-8-8-l~8-8-8-8-8-8-8-8-8-8-8-8-8-8-7- ! !b'8-8-8-8-8-8-8-8-8-8-8-8-8-8-8-8-8-8-8-8-8-8-8-D'o'=-=-=-],n,~'n,A{~'n,A'A'{,=-S-w-~'&_*_                                p;L;=_E/8-8-8-8-8-8--_;_z/                                                                            ",
"                                                                                                                              >_,_'_)_!_~_{_)_]_H{b-n,n,j~''r!%)8-8-8-8-8-8-8-8-8-8-8-8-8-8-8-8-8-8-8-8-8-8-8-8-8-8-8-8-8-8-8-8-8-8-8-8-8-8-8-8-8-8-8-8-8-8-8-8-8-8-8-8-8-8-8-8-8-8-8-8-8-8-8-8-8-8-8-8-8-8-8-8-8-8-8-8-8-8-8-8-8-8-8-8-8-8-8-Y>''n,w-~'],.~m,],G'm,f'#~m,q)q)],r{^_/_].                                  d-(___K'G/G^8-G^,~:_<_[_}_                                                                            ",
"                                                                                                                                                4)|_n,],n,],[)1_2_3_4_*;l~8-8-8-8-8-8-8-8-8-7- ! !b'8-8-8-8-8-8-8-8-8-8-8-8-8-8-8-8-8-8-8-8-8-8-8-8-8-8-8-8-8-8-8-8-8-8-8-8-8-8-8-8-8-8-8-8-8-8-8-8-8-8-8-8-8-8-8-8-8-8-8-8-8-8-8-8-8-8-8- !5_D(m,=-0,6_7_8_9_0_a_q{o;C)O'b_c_d_e_E                                         f_Z/g_n(y(2;h_i_+-j_K^                                                                              ",
"                                                                                                                                                  k_l_*!N,m,],],],j~4!W~m_f>n_o_W>B'L'J)p_!{2__~r{1_ !8-8-8-8-8-8-8-8-8-8-8-8-8-8-8-8-8-8-8-8-8-8-8-8-8-8-8-8-8-8-8-8-8-8-8-8-8-8-8-8-8-8-8-8-8-8-8-8-8-8-8-7-e>q_0-)>*;8-8-8-8-8-l~#)8!=;h]f'm,w-w-r_P'          $ ) ].#@                                                    s_l/t_a~o,u_v_$@e.                                                                                ",
"                                                                                                                                                      w_x_ (F'm,],],],],x)J!F'W,4!3)Y]g)x)A{~'~'F'&!r)8-8-8-8-8-8-8-8-8-8-8-8-8-8-8-8-8-8-8-8-7-8-8-8-8-8-8-8-8-8-8-8-8-8-8-8-8-8-8-8-8-8-8-8-8-8-8-8-8-8-8-B'x)~'j~S^y_&-l'!{G(._m_B^[)w-S-S-w-;;[=[@                                                                              ) j E                                                                                       ",
"                                                                                                                                                          P'z_A_!~4!q)w-G'],n,n,n,n,n,n,],],m,m,G'],h]{{8-8-8-8-8-8-8-8-8-8-8-8-8-8-8-8-8-7-W>m_L'8-8-8-8-8-8-8-8-8-8-8-8-8-8-8-8-8-8-8-8-8-8-8-8-8-8-8-7-W>w-F'F'#~n,n,A'w-],=-{'S-S-S-m,q);;B_C_e.                                                                                                                                                                            ",
"                                                                                                                                                                ##f_D_E_F_Y,G_H_X{q]q]q]X{*!M!I_d)],n,T,C'8-8-8-8-8-8-8-8-8-8-8-8-8-8-8-r]=;x)~'S,m;Q-8-8-8-8-8-8-8-8-8-8-8-8-8-8-8-8-8-8-8-8-8-8-8-8-Q-0'~'n,~'*!o;Y,],w-w-S-w-S-S-S-4!Y,$_J_].                                                                                                                                                                                ",
"                                                                                                                                                                          % T~K_L_M_N_O_M% $@@  k)P_],~'U{Y>8-8-8-8-8-8-8-8-8-8-8-7-2/Q_.~~'n,n,],[)R_r)%)8-8-8-8-8-8-8-8-8-8-8-8-8-8-8-8-8-8-8-8- !0-9'W,f'f'W,S_0 f_t#T_U_V_W_8)X_D_V/M$                                                                                                                                                                                      ",
"                                                                                                                                                                                                 %J]n,=-=-U,O]0-c'2!l~l~l~2)({1)G(Z)x)A{n,],],n,],],=-[)N~=;W>i(l~X>8-8-8-8-8-8-8-8-8-8-7-l~c'0-8/j)[)],],],*!Y_<                                                                                                                                                                                                               ",
"                                                                                                                                                                                                  Z_`_S-],n,],j~[) :U{.:+:j^x)Y]F'()],],N,x)@:#:$:{,n,n,~'G'4!U,9'R~b>@)~,d]d]d]L'w^%:{^._Z'x)4!n,A{F'F'G'&:*:#@                                                                                                                                                                                                                ",
"                                                                                                                                                                                                    =:-:x)w-],],=-=-=-],=-S-~'],],],S-W,-^;:<   >:,:6{4!],],n,~'d)d)~'F'j~X,V,V,y)x)],],n,A{n,],],],d)X{c_':                                                                                                                                                                                                                    ",
"                                                                                                                                                                                                      e.W{@:q]],S,.~8'q)q)b-8'W,):!:~:{:<           ].]:`^^:X,b-S-N;m,h~m,n,h~h~n,],n,f'm,S-m,4!>(U//:~~                                                                                                                                                                                                                        ",
"                                                                                                                                                                                                          e.(:_:::<:[:}:|:1:2:3:P'e.                      8@4:5:6:7:8:o;9:0:a:a:b:c:o;E~d:e:f:~(I(#@                                                                                                                                                                                                                            ",
"                                                                                                                                                                                                                                                                    ^.T~K_g:g:h:8@K_T~=@                                                                                                                                                                                                                                        ",
"                                                                                                                                                                                                                                                                                                                                                                                                                                                                                                                                ",
"                                                                                                                                                                                                                                                                                                                                                                                                                                                                                                                                ",
"                                                                                                                                                                                                                                                                                                                                                                                                                                                                                                                                ",
"                                                                                                                                                                                                                                                                                                                                                                                                                                                                                                                                ",
"                                                                                                                                                                                                                                                                                                                                                                                                                                                                                                                                ",
"                                                                                                                                                                                                                                                                                                                                                                                                                                                                                                                                ",
"                                                                                                                                                                                                                                                                                                                                                                                                                                                                                                                                ",
"                                                                                                                                                                                                                                                                                                                                                                                                                                                                                                                                ",
"                                                                                                                                                                                                                                                                                                                                                                                                                                                                                                                                ",
"                                                                                                                                                                                                                                                                                                                                                                                                                                                                                                                                ",
"                                                                                                                                                                                                                                                                                                                                                                                                                                                                                                                                ",
"                                                                                                                                                                                                                                                                                                                                                                                                                                                                                                                                ",
"                                                                                                                                                                                                                                                                                                                                                                                                                                                                                                                                ",
"                                                                                                                                                                                                                                                                                                                                                                                                                                                                                                                                ",
"                                                                                                                                                                                                                                                                                                                                                                                                                                                                                                                                ",
"                                                                                                                                                                                                                                                                                                                                                                                                                                                                                                                                ",
"                                                                                                                                                                                                                                                                                                                                                                                                                                                                                                                                ",
"                                                                                                                                                                                                                                                                                                                                                                                                                                                                                                                                ",
"                                                                                                                                                                                                                                                                                                                                                                                                                                                                                                                                ",
"                                                                                                                                                                                                                                                                                                                                                                                                                                                                                                                                ",
"                                                                                                                                                                                                                                                                                                                                                                                                                                                                                                                                ",
"                                                                                                                                                                                                                                                                                                                                                                                                                                                                                                                                ",
"                                                                                                                                                                                                                                                                                                                                                                                                                                                                                                                                ",
"                                                                                                                                                                                                                                                                                                                                                                                                                                                                                                                                ",
"                                                                                                                                                                                                                                                                                                                                                                                                                                                                                                                                ",
"                                                                                                                                                                                                                                                                                                                                                                                                                                                                                                                                ",
"                                                                                                                                                                                                                                                                                                                                                                                                                                                                                                                                ",
"                                                                                                                                                                                                                                                                                                                                                                                                                                                                                                                                ",
"                                                                                                                                                                                                                                                                                                                                                                                                                                                                                                                                ",
"                                                                                                                                                                                                                                                                                                                                                                                                                                                                                                                                ",
"                                                                                                                                                                                                                                                                                                                                                                                                                                                                                                                                ",
"                                                                                                                                                                                                                                                                                                                                                                                                                                                                                                                                ",
"                                                                                                                                                                                                                                                                                                                                                                                                                                                                                                                                ",
"                                                                                                                                                                                                                                                                                                                                                                                                                                                                                                                                ",
"                                                                                                                                                                                                                                                                                                                                                                                                                                                                                                                                ",
"                                                                                                                                                                                                                                                                                                                                                                                                                                                                                                                                ",
"                                                                                                                                                                                                                                                                                                                                                                                                                                                                                                                                ",
"                                                                                                                                                                                                                                                                                                                                                                                                                                                                                                                                ",
"                                                                                                                                                                                                                                                                                                                                                                                                                                                                                                                                ",
"                                                                                                                                                                                                                                                                                                                                                                                                                                                                                                                                ",
"                                                                                                                                                                                                                                                                                                                                                                                                                                                                                                                                ",
"                                                                                                                                                                                                                                                                                                                                                                                                                                                                                                                                ",
"                                                                                                                                                                                                                                                                                                                                                                                                                                                                                                                                ",
"                                                                                                                                                                                                                                                                                                                                                                                                                                                                                                                                ",
"                                                                                                                                                                                                                                                                                                                                                                                                                                                                                                                                ",
"                                                                                                                                                                                                                                                                                                                                                                                                                                                                                                                                ",
"                                                                                                                                                                                                                                                                                                                                                                                                                                                                                                                                ",
"                                                                                                                                                                                                                                                                                                                                                                                                                                                                                                                                ",
"                                                                                                                                                                                                                                                                                                                                                                                                                                                                                                                                ",
"                                                                                                                                                                                                                                                                                                                                                                                                                                                                                                                                ",
"                                                                                                                                                                                                                                                                                                                                                                                                                                                                                                                                ",
"                                                                                                                                                                                                                                                                                                                                                                                                                                                                                                                                ",
"                                                                                                                                                                                                                                                                                                                                                                                                                                                                                                                                ",
"                                                                                                                                                                                                                                                                                                                                                                                                                                                                                                                                ",
"                                                                                                                                                                                                                                                                                                                                                                                                                                                                                                                                ",
"                                                                                                                                                                                                                                                                                                                                                                                                                                                                                                                                ",
"                                                                                                                                                                                                                                                                                                                                                                                                                                                                                                                                ",
"                                                                                                                                                                                                                                                                                                                                                                                                                                                                                                                                ",
"                                                                                                                                                                                                                                                                                                                                                                                                                                                                                                                                ",
"                                                                                                                                                                                                                                                                                                                                                                                                                                                                                                                                ",
"                                                                                                                                                                                                                                                                                                                                                                                                                                                                                                                                ",
"                                                                                                                                                                                                                                                                                                                                                                                                                                                                                                                                ",
"                                                                                                                                                                                                                                                                                                                                                                                                                                                                                                                                ",
"                                                                                                                                                                                                                                                                                                                                                                                                                                                                                                                                ",
"                                                                                                                                                                                                                                                                                                                                                                                                                                                                                                                                ",
"                                                                                                                                                                                                                                                                                                                                                                                                                                                                                                                                ",
"                                                                                                                                                                                                                                                                                                                                                                                                                                                                                                                                ",
"                                                                                                                                                                                                                                                                                                                                                                                                                                                                                                                                ",
"                                                                                                                                                                                                                                                                                                                                                                                                                                                                                                                                "};
