/* XPM */
static char * moleDown[] = {
"256 256 700 2",
"  	c #adb27b",
". 	c #070503",
"+ 	c #090604",
"@ 	c #070403",
"# 	c #040202",
"$ 	c #030201",
"% 	c #1E140F",
"& 	c #251710",
"* 	c #36231A",
"= 	c #473228",
"- 	c #452F25",
"; 	c #422B21",
"> 	c #402A20",
", 	c #462F25",
"' 	c #442F25",
") 	c #321F17",
"! 	c #261610",
"~ 	c #221611",
"{ 	c #211510",
"] 	c #301F18",
"^ 	c #412D24",
"/ 	c #452E24",
"( 	c #543D31",
"_ 	c #563E33",
": 	c #533B30",
"< 	c #4C362A",
"[ 	c #442F26",
"} 	c #352219",
"| 	c #281912",
"1 	c #1D130E",
"2 	c #271B15",
"3 	c #38261D",
"4 	c #4B3429",
"5 	c #4F372C",
"6 	c #543B2F",
"7 	c #583F33",
"8 	c #573D32",
"9 	c #573D31",
"0 	c #583E33",
"a 	c #573E32",
"b 	c #594034",
"c 	c #563D31",
"d 	c #51382C",
"e 	c #3D2A21",
"f 	c #2C1E17",
"g 	c #1E1511",
"h 	c #2F1F18",
"i 	c #493329",
"j 	c #51392D",
"k 	c #593F33",
"l 	c #583E32",
"m 	c #573E31",
"n 	c #583F32",
"o 	c #543C2F",
"p 	c #4F372B",
"q 	c #4A3228",
"r 	c #37251D",
"s 	c #251812",
"t 	c #060302",
"u 	c #020101",
"v 	c #070402",
"w 	c #251914",
"x 	c #170906",
"y 	c #241812",
"z 	c #221610",
"A 	c #1A0E09",
"B 	c #1A110D",
"C 	c #050302",
"D 	c #140D09",
"E 	c #2F1E17",
"F 	c #4D362C",
"G 	c #533B2F",
"H 	c #583D31",
"I 	c #583D32",
"J 	c #593E32",
"K 	c #593E33",
"L 	c #50382C",
"M 	c #51382D",
"N 	c #573C31",
"O 	c #523A2E",
"P 	c #4D352A",
"Q 	c #473127",
"R 	c #50382D",
"S 	c #553C30",
"T 	c #553B30",
"U 	c #533A2F",
"V 	c #4E372B",
"W 	c #4F382D",
"X 	c #3B281F",
"Y 	c #291A14",
"Z 	c #261811",
"` 	c #21130C",
" .	c #1D0E08",
"..	c #271811",
"+.	c #291D17",
"@.	c #050201",
"#.	c #140C09",
"$.	c #2E201A",
"%.	c #5B3F33",
"&.	c #694A3B",
"*.	c #715040",
"=.	c #745242",
"-.	c #775343",
";.	c #775443",
">.	c #765443",
",.	c #71503F",
"'.	c #67493A",
").	c #67483A",
"!.	c #735141",
"~.	c #785444",
"{.	c #7C5846",
"].	c #7D5946",
"^.	c #7B5745",
"/.	c #785543",
"(.	c #745241",
"_.	c #6F4E3E",
":.	c #624537",
"<.	c #563C30",
"[.	c #563D32",
"}.	c #513A2E",
"|.	c #4E362B",
"1.	c #4D372B",
"2.	c #402C23",
"3.	c #2D1E16",
"4.	c #221711",
"5.	c #010101",
"6.	c #070302",
"7.	c #281D16",
"8.	c #22130C",
"9.	c #2A1D17",
"0.	c #32231B",
"a.	c #302018",
"b.	c #2E1C15",
"c.	c #301E17",
"d.	c #332118",
"e.	c #39271E",
"f.	c #50382E",
"g.	c #5E4235",
"h.	c #725040",
"i.	c #815B49",
"j.	c #855F4C",
"k.	c #825C4A",
"l.	c #815B4A",
"m.	c #835D4A",
"n.	c #865F4C",
"o.	c #805A48",
"p.	c #69493B",
"q.	c #543A30",
"r.	c #543B30",
"s.	c #5E4135",
"t.	c #725140",
"u.	c #835C4A",
"v.	c #835D4B",
"w.	c #805B49",
"x.	c #845D4B",
"y.	c #7B5645",
"z.	c #6E4D3D",
"A.	c #5A3E32",
"B.	c #593E31",
"C.	c #5F4236",
"D.	c #604336",
"E.	c #573D30",
"F.	c #583E31",
"G.	c #52392E",
"H.	c #50372C",
"I.	c #38251D",
"J.	c #20140E",
"K.	c #221712",
"L.	c #312019",
"M.	c #453027",
"N.	c #50372D",
"O.	c #573F32",
"P.	c #573E33",
"Q.	c #68493B",
"R.	c #855E4B",
"S.	c #815C49",
"T.	c #825B4A",
"U.	c #815C4A",
"V.	c #845E4B",
"W.	c #7C5746",
"X.	c #755242",
"Y.	c #7E5947",
"Z.	c #855E4C",
"`.	c #785443",
" +	c #6B4C3C",
".+	c #5C4033",
"++	c #553B2F",
"@+	c #543A2F",
"#+	c #573C30",
"$+	c #452F26",
"%+	c #281C17",
"&+	c #1E1612",
"*+	c #130C08",
"=+	c #2F2018",
"-+	c #4A342A",
";+	c #51392E",
">+	c #563C31",
",+	c #6D4C3D",
"'+	c #805B4A",
")+	c #805C4A",
"!+	c #845D4C",
"~+	c #815B48",
"{+	c #7B5746",
"]+	c #6A4A3B",
"^+	c #4F372D",
"/+	c #463127",
"(+	c #34221A",
"_+	c #241711",
":+	c #040201",
"<+	c #2D2019",
"[+	c #4E372C",
"}+	c #543A2E",
"|+	c #654839",
"1+	c #654738",
"2+	c #644738",
"3+	c #865F4B",
"4+	c #7C5845",
"5+	c #6D4D3D",
"6+	c #4D362A",
"7+	c #38271E",
"8+	c #150D0A",
"9+	c #432E24",
"0+	c #563D30",
"a+	c #634538",
"b+	c #865F4D",
"c+	c #845E4C",
"d+	c #835C4B",
"e+	c #825C4B",
"f+	c #7A5645",
"g+	c #573B30",
"h+	c #553A2F",
"i+	c #35231B",
"j+	c #090504",
"k+	c #010100",
"l+	c #281E19",
"m+	c #1E130E",
"n+	c #33221B",
"o+	c #593F32",
"p+	c #714F3F",
"q+	c #815C4B",
"r+	c #825C49",
"s+	c #875F4C",
"t+	c #704E3F",
"u+	c #614436",
"v+	c #443026",
"w+	c #0C0604",
"x+	c #1F140F",
"y+	c #2D1C15",
"z+	c #3A271E",
"A+	c #4F362B",
"B+	c #6C4C3D",
"C+	c #825D4A",
"D+	c #87604D",
"E+	c #7F5A48",
"F+	c #795544",
"G+	c #765342",
"H+	c #745142",
"I+	c #745141",
"J+	c #735140",
"K+	c #735040",
"L+	c #755241",
"M+	c #805A49",
"N+	c #865E4C",
"O+	c #875F4D",
"P+	c #493228",
"Q+	c #140C08",
"R+	c #170F0B",
"S+	c #2D1D15",
"T+	c #4B352B",
"U+	c #68493A",
"V+	c #52392D",
"W+	c #533A2E",
"X+	c #563C2F",
"Y+	c #553C2F",
"Z+	c #543B2E",
"`+	c #664739",
" @	c #7E5948",
".@	c #412E23",
"+@	c #36231B",
"@@	c #54392E",
"#@	c #654638",
"$@	c #6C4B3C",
"%@	c #5B4033",
"&@	c #533A2D",
"*@	c #563B2F",
"=@	c #563D2F",
"-@	c #53392D",
";@	c #6B4B3C",
">@	c #745140",
",@	c #6D4C3C",
"'@	c #2E1F18",
")@	c #1F130E",
"!@	c #5A3E31",
"~@	c #6A4B3C",
"{@	c #795545",
"]@	c #845D4A",
"^@	c #825B49",
"/@	c #5F4235",
"(@	c #6B4A3B",
"_@	c #805B48",
":@	c #614537",
"<@	c #4B342A",
"[@	c #0E0907",
"}@	c #2B1D17",
"|@	c #6E4D3E",
"1@	c #5D4133",
"2@	c #543C2E",
"3@	c #593F31",
"4@	c #704E3E",
"5@	c #7D5846",
"6@	c #865E4B",
"7@	c #7E5847",
"8@	c #3C2B23",
"9@	c #2F211B",
"0@	c #50392E",
"a@	c #6C4C3C",
"b@	c #765343",
"c@	c #51392C",
"d@	c #170E0A",
"e@	c #1D130F",
"f@	c #4C352A",
"g@	c #7B5545",
"h@	c #634637",
"i@	c #7A5644",
"j@	c #2A1B15",
"k@	c #402C22",
"l@	c #594033",
"m@	c #7F5948",
"n@	c #644638",
"o@	c #553D2F",
"p@	c #5E4234",
"q@	c #573C32",
"r@	c #553C31",
"s@	c #34241C",
"t@	c #302019",
"u@	c #725141",
"v@	c #815B4B",
"w@	c #69493A",
"x@	c #291B14",
"y@	c #100A06",
"z@	c #4D362B",
"A@	c #5F4335",
"B@	c #5A3F32",
"C@	c #32211A",
"D@	c #765242",
"E@	c #422D23",
"F@	c #19100B",
"G@	c #805C49",
"H@	c #7F5947",
"I@	c #281C16",
"J@	c #322119",
"K@	c #583D30",
"L@	c #573C2F",
"M@	c #553B2E",
"N@	c #463126",
"O@	c #100A07",
"P@	c #6E4C3D",
"Q@	c #533B2E",
"R@	c #31211A",
"S@	c #553D30",
"T@	c #5C4134",
"U@	c #38261E",
"V@	c #33221C",
"W@	c #4C352B",
"X@	c #110906",
"Y@	c #312018",
"Z@	c #624436",
"`@	c #201511",
" #	c #261913",
".#	c #815A49",
"+#	c #7E5846",
"@#	c #2D1F19",
"##	c #523A2F",
"$#	c #644639",
"%#	c #704F3F",
"&#	c #4B352A",
"*#	c #19100C",
"=#	c #180F0A",
"-#	c #4C352C",
";#	c #6E4E3E",
">#	c #664738",
",#	c #37251C",
"'#	c #211610",
")#	c #5A4034",
"!#	c #7D5847",
"~#	c #7C5645",
"{#	c #3F2B22",
"]#	c #120A07",
"^#	c #180F0B",
"/#	c #5B4032",
"(#	c #573D2F",
"_#	c #674739",
":#	c #483228",
"<#	c #4C362B",
"[#	c #040302",
"}#	c #2C1E18",
"|#	c #5A4033",
"1#	c #150E0B",
"2#	c #281B14",
"3#	c #38251C",
"4#	c #604234",
"5#	c #3E2B22",
"6#	c #130C09",
"7#	c #2B1D16",
"8#	c #4D342A",
"9#	c #855D4B",
"0#	c #6B4B3B",
"a#	c #7E5946",
"b#	c #3A2820",
"c#	c #100A08",
"d#	c #2D1E17",
"e#	c #7D5746",
"f#	c #664638",
"g#	c #020100",
"h#	c #37241B",
"i#	c #553D31",
"j#	c #7C5847",
"k#	c #855D4C",
"l#	c #845C4A",
"m#	c #835C49",
"n#	c #604335",
"o#	c #4A3429",
"p#	c #130B08",
"q#	c #36241D",
"r#	c #563B30",
"s#	c #604235",
"t#	c #281A13",
"u#	c #010000",
"v#	c #1C120D",
"w#	c #73503F",
"x#	c #553A2E",
"y#	c #553D32",
"z#	c #2B1C15",
"A#	c #32221A",
"B#	c #5D4032",
"C#	c #7D5747",
"D#	c #68483A",
"E#	c #553A30",
"F#	c #453026",
"G#	c #5C4032",
"H#	c #1B130F",
"I#	c #31221B",
"J#	c #795645",
"K#	c #5F4234",
"L#	c #593D30",
"M#	c #563B2E",
"N#	c #4E372D",
"O#	c #241813",
"P#	c #33221A",
"Q#	c #563E31",
"R#	c #694A3A",
"S#	c #825A49",
"T#	c #755341",
"U#	c #170B06",
"V#	c #422D24",
"W#	c #50372B",
"X#	c #4E362A",
"Y#	c #795443",
"Z#	c #795543",
"`#	c #553C2E",
" $	c #775342",
".$	c #533A30",
"+$	c #190D09",
"@$	c #2E211A",
"#$	c #634537",
"$$	c #815A48",
"%$	c #755342",
"&$	c #825A4A",
"*$	c #835B4A",
"=$	c #18100C",
"-$	c #7B5646",
";$	c #5B3F31",
">$	c #5E4133",
",$	c #654637",
"'$	c #5B3F32",
")$	c #704F3E",
"!$	c #735041",
"~$	c #4E362C",
"{$	c #261C17",
"]$	c #33241D",
"^$	c #5C4034",
"/$	c #7E5A48",
"($	c #835E4B",
"_$	c #72503F",
":$	c #805948",
"<$	c #0D0806",
"[$	c #402D24",
"}$	c #684839",
"|$	c #6B4A3C",
"1$	c #3B2A22",
"2$	c #815D4A",
"3$	c #35241D",
"4$	c #201712",
"5$	c #67493B",
"6$	c #684A3B",
"7$	c #5E4334",
"8$	c #654739",
"9$	c #6B4C3D",
"0$	c #4C342A",
"a$	c #2E1F19",
"b$	c #271913",
"c$	c #251813",
"d$	c #483229",
"e$	c #513A2F",
"f$	c #4E3529",
"g$	c #432C23",
"h$	c #473025",
"i$	c #583E30",
"j$	c #422D25",
"k$	c #35231A",
"l$	c #3B281E",
"m$	c #311E15",
"n$	c #37261E",
"o$	c #281811",
"p$	c #211712",
"q$	c #150D09",
"r$	c #442D24",
"s$	c #37231B",
"t$	c #463025",
"u$	c #412A1E",
"v$	c #442E22",
"w$	c #3E2920",
"x$	c #34231B",
"y$	c #1B120D",
"z$	c #251712",
"A$	c #37241C",
"B$	c #3A2A21",
"C$	c #825D4B",
"D$	c #36241C",
"E$	c #37251E",
"F$	c #51382E",
"G$	c #6A4A3C",
"H$	c #53392E",
"I$	c #432E25",
"J$	c #2D1911",
"K$	c #2D1B11",
"L$	c #3C291F",
"M$	c #50362B",
"N$	c #50362A",
"O$	c #815D4B",
"P$	c #3F2920",
"Q$	c #4D352B",
"R$	c #30211A",
"S$	c #180A07",
"T$	c #21110C",
"U$	c #1C130F",
"V$	c #1A110C",
"W$	c #392922",
"X$	c #3B2820",
"Y$	c #080503",
"Z$	c #3B2920",
"`$	c #2D201A",
" %	c #563B31",
".%	c #66483A",
"+%	c #6F4E3F",
"@%	c #2F2019",
"#%	c #1C120E",
"$%	c #624437",
"%%	c #2B1F1A",
"&%	c #4A332A",
"*%	c #6F4D3E",
"=%	c #0A0504",
"-%	c #080403",
";%	c #503A30",
">%	c #7A5646",
",%	c #2A1C16",
"'%	c #825B4B",
")%	c #5C4133",
"!%	c #735242",
"~%	c #33231C",
"{%	c #412E25",
"]%	c #624538",
"^%	c #453128",
"/%	c #180E0A",
"(%	c #4C3429",
"_%	c #3E291F",
":%	c #39271F",
"<%	c #251913",
"[%	c #2E1C14",
"}%	c #3D2921",
"|%	c #332018",
"1%	c #36251E",
"2%	c #251711",
"3%	c #030101",
"4%	c #3A2821",
"5%	c #87604E",
"6%	c #775544",
"7%	c #2E1E17",
"8%	c #35251E",
"9%	c #573E30",
"0%	c #36251F",
"a%	c #2C1D16",
"b%	c #593D31",
"c%	c #845C4B",
"d%	c #442E23",
"e%	c #1B110D",
"f%	c #322018",
"g%	c #412C21",
"h%	c #402B21",
"i%	c #412B21",
"j%	c #473126",
"k%	c #362219",
"l%	c #422E24",
"m%	c #4F382C",
"n%	c #3E2A22",
"o%	c #624536",
"p%	c #472F25",
"q%	c #4B3328",
"r%	c #4E352A",
"s%	c #4B3329",
"t%	c #1D0F09",
"u%	c #1A0E0A",
"v%	c #231814",
"w%	c #0F0A07",
"x%	c #231712",
"y%	c #664839",
"z%	c #271A14",
"A%	c #23140E",
"B%	c #2D1910",
"C%	c #2F1B11",
"D%	c #050202",
"E%	c #271914",
"F%	c #311F17",
"G%	c #3D281F",
"H%	c #3C271E",
"I%	c #301D15",
"J%	c #21130D",
"K%	c #251A16",
"L%	c #0B0604",
"M%	c #5A3F33",
"N%	c #7F5A49",
"O%	c #39281F",
"P%	c #3D2C25",
"Q%	c #30201A",
"R%	c #231611",
"S%	c #21150F",
"T%	c #301E16",
"U%	c #3C281F",
"V%	c #3F2A21",
"W%	c #2D1A11",
"X%	c #412C22",
"Y%	c #140C07",
"Z%	c #160D09",
"`%	c #795644",
" &	c #86604C",
".&	c #31221A",
"+&	c #775444",
"@&	c #785544",
"#&	c #583C31",
"$&	c #3B271E",
"%&	c #463128",
"&&	c #332119",
"*&	c #261914",
"=&	c #160D08",
"-&	c #3D2A20",
";&	c #4F362A",
">&	c #2F1F19",
",&	c #0F0906",
"'&	c #150B07",
")&	c #291C15",
"!&	c #3D291F",
"~&	c #160E0A",
"{&	c #2F1F17",
"]&	c #301D13",
"^&	c #321F16",
"/&	c #3F291F",
"(&	c #372319",
"_&	c #2C1910",
":&	c #291B15",
"<&	c #1C110C",
"[&	c #5B4135",
"}&	c #1C140F",
"|&	c #281A14",
"1&	c #432D22",
"2&	c #442D23",
"3&	c #32211B",
"4&	c #070303",
"5&	c #614437",
"6&	c #704F40",
"7&	c #4E382D",
"8&	c #060303",
"9&	c #060403",
"0&	c #2B1C16",
"a&	c #855F4D",
"b&	c #2C1D18",
"c&	c #291810",
"d&	c #6D4D3E",
"e&	c #291911",
"f&	c #5D4134",
"g&	c #724F41",
"h&	c #4F362C",
"i&	c #1C1310",
"j&	c #3A271F",
"k&	c #5A3E33",
"l&	c #32221C",
"m&	c #0C0705",
"n&	c #39261E",
"o&	c #5B4034",
"p&	c #4A3328",
"q&	c #1B120E",
"                                                                                                                                                                                                                                                                                                                                                                                                                                                                                                                                ",
"                                                                                                                                                                                                                                                                                                                                                                                                                                                                                                                                ",
"                                                                                                                                                                                                                                                                                                                                                                                                                                                                                                                                ",
"                                                                                                                                                                                                                                                                                                                                                                                                                                                                                                                                ",
"                                                                                                                                                                                                                                                                                                                                                                                                                                                                                                                                ",
"                                                                                                                                                                                                                                                                                                                                                                                                                                                                                                                                ",
"                                                                                                                                                                                                                                                                                                                                                                                                                                                                                                                                ",
"                                                                                                                                                                                                                                                                                                                                                                                                                                                                                                                                ",
"                                                                                                                                                                                                                                                                                                                                                                                                                                                                                                                                ",
"                                                                                                                                                                                                                                                                                                                                                                                                                                                                                                                                ",
"                                                                                                                                                                                                                                                                                                                                                                                                                                                                                                                                ",
"                                                                                                                                                                                                                                                                                                                                                                                                                                                                                                                                ",
"                                                                                                                                                                                                                                                                                                                                                                                                                                                                                                                                ",
"                                                                                                                                                                                                                                                                                                                                                                                                                                                                                                                                ",
"                                                                                                                                                                                                                                                                                                                                                                                                                                                                                                                                ",
"                                                                                                                                                                                                                                                                                                                                                                                                                                                                                                                                ",
"                                                                                                                                                                                                                                                                                                                                                                                                                                                                                                                                ",
"                                                                                                                                                                                                                                                                                                                                                                                                                                                                                                                                ",
"                                                                                                                                                                                                                                                                                                                                                                                                                                                                                                                                ",
"                                                                                                                                                                                                                                                                                                                                                                                                                                                                                                                                ",
"                                                                                                                                                                                                                                                                                                                                                                                                                                                                                                                                ",
"                                                                                                                                                                                                                                                                                                                                                                                                                                                                                                                                ",
"                                                                                                                                                                                                                                                                                                                                                                                                                                                                                                                                ",
"                                                                                                                                                                                                                                                                                                                                                                                                                                                                                                                                ",
"                                                                                                                                                                                                                                                                                                                                                                                                                                                                                                                                ",
"                                                                                                                                                                                                                                                                                                                                                                                                                                                                                                                                ",
"                                                                                                                                                                                                                                                                                                                                                                                                                                                                                                                                ",
"                                                                                                                                                                                                                                                                                                                                                                                                                                                                                                                                ",
"                                                                                                                                                                                                                                                                                                                                                                                                                                                                                                                                ",
"                                                                                                                                                                                                                                                                                                                                                                                                                                                                                                                                ",
"                                                                                                                                                                                                                                                                                                                                                                                                                                                                                                                                ",
"                                                                                                                                                                                                                                                                                                                                                                                                                                                                                                                                ",
"                                                                                                                                                                                                                                                                                                                                                                                                                                                                                                                                ",
"                                                                                                                                                                                                                                                                                                                                                                                                                                                                                                                                ",
"                                                                                                                                                                                                                                                                                                                                                                                                                                                                                                                                ",
"                                                                                                                                                                                                                                                                                                                                                                                                                                                                                                                                ",
"                                                                                                                                                                                                                                                                                                                                                                                                                                                                                                                                ",
"                                                                                                                                                                                                                                                                                                                                                                                                                                                                                                                                ",
"                                                                                                                                                                                                                                                                                                                                                                                                                                                                                                                                ",
"                                                                                                                                                                                                                                                                                                                                                                                                                                                                                                                                ",
"                                                                                                                                                                                                                                                                                                                                                                                                                                                                                                                                ",
"                                                                                                                                                                                                                                                                                                                                                                                                                                                                                                                                ",
"                                                                                                                                                                                                                                                                                                                                                                                                                                                                                                                                ",
"                                                                                                                                                                                                                                                                                                                                                                                                                                                                                                                                ",
"                                                                                                                                                                                                                                                                                                                                                                                                                                                                                                                                ",
"                                                                                                                                                                                                                                                                                                                                                                                                                                                                                                                                ",
"                                                                                                                                                                                                                                                                                                                                                                                                                                                                                                                                ",
"                                                                                                                                                                                                                                                                                                                                                                                                                                                                                                                                ",
"                                                                                                                                                                                                                                                                                                                                                                                                                                                                                                                                ",
"                                                                                                                                                                                                                                                                                                                                                                                                                                                                                                                                ",
"                                                                                                                                                                                                                                                                                                                                                                                                                                                                                                                                ",
"                                                                                                                                                                                                                                                                                                                                                                                                                                                                                                                                ",
"                                                                                                                                                                                                                                                                                                                                                                                                                                                                                                                                ",
"                                                                                                                                                                                                                                                                                                                                                                                                                                                                                                                                ",
"                                                                                                                                                                                                                                                                                                                                                                                                                                                                                                                                ",
"                                                                                                                                                                                                                                                                                                                                                                                                                                                                                                                                ",
"                                                                                                                                                                                                                                                                                                                                                                                                                                                                                                                                ",
"                                                                                                                                                                                                                                                                                                                                                                                                                                                                                                                                ",
"                                                                                                                                                                                                                                                                                                                                                                                                                                                                                                                                ",
"                                                                                                                                                                                                                                                                                                                                                                                                                                                                                                                                ",
"                                                                                                                                                                                                                                                                                                                                                                                                                                                                                                                                ",
"                                                                                                                                                                                                                                                                                                                                                                                                                                                                                                                                ",
"                                                                                                                                                                                                                                                                                                                                                                                                                                                                                                                                ",
"                                                                                                                                                                                                                                                                                                                                                                                                                                                                                                                                ",
"                                                                                                                                                                                                                                                                                                                                                                                                                                                                                                                                ",
"                                                                                                                                                                                                                                                                                                                                                                                                                                                                                                                                ",
"                                                                                                                                                                                                                                                                                                                                                                                                                                                                                                                                ",
"                                                                                                                                                                                                                                                                                                                                                                                                                                                                                                                                ",
"                                                                                                                                                                                                                                                                                                                                                                                                                                                                                                                                ",
"                                                                                                                                                                                                                                                                                                                                                                                                                                                                                                                                ",
"                                                                                                                                                                                                                                                                                                                                                                                                                                                                                                                                ",
"                                                                                                                                                                                                                                                                                                                                                                                                                                                                                                                                ",
"                                                                                                                                                                                                                                                                                                                                                                                                                                                                                                                                ",
"                                                                                                                                                                                                                                                                                                                                                                                                                                                                                                                                ",
"                                                                                                                                                                                                                                                                                                                                                                                                                                                                                                                                ",
"                                                                                                                                                                                                                                                                                                                                                                                                                                                                                                                                ",
"                                                                                                                                                                                                                                                                                                                                                                                                                                                                                                                                ",
"                                                                                                                                                                                                                                                                                                                                                                                                                                                                                                                                ",
"                                                                                                                                                                                                                                                                                                                                                                                                                                                                                                                                ",
"                                                                                                                                                                                                                                                                                                                                                                                                                                                                                                                                ",
"                                                                                                                                                                                                                                                                                                                                                                                                                                                                                                                                ",
"                                                                                                                                                                                                                                                                                                                                                                                                                                                                                                                                ",
"                                                                                                                                                                                                                                                                                                                                                                                                                                                                                                                                ",
"                                                                                                                                                                                                                                                                                                                                                                                                                                                                                                                                ",
"                                                                                                                                                                                                                                                                                                                                                                                                                                                                                                                                ",
"                                                                                                                                                                                                                                                                                                                                                                                                                                                                                                                                ",
"                                                                                                                                                                                                                                                                                                                                                                                                                                                                                                                                ",
"                                                                                                                                                                                                                                                                                                                                                                                                                                                                                                                                ",
"                                                                                                                                                                                                                                                                                                                                                                                                                                                                                                                                ",
"                                                                                                                                                                                                                                                                                                                                                                                                                                                                                                                                ",
"                                                                                                                                                                                                                                                                                                                                                                                                                                                                                                                                ",
"                                                                                                                                                                                                                                                                                                                                                                                                                                                                                                                                ",
"                                                                                                                                                                                                                                                                                                                                                                                                                                                                                                                                ",
"                                                                                                                                                                                                                                                                                                                                                                                                                                                                                                                                ",
"                                                                                                                                                                                                                                                                                                                                                                                                                                                                                                                                ",
"                                                                                                                                                                                                                                                                                                                                                                                                                                                                                                                                ",
"                                                                                                                                                                                                                                                                                                                                                                                                                                                                                                                                ",
"                                                                                                                                                                                                                                                                        . + @ #                                                                                                                                                                                                                                                 ",
"                                                                                                                                                                                                                      $ % & * = - ; > > , ' ) ! ~ #           $ { ] ^ / ( _ : < ; [ } | 1 $                                                                                                                                                                                                                                     ",
"                                                                                                                                                                                                                # 2 3 4 5 6 7 7 8 9 0 0 a 7 b c d 5 e f g ~ h i j 9 k l a m c m 9 a n o p q r s t u v w x y z A B C                                                                                                                                                                                                             ",
"                                                                                                                                                                                                            D E F G k 9 H I l J J J J K l J l l l l k c L M 8 I H H J I H N N H l l 9 9 8 I k O P Q j R G S T U V W X Y Z `  ...+.@.#                                                                                                                                                                                           ",
"                                                                                                                                                                                                        #.$.W b 0 m 9 I S %.&.*.=.-.;.>.=.,.'.9 T l 9 l l K 9 9 T ).!.~.{.].^./.(._.:.6 <.H 9 9 c <.8 9 9 9 8 9 [.8 l S 6 U G }.L |.1.2.3.4.#                                                                                                                                                                                   ",
"                                                                                                                                                                                  5.6.7.8.9.0.a.b.c.d.e.f.l I I I 9 g.h.i.j.k.i.i.i.l.l.i.i.m.n.o.(.p.J q.r.s.t.u.v.l.l.l.i.w.w.i.i.m.x.y.z.A.N H H T r.B.C.D.J T H E.9 9 9 9 9 9 9 9 H F.G.H.I.J.u                                                                                                                                                                             ",
"                                                                                                                                                                            C K.L.M.U N.O : a O.8 8 [.P.n l m S Q.{.R.i.S.T.U.S.U.S.U.U.w.l.l.l.i.l.k.n.v.u.V.i.i.w.l.l.U.i.w.l.U.l.i.i.i.i.j.W.(.X.Y.Z.n.V.V.n.m.`. +D..+H ++@+6 #+9 E.9 9 F.k G $+| %+&+t t                                                                                                                                                                   ",
"                                                                                                                                                                        *+=+-+;+K l 9 9 9 8 9 9 9 >+9 9 H <.,+i.v.U.U.U.U.l.l.U.U.U.U.l.U.U.U.l.U.'+l.l.'+l.'+U.i.l.l.l.l.l.i.'+w.w.'+w.l.l.i.l.w.l.l.l.l.l.'+w.i.)+i.x.!+j.Z.x.~+{+!.]+H #+9 9 9 F.<.L P ^+f./+(+_+:+                                                                                                                                                          ",
"                                                                                                                                                                    :+<+[+7 8 9 c 9 S }+l :.|+).1+1+2+&.!.m.S.l.U.U.U.U.U.U.U.U.U.l.U.l.U.U.U.l.'+U.w.l.'+l.'+'+l.i.)+U.l.'+w.'+w.w.w.'+w.l.'+i.w.i.'+l.U.l.'+l.l.i.w.i.i.l.w.l.w.i.w.i.3+4+5+A.<.9 8 F.a a c a k 6 6+7+8+                                                                                                                                                      ",
"                                                                                                                                                                  B 9+0+a H 9 T a+h.W.x.b+c+v.d+k.v.e+U.U.U.U.U.U.U.U.U.U.U.U.U.l.)+l.'+l.l.l.i.l.'+w.w.w.w.w.w.w.w.l.i.l.w.i.'+l.i.'+w.'+i.w.l.l.i.l.l.S.'+l.i.S.U.U.l.U.U.U.l.i.i.l.l.S.S.i.R.f+]+g+@+}+h+9 H 9 9 8 8 M i+j+                                                                                                                                                  ",
"                                                                                                                                                      k+j+@.l+m+n+[+o+9 9 #+p+u.V.k.U.l.U.U.l.T.T.l.l.l.U.U.l.q+U.U.U.l.U.U.U.U.'+l.w.w.'+l.w.'+'+l.w.w.w.i.w.w.w.w.i.i.'+l.w.l.i.i.l.l.w.'+'+l.l.l.l.l.U.U.l.l.l.U.U.l.U.U.U.l.S.l.U.l.i.l.l.i.i.r+n.s+R.~+~.t+u+}+9 9 l l v+w+                                                                                                                                                ",
"                                                                                                                                              $ x+y+z+- P.A+R U H l 9 <.B+V.k.k.e+q+U.U.k.U.U.U.U.U.l.U.U.U.l.l.U.U.k.U.U.k.l.'+l.C+V.D+D+Z.k.E+{.F+G+H+I+J+I+I+K+J+L+X.L+L+G+`.f+W.Y.M+x.N+O+n.k.i.k.U.k.l.l.'+l.i.U.S.U.U.l.U.k.U.U.S.l.U.U.U.l.U.U.U.U.l.l.l.V.k.*.I I I k P+Q+                                                                                                                                              ",
"                                                                                                                                          R+S+T+L E.7 l I l 8 I 8 8 0+F+v.T.l.k.q+e+U.k.q+U.U.U.l.l.l.l.U.l.'+l.'+l.U.Z.R.E+f+(.5+U+D.<.O V+j W+6 S S X+X+Y+X+X+Y+X+Y+<.X+X+<.Y+++Z+W+G.V+V+V+o+`+z.!.F+ @x.Z.i.w.i.U.U.U.U.l.U.i.l.U.S.S.U.l.U.U.U.l.U.i.U.w.'+l.l.w.k.'.c l o+.@$                                                                                                                                             ",
"                                                                                                                                      *++@R 8 8 H 9 H H N T @@@+>+#@E+k.U.U.k.U.U.U.U.U.U.U.U.l.U.U.U.l.k.Z.D+m.W.L+$@%@&@W+Y+X+*@Y+<.<.X+<.X+<.0+<.<.X+X+=@X+<.X+X+<.X+X+X+<.X+<.X+<.<.<.X+<.<.X+Y+<.X+&@-@%@;@>@^.x.n.k.U.r+r+r+U.U.l.l.l.l.U.U.l.l.l.l.l.l.l.S.l.i.i.x.,@c 9 T '@                                                                                                                                            ",
"                                                                                                                                    )@-+7 l 9 9 T !@~@!.{@E+u.N+n.]@U.T.U.U.U.T.U.q+l.U.U.l.'+^@V.x.W.!.;@/@6 W+T <.S ++<.<.Y+Y+Y+X+<.<.<.<.X+0+0+<.S <.X+X+S X+Y+X+X+<.X+X+<.<.<.X+0+#+<.<.Y+<.S X+0+X+Y+X+Y+++Y+++j o+(@L+_@n.k.U.l.l.l.l.'+i.'+l.i.'+l.l.l.l.l.l.i.i.i.]@:@9 l <@[@                                                                                                                                          ",
"                                                                                                                                  }@R k 9 9 #+|@Y.j.U.S.l.U.l.k.U.U.U.U.U.U.l.U.U.l.l.l.x.R.F+|@1@&@2@X+<.<.Y+X+<.<.<.#+0+X+X+<.<.<.<.0+=@0+<.0+0+<.0+<.X+X+0+X+0+X+X+X+<.0+<.0+E.0+0+0+<.<.<.0+0+E.0+0+<.<.<.Y+Y+Y+Y+++X+X+&@3@4@5@6@U.l.U.l.l.i.l.U.l.l.U.l.U.U.l.U.i.l.i.7@++9 >+8@R+                                                                                                                                        ",
"                                                                                                                                9@0@0 l S a@m.k.l.U.l.U.U.U.U.T.l.U.U.l.l.U.'+l.l.k.Z.b@#@W+X+X+Y+*@S X+S <.<.<.0+0+0+0+0+=@0+<.X+<.<.<.<.0+<.<.0+0+<.<.<.<.0+=@X+X+<.<.<.0+X+0+<.<.#+0+<.<.<.0+0+<.0+0+0+0+X+<.Y+X+Y+X+Y+X+Y+Y+Y+}+B.4@o.R.w.l.l.U.U.U.l.l.l.l.l.l.i.l.l.l.u.&.E.H a c@r d@                                                                                                                                    ",
"                                                                                                                              e@f@o+l 9 g@v.i.i.U.U.U.U.l.l.l.l.U.U.U.l.l.l.l.V.o.,+6 S <.0+<.X+0+0+0+<.0+0+0+0+0+E.E.E.0+0+<.0+=@0+#+<.#+0+0+0+0+<.0+0+0+0+=@X+0+0+E.0+0+0+<.<.0+0+=@0+=@0+E.<.0+0+<.<.<.<.<.<.X+<.<.X+X+0+X+X+<.<.*@X+}+h@i@Z.l.U.l.l.U.l.l.l.l.l.U.U.l.l.i.v..+9 9 8 k R j@k+                                                                                                                                ",
"                                                                                                                            :+k@l@F.c {.k.i.U.U.k.l.U.q+U.l.U.l.U.U.U.l.l.u.m@n@6 <.S <.0+<.0+0+X+<.<.<.0+<.<.0+0+0+0+0+0+0+<.0+0+0+0+0+0+<.<.0+0+0+0+<.0+<.<.0+o@0+0+<.0+E.0+0+0+0+0+0+<.0+0+0+0+0+0+#+<.0+0+0+<.<.<.<.<.X+0+X+X+X+X+X+<.<.6 p@{+v.l.l.l.l.l.l.l.l.l.w.U.l.w.i.r+,@<.q@9 l r@s@5.                                                                                                                              ",
"                                                                                                                            t@9 m 0+u@k.v@U.l.l.U.U.U.U.l.l.l.l.T.k.T.x.i.B+6 <.<.0+E.0+E.E.<.0+E.0+E.0+0+0+0+0+9 0+E.<.0+0+0+0+0+<.0+<.0+<.<.<.E.0+0+<.<.0+0+0+0+<.0+#+#+0+<.0+<.<.0+0+<.0+0+E.<.E.#+0+0+0+0+0+<.0+<.0+#+0+X+<.#+<.<.<.X+X+Y+X+}+w@m.i.T.l.l.l.l.U.l.l.l.U.l.'+i.U.]@h.9 F.l T x@                                                                                                                              ",
"                                                                                                                          y@z@o+9 :.V.i.l.U.U.U.U.U.q+q+U.U.'+l.l.x.!.A@++#+Y+<.<.0+<.#+0+0+<.0+<.<.0+<.0+0+<.E.0+E.0+0+0+0+0+0+0+0+<.0+0+<.<.0+0+0+<.0+0+0+#+<.X+<.0+#+<.0+<.0+<.0+0+<.0+<.0+0+0+E.0+0+0+<.0+0+<.0+0+0+<.0+<.#+0+0+0+0+0+<.Y+Y+S X+B@7@T.^@i.i.U.l.U.l.l.U.'+l.i.i.w.i.E+%@I l W %                                                                                                                             ",
"                                                                                                                          C@l I T _@U.l.l.'+l.i.l.'+U.U.i.w.i.l.~+.+X+<.X+X+X+<.0+<.0+<.0+<.<.<.#+<.0+<.<.0+<.0+0+0+0+0+=@<.E.0+<.<.<.<.X+<.X+<.0+0+<.<.<.<.<.<.<.0+0+X+#+X+0+<.<.<.=@0+<.<.<.0+0+<.0+X+X+<.S <.X+<.X+<.X+=@<.<.0+X+<.X+X+S <.<.X+<.X+}+D@x.i.i.l.l.i.'+i.i.i.l.i.l.i.w.w. @<.9 o+E@$                                                                                                                           ",
"                                                                                                                        F@-+I H ,+k.U.l.'+l.G@l.'+l.l.U.'+i.w.H@#+<.Y+<.<.<.X+X+0+0+0+E.0+<.<.=@<.E.0+<.0+E.0+0+0+E.0+0+=@<.0+<.0+0+<.0+0+<.<.0+0+0+<.0+X+X+X+0+X+<.<.<.0+<.<.<.0+0+E.0+0+<.0+0+0+0+0+<.X+0+S 0+=@0+<.<.=@0+<.0+0+<.X+<.X+=@X+<.<.<.<.<.++t+u.i.i.l.i.i.l.S.w.l.'+l.w.'+o.i.X.<.9 O I@                                                                                                                          ",
"                                                                                                                        J@0 9 T u.i.l.i.l.U.U.i.'+l.l.l.i.w.u.K@X+<.0+0+L@0+0+0+<.0+0+E.<.0+0+<.#+0+<.0+0+0+0+0+0+0+0+E.<.<.=@0+X+X+X+X+<.0+<.0+0+0+0+<.=@0+=@o@X+0+0+0+0+<.<.X+E.<.0+<.=@0+o@<.0+<.0+0+<.<.X+S <.0+X+<.<.X+0+<.<.0+X+<.X+0+X+X+=@0+<.X+*@M@,.k.i.l.i.l.l.i.w.w.S.l.i.i.i.i.]@A@9 m N@u                                                                                                                         ",
"                                                                                                                      O@f@l H $@k.l.'+'+U.U.l.l.i.i.l.l.i.T.P@X+<.<.0+0+0+0+0+<.<.<.0+0+0+0+X+<.X+0+0+<.0+<.<.0+E.0+0+<.0+0+0+<.<.<.0+<.<.0+0+<.0+0+0+<.<.<.0+<.<.X+=@<.0+0+<.0+0+0+0+0+<.0+0+<.0+0+0+<.<.<.o@<.<.<.<.<.<.<.<.<.=@0+X+<.<.X+0+<.0+0+<.<.X+X+Q@y.i.l.i.i.l.'+w.w.l.l.l.l.i.i.M+f+S 9 5 4.                                                                                                                        ",
"                                                                                                                      R@8 l ++o.l.i.U.)+i.l.l.l.S.i.l.l.i.N+W+X+#+0+0+E.<.=@X+0+=@0+E.0+0+0+0+0+<.<.0+0+0+0+E.0+0+0+0+<.<.0+X+=@<.<.<.<.<.<.0+<.E.0+0+0+0+=@<.<.<.X+<.<.E.0+0+<.0+0+0+<.0+0+0+0+0+0+<.0+<.<.S S@<.0+<.<.X+0+<.<.0+<.X+X+<.X+X+0+E.0+0+<.0+<.*@B@]@i.i.w.l.'+l.l.S.i.l.l.i.l.i.Z.T@m k U@                                                                                                                        ",
"                                                                                                                  C V@M l H ]+u.i.T.U.U.)+l.U.U.l.i.'+i.i.m@&@X+0+E.E.E.E.E.=@E.<.0+0+E.0+E.=@0+<.<.0+E.0+0+0+<.0+0+0+0+0+0+<.<.0+0+<.<.<.0+0+#+0+0+0+0+0+0+<.X+=@=@<.0+<.<.X+0+0+0+c E.=@0+<.0+0+0+0+<.0+0+0+0+<.<.<.=@<.=@0+0+0+0+<.=@E.0+<.<.<.#+0+E.<.<.X+++L+i.l.w.l.l.l.i.w.l.U.U.U.l.i.l.t.H l W@#                                                                                                                       ",
"                                                                                                              X@Y@|.q.0 N T o.i.i.U.U.U.l.U.i.l.l.l.l.w.i.W.Z+<.#+E.E.E.=@<.0+0+0+<.E.0+E.0+X+0+E.0+E.<.0+0+<.0+0+0+E.<.0+0+<.0+<.0+0+0+<.0+0+0+0+0+0+0+0+0+0+0+<.#+0+<.<.0+<.0+E.<.0+0+0+<.0+0+c 0+0+0+0+0+0+0+<.0+0+0+0+0+<.0+E.X+<.L@<.X+0+<.0+0+E.<.<.0+X+X+Z@x.i.i.l.U.l.i.S.l.k.i.U.U.l.l.^@++a z@`@                                                                                                                      ",
"                                                                                                             #W@7 n 9 9 T G+k.i.l.U.U.U.U.l.l.l.l.l.i.i..#+#Z+<.0+0+E.E.0+E.<.E.0+<.0+0+0+<.0+<.<.<.0+0+E.0+0+0+0+0+0+=@=@=@0+=@<.<.0+<.<.X+<.0+0+0+0+0+<.0+=@0+0+<.<.<.X+0+=@0+0+0+0+0+0+0+0+0+0+0+0+0+<.0+S@0+0+#+=@<.0+=@0+0+0+=@<.0+<.0+0+<.0+E.#+#+0+<.X+<.}+s+w.w.'+l.l.i.U.i.U.l.U.i.S.S.R.p@m <.@#                                                                                                                      ",
"                                                                                                          I@##0 9 9 @+$#^.k.w.w.i.U.q+l.l.i.i.l.l.i.i.i.i.]@V+<.<.E.E.E.0+#+E.E.0+0+0+0+0+0+0+=@<.<.0+0+E.E.<.0+0+0+E.0+0+0+0+<.0+<.0+<.0+X+0+0+E.0+0+0+<.0+<.0+0+0+0+0+<.0+0+0+E.E.0+E.0+0+0+0+E.0+0+0+0+0+0+0+0+0+X+<.0+0+0+0+0+0+0+=@0+0+X+<.0+0+E.E.X+#+<.X+Z+s+w.i.l.S.l.l.U.U.U.'+U.U.l.i.i.%#H 9 &#*#                                                                                                                    ",
"                                                                                                        =#-#l a S ;#i.u.w.i.w.l.'+U.l.U.U.i.U.l.w.i.'+i.l.x.1@X+0+#+E.0+0+E.0+0+0+0+<.<.<.0+0+=@<.=@<.0+0+0+0+0+0+0+E.0+0+<.0+0+<.<.<.<.<.0+0+<.0+0+0+0+0+X+0+<.0+=@0+0+<.0+0+0+0+0+c E.0+c 0+0+0+0+0+0+0+0+0+0+0+0+0+0+<.0+0+0+0+0+<.<.0+0+0+<.0+E.0+E.#+<.<.X+>#u.w.l.l.l.l.l.S.U.l.U.U.U.'+l.i.5@S E.m j ,#'#u                                                                                                               ",
"                                                                                                        ,#)#c <.!#l.'+'+w.i.w.l.U.l.U.i.^@U.l.i.i.'+l.l.i.w.>@Y+<.X+#+E.#+E.0+0+<.0+0+E.<.0+<.<.<.<.<.0+0+0+=@0+9 <.E.0+0+<.0+<.<.X+0+0+0+0+0+0+E.0+<.0+<.0+<.<.0+<.<.<.<.<.<.0+E.E.<.0+0+0+0+0+0+E.0+<.=@<.0+0+0+<.E.0+0+0+0+0+<.0+0+0+X+<.0+0+<.<.0+<.X+<.X+Z+~#i.i.i.i.l.l.l.U.l.i.l.l.l.l.l.i.m.w@9 9 8 l ##{#]#                                                                                                            ",
"                                                                                                      ^#R 7 >+h.w.w.'+l.S.i.l.l.U.l.U.U.l.U.i.i.S.i.l.l.w.i.]@/#<.#+(#E.#+<.0+0+0+0+0+E.0+#+E.0+0+0+<.<.0+0+0+0+0+0+0+0+0+E.0+0+<.<.<.0+<.0+<.0+0+E.0+0+0+E.<.0+0+<.<.<.<.0+0+0+0+E.c E.0+E.E.0+0+0+c 0+0+0+0+0+0+X+0+0+0+0+<.0+0+=@0+0+E.<.0+E.0+0+<.0+<.X+<._#]@^@l.i.l.l.w.U.U.l.l.l.l.U.l.l.l.r+x.I+l 9 9 9 O.:#e@                                                                                                          ",
"                                                                                                      e.a 8 9 ]@i.i.'+w.l.i.U.l.U.U.l.l.l.i.l.l.T.U.l.l.'+i..#H@X+L@<.X+L@<.<.E.0+0+0+0+#+0+0+<.0+<.0+0+0+0+0+<.E.0+0+<.0+0+0+<.#+<.<.0+0+0+<.0+E.E.0+<.0+0+0+0+0+<.#+0+0+0+<.0+0+0+0+0+0+<.E.E.0+0+<.0+<.X+<.S 0+<.0+0+<.0+0+<.<.0+<.<.E.<.<.0+<.0+X+<.X+X+Z@u.i.i.i.i.l.l.l.l.l.l.U.U.U.l.l.l.l.l.l.U.R.I+J H 9 l <#R+                                                                                                        ",
"                                                                                                  [#}#R 9 9 p+~+w.l.l.'+l.r+U.l.U.l.U.U.l.l.i.l.U.l.l.l.i.w.w.i.H@K@0+<.=@<.<.<.0+0+0+<.0+(#0+E.E.E.0+0+0+<.0+0+E.0+0+<.0+0+0+<.<.<.0+<.0+<.0+E.9 0+0+0+0+0+0+0+<.0+0+<.0+0+0+0+0+E.0+c <.<.0+0+0+0+0+0+0+<.0+S 0+0+0+0+=@0+<.0+=@<.<.#+0+0+0+<.0+0+<.#+++K+v..#l.i.i.i.U.l.l.l.l.l.U.q+U.U.i.i.i.l.l.i.w.i.C+&.S 9 |#' 1#                                                                                                      ",
"                                                                                            # 2#3#z@j 0 c o m.w.l.i.l.l.U.l.l.l.l.i.U.U.T.l.i.l.i.i.l.U.i.i.w.i.i.i.4#*@X+X+<.X+<.<.E.0+0+E.#+<.X+<.0+0+0+0+<.E.9 0+E.0+<.0+0+<.0+0+0+<.<.<.<.0+0+0+<.0+0+0+0+0+<.#+<.<.E.0+0+<.X+0+0+0+<.0+<.0+0+E.<.0+0+0+0+<.<.<.0+0+<.<.0+0+<.0+<.X+=@=@X+0+<.0+++,+u.T.i.l.i.i.i.l.k.U.U.l.k.k.U.U.U.k.U.U.l.k.U.l.i.l.w.v.h.S 9 a 5#:+                                                                                                    ",
"                                                                                        6#7#8#;+7 m 9 9 T J+i.w.w.'+l.)+l.U.'+i.l.l.U.U.U.U.i.T.i.l.U.l.i.i.w.'+i.i.9#0#Y+X+X+X+0+0+0+0+<.=@X+<.<.=@0+0+0+E.S@0+0+0+0+<.0+0+0+<.<.#+<.<.0+0+<.0+0+<.0+E.0+0+<.0+<.E.0+0+0+<.=@0+0+0+0+0+<.0+0+0+0+<.0+0+0+c 0+0+<.0+<.<.<.<.<.<.X+<.<.0+X+X+<.X+<.K@a#d+l.^@i.l.i.l.l.l.U.T.l.T.l.U.k.U.U.U.U.U.S.l.l.U.U.l.'+i.k.%#S N ( b#c#                                                                                                  ",
"                                                                                    $ d#4 9 9 9 E.9 *@A.L+k.i.l.l.l.l.S.l.U.l.l.l.U.U.i.i.k.l.k.l.l.U.l.i.l.i.i.i.i.i.m.4@++X+X+<.<.=@0+<.<.<.X+#+<.0+<.E.0+0+0+0+0+0+0+X+<.X+0+E.<.#+<.L@<.0+0+0+0+E.0+=@0+0+0+<.<.X+0+E.0+X+0+X+0+0+0+0+=@<.0+0+<.<.0+<.0+0+<.<.<.0+<.X+0+X+X+X+X+X+<.=@=@X+<.X+e#i.l.i.T.i.U.U.l.l.l.k.U.k.U.l.k.k.U.U.U.U.l.U.k.U.U.k.l.i.l.l.x.f#<.c c 5 z+ ##                                                                                             ",
"                                                                                  g#h#i#m 9 <.h+T@_.j#k#w.M+w.i.'+l.U.l.l.^@l.l.l.i.U.l.i.T.l.l.i.l.l.l.l.l.w.i.w.i.i..#l#L+}+X+<.<.<.#+<.<.<.<.#+#+<.E.0+0+0+0+0+E.0+X+X+0+0+X+0+<.<.#+<.E.0+E.0+0+0+0+E.<.0+#+0+#+0+0+E.E.0+0+0+0+E.0+0+#+0+0+<.E.<.<.<.<.0+<.0+X+<.<.<.<.<.X+X+X+<.X+=@<.X+++`.m#l.i.l.l.i.l.l.l.l.l.U.^@U.U.l.^@e+k.U.k.l.l.U.T.q+k.U.U.l.U.l.i.u.n#>+N c 7 G o#] p#                                                                                        ",
"                                                                                  q#[.9 9 r#;@Y.!+i.i.i.i.i.l.l.U.l.l.U.l.T.i.i.U.i.l.U.l.l.i.U.l.l.l.l.l.U.i.l.i.i.i.i.i.T.+#s#M@E.*@++<.*@*@X+X+#+0+0+#+<.X+<.0+0+<.0+#+X+(#0+0+<.<.<.<.E.#+E.<.0+0+E.E.=@0+E.E.<.E.E.0+=@E.L@E.0+E.0+0+0+<.0+E.E.<.<.<.0+<.0+X+X+<.X+X+X+Y+X+X+<.*@X+X+X+/#+#u.U.i.i.l.i.i.l.T.k.k.l.U.l.l.k.k.k.k.k.k.k.k.U.k.U.U.U.U.U.l.l.l.^@i.k.]+6 9 9 9 9 a <#t#u#                                                                                    ",
"                                                                                v#^+9 9 n#w.l.l.w.i.w.l.w.i.l.U.l.S.U.l.U.l.i.^@l.l.U.l.l.T.l.l.U.l.l.l.l.S.i.l.w.i.i.i.M+i.i.]@H@w#:.x#&@X+X+X+<.#+<.<.0+0+<.0+0+0+<.0+0+X+<.0+0+X+0+#+0+0+0+0+0+E.0+E.E.0+0+(#0+#+<.0+0+0+=@E.0+E.E.#+=@<.0+E.0+0+0+0+0+E.<.0+0+X+X+0+X+X+X+Z+W+-@&@&@n#L+]@T.k.T.l.l.l.T.T.U.T.l.U.S.U.l.l.k.U.k.q+T.k.k.U.U.U.U.U.U.U.U.U.U.U.U.l.i.k.o.%#p@6 9 9 a y#z#u#                                                                                  ",
"                                                                                A#a E.0+x.l.i.l.l.i.i.i.l.l.U.U.i.S.l.l.l.l.l.i.l.S.U.i.i.l.i.i.i.i.l.i.i.l.i.i.i.i.i.i.i.i.i.i.l.i.l#R.o.;.B#X+X+X+<.X+0+<.X+=@<.<.X+X+=@X+<.<.X+<.0+<.<.0+0+0+E.E.<.X+0+<.0+0+E.<.(#<.0+<.0+<.E.<.<.E.0+E.(##+0+0+0+<.=@0+<.<.<.X+X+Y+K@z.-.C#~+r+u.6@x.i.i.i.i.l.l.l.l.l.l.S.r+U.r+U.k.U.U.l.k.U.k.k.k.U.k.k.k.U.k.U.U.k.l.U.U.l.l.i.i.w.w.R.7@D#E#N m G.s                                                                                   ",
"                                                                              5.F#a c ;#l.i.l.i.l.l.S.S.U.U.U.k.U.l.i.U.U.T.i.l.i.i.l.S.i.S.i.i.l.i.i.l.i.i.l.l.i.i.i.i.i.i.w.i.w.i.i.i.i.i.m.G#0+X+0+X+<.<.=@E.0+<.X+X+X+<.X+<.0+<.<.<.=@#+<.E.0+E.0+E.0+E.0+=@<.X+=@0+<.0+<.E.0+E.E.E.E.#+0+c E.0+0+0+0+E.0+<.<.=@Y+h.V.^@i.i.U.^@i.l.i.T.l.l.U.k.l.T.k.U.k.k.T.k.U.k.k.k.U.k.U.k.U.e+k.k.k.k.k.k.U.U.U.k.U.l.U.U.l.l.w.i.w.i.i.u.{+N 0+m /+$                                                                                 ",
"                                                                          $ H#I#M 9 9 J#l.i.l.U.S.U.l.l.U.l.U.U.U.S.U.k.l.U.l.l.i.i.U.i.i.i.l.i.i.M+i.i.M+w.i.i.i.i.i.i.i.i.l.i.l.l.l.U.i.S.i.i.K#*@X+Y+X+Y+<.X+Z+>#I+(.,@L#M#X+X+Y+X+X+Y+Y+X+X+<.X+<.#+Y+X+X+Y+X+X+<.<.<.X+<.<.<.0+E.<.E.<.<.X+X+<.X+<.X+X+++X+Y+1@E+k.i.i.r+i.l.i.l.S.l.i.l.U.U.i.U.U.U.l.k.U.k.k.k.U.U.U.U.T.U.k.U.U.k.k.U.U.k.k.U.U.k.k.k.U.U.l.U.U.l.)+l.U.i.w..#-.>+c N#O#                                                                                ",
"                                                                    u v#P#-+##Q#n 9 ++i.l.'+U.i.l.U.U.i.U.T.l.U.'+U.l.U.U.S.i.l.l.l.U.S.l.i.i.i.i.9#k.e#y.W.k.x.i.i.w.i.i.i.l.l.'+l.i.l.i.w.i.i.9#`.R#G#B.p@&.J+~+x..#S#^@9#L+K@*@X+X+X+++@@-@-@V+}+G#]+>@$@Z+X+X+X+<.<.<.E.<.0+<.0+0+E.<.E.<.X+<.L@X+<.X+&@V+.+T#6@^@i.i.l.l.i.i.i.i.S.U.i.'+l.U.l.U.l.l.k.U.U.k.T.U.l.U.U.U.U.k.k.U.U.U.k.U.k.k.k.U.U.U.U.U.k.U.l.l.U.S.l.l.l.w.l.M+T.U 0+##U#                                                                                ",
"                                                                  % V#W#l l 9 E.9 E.h@m.'+l.l.l.l.l.U.l.l.U.i.U.U.U.l.U.U.l.l.i.w.w.l.w.M+w.M+x.;./#X#L M d p B.I+V.i.i.i.l.i.U.l.U.i.l.i.G@i.i.i.i.l.c+Z.v.i.l.i.i.i.i.~+i.i.]@Y#p+_.p+Z#o.i.M+k.Z.]@i.o.i.o.n#*@`#X+X+L@<.<.<.<.<.X+X+X+<.<.X+X+<.}+n# $^@x.V.^@i.l.l.^@l.l.T.k.T.r+l.S.l.T.l.l.l.U.U.k.U.k.k.k.T.S.U.l.U.l.l.i.U.U.U.k.U.k.U.U.U.U.U.T.U.k.l.k.l.l.U.l.l.l.l.l.l.i.x.W+c .$+$                                                                                ",
"                                                                @$[+a c 9 9 <.W+Z@!.k.i.'+w.l.'+l.l.i.l.U.U.U.U.l.U.'+l.l.l.w.l.l.i.l.i.M+i.r+K#c@V+V+j V+j V+V+j #$m.w.w.i.l.l.'+U.l.U.l.l.i.i.w.i.w.M+w.i.i.S.i.i.i.i.i.i.i.i..#$$M+i.l.i.l.l.l.i.o..#M+.#$$l#>@X+++X+=@=@X+0+<.L@X+++&@B#w@z.p+%$M+Z.^@&$i.i.i.U.S.l.k.U.U.k.l.l.U.U.l.S.l.l.U.T.l.U.k.U.k.U.k.T.l.l.U.U.'+l.l.l.l.l.U.U.l.l.U.U.U.e+U.l.U.l.l.l.l.l.U.l.'+l.l.l.i.*$O >+N#w                                                                                 ",
"                                                              =$F a 9 ++g.p+-$x.x.M+i.w.'+i.l.'+l.l.l.l.l.T.k.U.l.U.l.i.l.l.i.i.i.i..#M+M+l#;$d c@j H.>$,$'$H.V+d p y.i.i.i.l.l.S.U.l.U.^@i.i.l.l.l.l.w.l.l.l.l.k.k.T.T.i.S.l.i.l.i.i.l.l.i.i.i.U.i.i.i.i.i..#w.^@9#y.(.J+p+_._.)$!$~.Y.]@R.^@i.T.i.k.l.l.l.^@i.l.U.U.T.k.k.k.k.k.U.k.U.r+U.U.U.k.k.k.k.U.k.U.U.r+T.k.l.i.U.^@k.i.l.^@l.T.l.k.k.k.U.U.U.U.l.l.l.U.l.l.l.l.S.l.U.l.l.i.o.}+<.~${$                                                                                ",
"                                                              ]$a 9 ^$/$($'+i.i.i.M+M+w.i.w.'+i.U.l.l.U.U.T.U.T.l.i.l.i.U.l.i.i.l.i.l.l.E+_.d V+L ]+u.Z.k.R.m#_$&@*@r+i.i.l.l.l.U.U.U.U.U.U.k.i.l.l.l.l.l.l.S.U.U.k.k.U.i.U.U.l.l.i.S.T.l.l.i.l.U.T.i.i.i.i.i.i.~+i.i.i.M+i.w.i.i.i.U.T.T.^@l.i.l.T.k.k.k.k.l.l.l.l.k.k.k.k.k.k.k.T.k.k.k.U.U.k.k.k.k.k.U.k.k.T.k.l.l.l.l.x.K+1+)$:$v.T.U.U.k.k.k.k.k.U.U.l.l.l.k.k.l.l.l.l.l.l.l.i.w.F+S <.f@<$                                                                                ",
"                                                              [$a c !.w.w.w.w.w.w.w.M+w.i.w..#i.i.S.l.l.l.l.U.U.l.U.i.l.l.U.i.l.i.i.l.w..#}$d V+;.v.l.S.i.i.i.i.x.v.l.i.i.l.k.U.U.U.q+U.l.U.U.T.k.U.l.U.U.U.l.U.k.k.^@k.l.l.T.T.l.l.T.^@l.l.l.l.U.U.i.l.i.l.l.l.i.i.i.i.i.i.i.l.l.U.l.l.l.^@S.T.k.T.T.U.k.T.U.T.U.k.U.k.k.k.k.k.k.k.k.k.k.U.k.k.k.U.k.k.k.k.k.k.T.k.l.l.l.o.H.Z+Z+j Q.v.T.k.T.l.k.k.l.U.l.U.T.l.T.U.l.l.i.i.i.l.i.i.k.|$N 9 W@C                                                                                 ",
"                                                              1$a >+T@7@Z.l.w.U.v.x.E+`.p+~@5+i.l.l.l.i.U.l.l.U.l.U.l.l.U.l.l.l.w.i.l.i.i.o.u.i.T.l.l.T.i.i.w.i.i.l.l.l.l.U.l.U.q+k.k.k.U.U.k.l.U.U.U.U.U.U.k.U.k.U.T.l.U.k.U.T.l.i.l.T.l.U.U.k.U.k.'+l.l.l.S.^@i.i.i.l.i.i.i.l.l.U.U.U.l.k.l.T.l.k.U.k.k.k.U.l.U.k.k.T.k.k.k.k.k.U.k.k.C+k.k.k.k.U.2$U.e+k.T.T.k.U.U.l.l.v.]+-@6 Z+6 9 7@u.i.T.U.k.U.l.U.l.U.l.T.x.e+l.S.i.i.i.r+x.4@r#9 I 3$                                                                                  ",
"                                                              4$R 9 <.U %.5$ +6$7$}+W+<.N E.c %.u.l.i.l.l.l.l.l.U.S.l.l.T.U.U.l.l.i.U.l.l.l.i.l.l.l.l.l.i.i.l.l.l.l.T.U.T.U.k.k.k.k.U.U.U.U.U.l.k.U.U.U.U.U.k.k.k.U.k.k.k.k.k.k.T.l.U.U.U.k.k.l.k.k.k.l.i.U.U.k.i.l.r+l.r+T.l.l.k.k.U.k.i.U.k.U.k.T.k.T.k.U.l.U.k.k.k.U.k.k.k.k.k.k.k.U.k.k.k.k.C+q+k.k.U.k.U.k.k.T.k.l.l.U.u.x.p+++S S }+f+u.l.k.k.l.l.l.l..#d+I+8$1+9$p+!.X.!.]+<.E.9 k 0$D                                                                                   ",
"                                                                a$G.9 >+<.<.>+<.<.<.0+<.0+0+>+0+&.m.w.i.w.l.i.S.l.l.l.i.l.U.l.l.i.l.U.l.l.S.i.i.U.T.l.l.l.l.U.l.l.l.U.T.U.T.k.k.k.k.e+k.k.k.U.k.U.T.U.U.U.U.U.k.k.e+k.k.k.k.k.k.k.k.l.k.k.k.k.k.U.k.k.l.U.U.l.U.S.r+U.U.T.l.l.U.U.T.U.r+l.l.U.k.k.T.U.T.k.U.U.U.q+k.U.k.k.k.k.k.C+k.k.k.k.k.U.k.k.k.e+k.e+k.U.k.k.T.l.l.l.U.T.l.^@^@u+Y+X+}+f+k.l.U.U.l.w.l.i./@9 9 9 N E.E.H H E.H 9 F.P b$                                                                                    ",
"                                                                u#c$d$e$n l@l@l@a 6 f$H.g$h$T X+6 {.~+M+l.l.i.i.i.i.i.l.l.l.i.l.l.l.T.U.l.l.i.i.i.l.k.k.l.U.l.T.U.U.r+k.k.l.k.k.k.k.k.k.k.k.k.k.k.k.T.U.U.k.k.e+k.U.k.k.k.k.k.k.k.T.k.k.U.k.r+k.k.k.k.k.k.k.T.U.r+l.k.T.r+k.k.U.l.S.l.r+k.k.k.k.T.k.k.k.k.U.k.U.k.k.k.k.k.k.k.k.k.k.k.k.k.k.k.k.k.k.U.k.k.k.k.k.k.k.r+T.k.k.T.i.^@r+x.:.Y+<.X+S.r+U.S.i.i.o.%@#+E.8 l l H i$E.F.B.E.L j$R+                                                                                      ",
"                                                                    $ c$J@k$l$m$n$o$p$t k+q$W@9 <.J i.i.l.l.w.i.i..#i.i.S.l.U.l.l.i.U.l.l.l.i.i.U.k.U.k.U.l.U.U.U.k.U.k.S.T.U.U.k.e+k.k.k.k.k.k.k.k.l.k.U.q+k.k.U.k.k.k.k.k.k.k.U.k.T.l.k.k.k.k.k.k.U.k.T.k.S.r+S.l.k.l.T.k.k.k.k.U.U.k.k.k.k.k.k.k.U.k.k.k.k.k.k.k.k.k.U.k.k.k.k.k.k.k.k.k.k.k.q+k.U.k.k.k.k.T.k.k.U.U.U.k.l.r+k.k.i.*$%@<.E.#$x.T.i.x.X.N 9 9 <.r$s$:#t$; u$v$w$x$y$k+                                                                                        ",
"                                                                                            z$j 9 9 #+J+u.D+D+b+v.m@e#V.^@i.i.l.l.T.k.l.T.i.S.i.U.U.U.U.k.U.k.k.U.l.k.k.k.l.U.k.k.k.k.e+k.k.k.k.k.k.k.k.k.k.k.k.C+k.u.k.k.k.k.k.k.k.k.k.k.k.k.k.k.k.k.k.k.k.U.k.^@r+k.T.k.k.k.k.k.T.k.U.k.k.k.k.k.k.k.k.U.k.k.k.k.k.k.k.k.k.k.k.k.k.S.k.k.U.U.k.k.k.k.k.k.k.k.k.r+k.k.U.k.k.l.T.T.U.l.k.o.++E.S ~.w.!.1@<.9 F.N A$:+                                                                                                            ",
"                                                                                            u#B$r.I 9 N 6 ++<.r#6 <.T H _@^@i.U.U.T.k.k.k.k.l.U.U.U.U.k.U.k.U.k.q+k.k.k.U.k.U.k.U.k.k.k.k.k.k.C$k.k.k.k.k.k.k.k.k.C+C+k.k.k.k.k.k.k.k.k.k.k.k.k.e+k.k.k.k.k.k.k.k.k.k.k.k.k.k.k.k.k.k.k.k.k.k.k.k.k.k.k.k.k.k.k.k.k.k.k.k.k.k.u.k.k.k.k.k.k.k.k.k.k.k.k.k.k.k.k.k.k.k.U.k.k.U.k.l.k.U.U.u._.9 E.>+<.F.H 9 F.6 D$$                                                                                                               ",
"                                                                                              # E$F$k l I m H H I F.H 9 G$k.l.'+l.l.k.U.l.U.T.i.k.l.U.U.T.k.e+U.U.k.k.U.U.U.k.k.k.U.q+q+e+k.k.k.k.k.k.k.U.U.k.k.e+U.k.k.k.k.k.k.k.k.k.k.k.k.k.k.k.k.k.k.k.k.k.k.k.U.k.k.T.r+k.U.k.k.k.k.k.k.k.k.k.k.k.U.k.k.k.U.e+k.k.k.e+k.k.k.k.U.k.k.k.k.k.k.k.e+k.k.k.k.k.U.k.k.k.U.e+U.l.U.l.l.l.l.l.R.#+#+H 9 l k H$I$~                           C J.L.J$K$i+_+@                                                                         ",
"                                                                                                  x+L$5 G.6 h+}+M$N$c 9 r.9#l.i.U.l.U.U.U.k.l.l.U.l.U.k.U.k.l.k.U.k.U.k.U.k.U.k.e+e+k.e+k.k.e+k.e+k.e+u.U.k.U.k.e+C$O$e+e+C+k.k.k.k.k.k.k.k.k.e+e+k.k.k.U.k.k.k.U.k.k.U.k.k.U.k.k.k.k.k.k.k.e+e+k.k.q+U.k.e+U.U.k.k.k.k.k.e+k.k.k.k.k.k.k.k.e+k.k.e+k.k.e+k.k.k.k.k.U.U.U.k.U.l.U.l.U.T.l.k.p+H 9 9 M P$y u                         $ $.Q$r.o+)#|#o+: &#R$$                                                                     ",
"                                                                                                      C O#S$T$Y U$V$H.l 0+w#r+i.U.T.U.r+T.U.l.T.k.U.k.U.T.k.q+k.k.k.U.U.k.k.k.k.C+q+C+C$e+C+k.e+k.k.e+e+k.e+e+C+k.k.k.e+k.e+k.k.k.k.k.k.k.k.k.k.e+e+k.e+k.k.k.k.k.k.e+e+u.k.k.k.k.k.k.k.k.k.k.k.k.k.k.k.k.k.U.U.k.k.U.r+k.k.k.k.k.e+k.k.k.q+k.k.k.k.k.l.k.k.U.U.k.U.k.l.k.k.U.U.l.U.k.U.k.k..#<.l ##W$                            u +@9 I 8 H H 9 8 I l >+X$Y$                                                                  ",
"                                                                                                                    Z$k 9 <.H@k.U.l.U.T.k.l.l.^@k.T.k.k.T.9#u.i.k.k.e+k.U.k.k.e+e+k.e+e+e+e+e+k.C+e+e+d+C$e+e+e+e+k.k.k.C+u.k.k.k.k.e+k.e+e+k.k.e+e+C+k.k.k.k.k.k.k.C+k.k.k.U.k.k.k.k.k.k.u.k.k.k.e+k.k.k.k.k.k.k.e+U.k.k.e+k.k.k.k.k.k.U.k.U.e+e+k.U.U.U.U.l.k.k.k.k.U.U.k.l.U.U.l.U.e+U.k.O+N 8 ##y                             `$c l I  %.%+%;#$#T H a c @%                                                                  ",
"                                                                                                                    #%[+l H ++;#o.s+k.U.i.i.^@v.D+!+!#X.B+$%).M+k.k.U.U.T.k.k.k.U.e+q+q+e+e+k.k.k.k.k.k.e+k.u.k.k.e+C$e+e+k.k.k.k.k.k.U.k.k.k.e+k.k.k.k.k.k.k.k.k.k.k.k.k.k.k.k.k.k.k.k.k.k.k.U.e+k.e+e+k.k.k.k.k.k.k.k.e+k.k.k.k.k.k.k.k.k.S.k.k.k.k.x.^@D+6@S.k.k.k.^@k.k.l.U.k.U.l.U.k.U.N+>+H W %%                          u F#I H 8$v.e+U.k.!+l.D.I 8 &%#                                                                 ",
"                                                                                                                      $.U J 9 9 r#B@&.|@_.*%;@`+B.++<.I 9 9 0+H ^@k.k.r+U.k.e+e+k.e+e+e+k.k.k.k.C+e+k.e+q+k.e+k.e+e+e+k.C+e+e+e+k.k.k.k.k.k.k.e+k.e+k.k.k.k.k.k.k.k.C+k.k.k.k.k.k.k.k.k.k.k.k.e+k.k.e+k.k.k.C+k.k.k.e+k.k.e+k.k.k.k.k.k.k.k.k.k.k.9#G+++6 6 u+t+J#l.n.6@m.r+U.S.U.l.k.!+Z.J#a+9 a F =%                          -%;%9 >+>%e+U.v@q+k.U.b@9 9 <@#                                                                 ",
"                                                                                                                        ,%f@k l H F.F.H F.H H H H F.F.l l F.F.F.H Y.u.U.T.U.l.k.U.U.k.U.k.U.k.U.^@l.k.k.k.T.k.k.k.k.k.k.k.k.k.C+k.k.k.k.k.k.k.C$k.k.k.U.k.k.T.k.k.k.k.k.k.T.k.k.k.k.k.k.k.C+k.k.k.k.k.k.k.'%k.k.T.r+k.k.^@S.i.i.i.l.i.i.i.S.i.i.x.!.*@9 H H K@H H *@++)%`+B+*.!%!.!.+%.%++9 F.m 6 ~%                            5.{%l 9 ]%w.j.v.!+b+{+%@9 l ^%$                                                                 ",
"                                                                                                                          /%I.0$}+H k J l J F.F.r#@@V+(%$+_%S J F.<.4@]@k.l.l.l.l.U.U.U.U.k.U.U.U.l.k.T.k.k.k.k.k.k.k.k.k.k.U.U.k.k.k.k.k.e+C+k.C$e+k.k.k.k.k.k.k.k.k.k.U.k.U.U.k.k.C+k.k.k.k.k.e+k.e+k.k.k.k.U.l.^@U.T.v.*.*%!.~.m@R.s+V.V.n.m@]+<.9 E.}+<.J J H H 9 N 9 9 H H 9 H 8 F.9 9 o+G.:%#                                #U l l <.B@a+$%#+r#9 a U <%                                                                  ",
"                                                                                                                              C 9.R$[%[${%}%|%1%2%c$@.3%  3%4%c 3@F.K@#+4@Y.n.v.l.l.w.i.k.!+5%V.Y.;.-.x.k.U.k.k.k.k.k.k.k.U.k.T.k.k.k.k.k.k.e+k.e+e+k.k.k.C+k.k.k.k.k.k.k.k.k.U.U.k.k.k.k.k.U.k.k.e+e+k.r+k.x.Z.x.x.b+6%H 9 H 9 #+++H$H K#A@E.++9 H B.P 7%8%h#, 5 ;+9%l@k b n n 7 k k |#Z+p 2.c$                                  5.0%r.k l J I H F.9 l f.'@k+                                                                  ",
"                                                                                                                                                            u a%M J 9 9 F.#+#+`+,+t+p+_.;@n@F.++N b%H <.I+R.k.T.c%N+m@m.r+S.k.r+e+k.k.k.k.k.U.k.e+k.U.k.U.k.k.k.k.k.k.k.U.k.U.U.U.k.k.k.k.k.k.k.k.k.e+k.x.J#_#s##$,$H 9 E.9 9 H <.#+<.#+<.#+<.N l N d%e%      5.C ,%z#f%} = E@g%h%i%j%k%z#U$u#                                      u#y l%^+G T >+r.m%X v#                                                                      ",
"                                                                                                                                                                V$n%G.)#K@9 F.9 F.H F.m l F.B.J B.B.m 9 #+.+5++%Q.H Y+o%m.k.k.U.U.k.C+k.k.k.e+k.k.U.C+k.k.q+U.k.k.U.k.U.k.U.U.U.k.U.k.U.k.k.k.k.k.U.k.j.;@E.F.F.F.F.F.l B@V+p%q%r%M <.k F.n l V+s%C@:+                                                                                  5.<$9.t%u%v%w%                                                                          ",
"                                                                                                                                                                  u x%U@[+L <.F.F.F.l l A.%.J r#d k a E.H 9 9 9 9 9 9 E.y%]@l.i.U.S.U.q+e+k.k.U.U.U.U.k.k.k.U.k.T.S.U.S.U.k.U.U.U.U.i.k.k.T.k.S.l.v.Y.g.F.H H B@|#^$<.M P+c$5.$ @.z%A%(+B%C%Y@ #D%                                                                                                                                                                              ",
"                                                                                                                                                                        C p$E%F%G%/+M.[ H%I%a$J%K%L%1 [$U M%K o+|#J F.H m 0#x.U.U.U.k.U.T.U.k.k.U.U.U.U.k.k.k.U.k.r+k.k.T.l.l.l.i.U.l.l.k.k.S.j.N%&.#+F.F.J 6+O%8@P%Q%R%u                                                                                                                                                                                                       ",
"                                                                                                                                                                                                      u S%T%U%V%W%f%t$B@F.E.;#Z.U.k.k.k.U.k.q+e+U.k.U.U.k.k.k.x.E+_.a@=.m@Z.j.v.v.v.V.n.Z.7@!.u+E.J J J <.X%Y%                                                                                                                                                                                                                  ",
"                                                                                                                                                                                                                    Z%W@M%F.H D.`% &m.U.T.k.U.k.k.k.U.d+D+T.>.8$<.B.b%H *@x#;$#$`+`+u+F.}+<.H E.F.J F.r%.&$                                                                                                                                                                                                                     ",
"                                                                                                                                                                                                                      '#f@o+l F.l <.}$%#X.>.+&@&;.=.%#w@J X+J J 9 K@l B.E.#&9 9 9 H m H 9 9 m B.<.P U@*#              5.e@z#$&%&v+&&*&C                                                                                                                                                                                         ",
"                                                                                                                                                                                                                        =&-&Z+|#J F.B.b%B.B.B.B.F.F.F.F.F.l F.l S ;&(%d W+F.|#|#M%M%|#|#<.d H.X%>&,&                '&X%j l o+k B@M%}+o#_+                                                                                                                                                                                      ",
"                                                                                                                                                                                                                          u )&- j X+B.B.J B.F.B.F.l o+B@M%T V+!&z#L%u ~&J%{&]&^&/&(&_&d.| :&t                     <&5 [&M%M%J J J J k k i#x@                                                                                                                                                                                    ",
"                                                                                                                                                                                                                              k+}&|&) 1&i%A+M ##R 2&- w$3&x%4&                                                  =%F#M%J J 5&t+=.6&a+H B@l 7&*#                                                                                                                                                                                  ",
"                                                                                                                                                                                                                                          # 8&9&C 5.                                                            0&[.o+l J#a&e+C$v.Z.j#B@l l b&                                                                                                                                                                                  ",
"                                                                                                                                                                                                                                                                                                                c&)#l B+x.e+e+C$k.k.k.d&J k E$                                                                                                                                                                                  ",
"                                                                                                                                                                                                                                                                                                                e&k l f&v.v.e+e+u.d+k..+l K d#                                                                                                                                                                                  ",
"                                                                                                                                                                                                                                                                                                                { W+J J %@!.C#M+{.g&J J o+h&i&                                                                                                                                                                                  ",
"                                                                                                                                                                                                                                                                                                                u j&0 k&o+M%M%J B@%.M%o+c l&                                                                                                                                                                                    ",
"                                                                                                                                                                                                                                                                                                                  m&n&6 o&o&M%M%B@|#k z@R$$                                                                                                                                                                                     ",
"                                                                                                                                                                                                                                                                                                                    k+y e p&M W#j :#J@q&                                                                                                                                                                                        ",
"                                                                                                                                                                                                                                                                                                                          u C 3%@.u                                                                                                                                                                                             ",
"                                                                                                                                                                                                                                                                                                                                                                                                                                                                                                                                ",
"                                                                                                                                                                                                                                                                                                                                                                                                                                                                                                                                ",
"                                                                                                                                                                                                                                                                                                                                                                                                                                                                                                                                ",
"                                                                                                                                                                                                                                                                                                                                                                                                                                                                                                                                ",
"                                                                                                                                                                                                                                                                                                                                                                                                                                                                                                                                ",
"                                                                                                                                                                                                                                                                                                                                                                                                                                                                                                                                ",
"                                                                                                                                                                                                                                                                                                                                                                                                                                                                                                                                ",
"                                                                                                                                                                                                                                                                                                                                                                                                                                                                                                                                ",
"                                                                                                                                                                                                                                                                                                                                                                                                                                                                                                                                ",
"                                                                                                                                                                                                                                                                                                                                                                                                                                                                                                                                ",
"                                                                                                                                                                                                                                                                                                                                                                                                                                                                                                                                ",
"                                                                                                                                                                                                                                                                                                                                                                                                                                                                                                                                ",
"                                                                                                                                                                                                                                                                                                                                                                                                                                                                                                                                ",
"                                                                                                                                                                                                                                                                                                                                                                                                                                                                                                                                ",
"                                                                                                                                                                                                                                                                                                                                                                                                                                                                                                                                ",
"                                                                                                                                                                                                                                                                                                                                                                                                                                                                                                                                ",
"                                                                                                                                                                                                                                                                                                                                                                                                                                                                                                                                ",
"                                                                                                                                                                                                                                                                                                                                                                                                                                                                                                                                ",
"                                                                                                                                                                                                                                                                                                                                                                                                                                                                                                                                ",
"                                                                                                                                                                                                                                                                                                                                                                                                                                                                                                                                ",
"                                                                                                                                                                                                                                                                                                                                                                                                                                                                                                                                ",
"                                                                                                                                                                                                                                                                                                                                                                                                                                                                                                                                ",
"                                                                                                                                                                                                                                                                                                                                                                                                                                                                                                                                ",
"                                                                                                                                                                                                                                                                                                                                                                                                                                                                                                                                ",
"                                                                                                                                                                                                                                                                                                                                                                                                                                                                                                                                ",
"                                                                                                                                                                                                                                                                                                                                                                                                                                                                                                                                ",
"                                                                                                                                                                                                                                                                                                                                                                                                                                                                                                                                ",
"                                                                                                                                                                                                                                                                                                                                                                                                                                                                                                                                ",
"                                                                                                                                                                                                                                                                                                                                                                                                                                                                                                                                ",
"                                                                                                                                                                                                                                                                                                                                                                                                                                                                                                                                ",
"                                                                                                                                                                                                                                                                                                                                                                                                                                                                                                                                ",
"                                                                                                                                                                                                                                                                                                                                                                                                                                                                                                                                ",
"                                                                                                                                                                                                                                                                                                                                                                                                                                                                                                                                ",
"                                                                                                                                                                                                                                                                                                                                                                                                                                                                                                                                ",
"                                                                                                                                                                                                                                                                                                                                                                                                                                                                                                                                ",
"                                                                                                                                                                                                                                                                                                                                                                                                                                                                                                                                ",
"                                                                                                                                                                                                                                                                                                                                                                                                                                                                                                                                ",
"                                                                                                                                                                                                                                                                                                                                                                                                                                                                                                                                ",
"                                                                                                                                                                                                                                                                                                                                                                                                                                                                                                                                ",
"                                                                                                                                                                                                                                                                                                                                                                                                                                                                                                                                ",
"                                                                                                                                                                                                                                                                                                                                                                                                                                                                                                                                ",
"                                                                                                                                                                                                                                                                                                                                                                                                                                                                                                                                ",
"                                                                                                                                                                                                                                                                                                                                                                                                                                                                                                                                ",
"                                                                                                                                                                                                                                                                                                                                                                                                                                                                                                                                ",
"                                                                                                                                                                                                                                                                                                                                                                                                                                                                                                                                ",
"                                                                                                                                                                                                                                                                                                                                                                                                                                                                                                                                ",
"                                                                                                                                                                                                                                                                                                                                                                                                                                                                                                                                ",
"                                                                                                                                                                                                                                                                                                                                                                                                                                                                                                                                ",
"                                                                                                                                                                                                                                                                                                                                                                                                                                                                                                                                ",
"                                                                                                                                                                                                                                                                                                                                                                                                                                                                                                                                ",
"                                                                                                                                                                                                                                                                                                                                                                                                                                                                                                                                ",
"                                                                                                                                                                                                                                                                                                                                                                                                                                                                                                                                ",
"                                                                                                                                                                                                                                                                                                                                                                                                                                                                                                                                ",
"                                                                                                                                                                                                                                                                                                                                                                                                                                                                                                                                ",
"                                                                                                                                                                                                                                                                                                                                                                                                                                                                                                                                ",
"                                                                                                                                                                                                                                                                                                                                                                                                                                                                                                                                ",
"                                                                                                                                                                                                                                                                                                                                                                                                                                                                                                                                ",
"                                                                                                                                                                                                                                                                                                                                                                                                                                                                                                                                ",
"                                                                                                                                                                                                                                                                                                                                                                                                                                                                                                                                ",
"                                                                                                                                                                                                                                                                                                                                                                                                                                                                                                                                ",
"                                                                                                                                                                                                                                                                                                                                                                                                                                                                                                                                ",
"                                                                                                                                                                                                                                                                                                                                                                                                                                                                                                                                ",
"                                                                                                                                                                                                                                                                                                                                                                                                                                                                                                                                ",
"                                                                                                                                                                                                                                                                                                                                                                                                                                                                                                                                ",
"                                                                                                                                                                                                                                                                                                                                                                                                                                                                                                                                ",
"                                                                                                                                                                                                                                                                                                                                                                                                                                                                                                                                ",
"                                                                                                                                                                                                                                                                                                                                                                                                                                                                                                                                ",
"                                                                                                                                                                                                                                                                                                                                                                                                                                                                                                                                ",
"                                                                                                                                                                                                                                                                                                                                                                                                                                                                                                                                ",
"                                                                                                                                                                                                                                                                                                                                                                                                                                                                                                                                ",
"                                                                                                                                                                                                                                                                                                                                                                                                                                                                                                                                ",
"                                                                                                                                                                                                                                                                                                                                                                                                                                                                                                                                ",
"                                                                                                                                                                                                                                                                                                                                                                                                                                                                                                                                ",
"                                                                                                                                                                                                                                                                                                                                                                                                                                                                                                                                ",
"                                                                                                                                                                                                                                                                                                                                                                                                                                                                                                                                "};
