/* XPM */
static char * quit_button[] = {
"162 57 4 1",
" 	c #FFF8ED",
".	c #FFBD59",
"+	c #FFD9A1",
"@	c #FFFFFF",
"                       ...................................................................................................................                        ",
"                   ...........................................................................................................................                    ",
"                 ................................................................................................................................                 ",
"               ....................................................................................................................................               ",
"             .......................................................................................................................................              ",
"            ..........................................................................................................................................            ",
"          .............................................................................................................................................           ",
"         ...............................................................................................................................................          ",
"        .................................................................................................................................................         ",
"       ...................................................................................................................................................        ",
"      .....................................................................................................................................................       ",
"      ......................................................................................................................................................      ",
"     .......................................................................................................................................................      ",
"    .........................................................................................................................................................     ",
"    ..........................................................................................................................................................    ",
"   ...........................................................................................................................................................    ",
"   ............................................................................................................................................................   ",
"  .........................................................................................+.....+++@++++++....................................................   ",
"  .........................................................+++++........++...............+@@@...+@@@@@@@@@@@+..................................................   ",
" .......................................................++@@@@@@@+.....+@@@.......@@+....+@@@+..@@@@@@@@@@@@+...................................................  ",
" .......................................................@@@@@@@@@@+....@@@@......+@@@....@@@@...@@@@@@@@@@@@+...................................................  ",
" ......................................................@@@@@@@@@@@@+...@@@@......+@@@+...@@@@....+++@@@@++++....................................................  ",
" .....................................................+@@@@@+++@@@@@...@@@@......+@@@+...@@@@.......@@@@......................................................... ",
".....................................................+@@@@@+....@@@@...@@@@......+@@@+...@@@@.......@@@@+........................................................ ",
".....................................................+@@@@......+@@@+..@@@@......@@@@+..+@@@+.......@@@@......................................................... ",
".....................................................@@@@+......+@@@+..@@@@+.....@@@@....@@@@.......@@@@......................................................... ",
"....................................................+@@@@.......@@@@...+@@@+.....@@@@...+@@@+.......@@@@......................................................... ",
"....................................................+@@@@...@@+.@@@@...+@@@+....+@@@+...+@@@+.......@@@@......................................................... ",
"....................................................+@@@+..+@@@@@@@@...+@@@@....@@@@+...+@@@+......+@@@+......................................................... ",
"....................................................+@@@+.++@@@@@@@+....@@@@+..@@@@@....+@@@+.......@@@@......................................................... ",
"....................................................+@@@@..+@@@@@@@.....+@@@@+@@@@@+....@@@@+......+@@@+......................................................... ",
".....................................................@@@@+...@@@@@+......@@@@@@@@@+.....+@@@+......+@@@+......................................................... ",
".....................................................+@@@@++@@@@@@+......+@@@@@@@++.....@@@@.......+@@@+......................................................... ",
"......................................................@@@@@@@@@@@@@.......+@@@@@+.......@@@@.......+@@@+......................................................... ",
" .....................................................+@@@@@@@@@@@@.........++..........@@@@........@@+.......................................................... ",
" ......................................................+@@@@@@+@@@@+....................++@+....................................................................  ",
" ........................................................++++..+@@@.............................................................................................  ",
" ................................................................+..............................................................................................  ",
"  .............................................................................................................................................................   ",
"  .............................................................................................................................................................   ",
"   ............................................................................................................................................................   ",
"   ...........................................................................................................................................................    ",
"    ..........................................................................................................................................................    ",
"    .........................................................................................................................................................     ",
"     .......................................................................................................................................................      ",
"      ......................................................................................................................................................      ",
"      .....................................................................................................................................................       ",
"       ...................................................................................................................................................        ",
"        .................................................................................................................................................         ",
"         ...............................................................................................................................................          ",
"          .............................................................................................................................................           ",
"            ..........................................................................................................................................            ",
"             .......................................................................................................................................              ",
"               ...................................................................................................................................                ",
"                 ...............................................................................................................................                  ",
"                    ..........................................................................................................................                    ",
"                       ...................................................................................................................                        "};
