/* XPM */
static char * restart_btn_xpm[] = {
"162 57 3 1",
" 	c None",
".	c #FFBE5B",
"+	c #FFFBF6",
"                       ...................................................................................................................                        ",
"                   ...........................................................................................................................                    ",
"                 ................................................................................................................................                 ",
"               ....................................................................................................................................               ",
"             .......................................................................................................................................              ",
"            ..........................................................................................................................................            ",
"          .............................................................................................................................................           ",
"         ...............................................................................................................................................          ",
"        .................................................................................................................................................         ",
"       ...................................................................................................................................................        ",
"      .....................................................................................................................................................       ",
"      ......................................................................................................................................................      ",
"     .......................................................................................................................................................      ",
"    .........................................................................................................................................................     ",
"    ..........................................................................................................................................................    ",
"   ...........................................................................................................................................................    ",
"   .............................................++++++...........+.............................................................................................   ",
"  .............................................+++++++++........++++........++++++...............++........................+++++++.............................   ",
"  ...............................+++...........+++++++++.......+++++......+++++++++++...........++++..........+++........++++++++++++..........................   ",
" ..............................+++++++........++++++++++......++++++.....+++++++++++++.........++++++.......++++++.......+++++++++++++..........................  ",
" .............................+++++++++.......+++++..++......+++++.......+++++++++++++........+++++++......++++++++......+++++++++++++..........................  ",
" .............................+++++++++.......++++...........++++.........++.++++++++........++++++++.....++++++++++......+++++++++++...........................  ",
" ............................+++++++++++......++++...........++++.............++++..........+++++++++.....+++++.++++.........++++................................ ",
".............................++++..+++++......+++++..........+++++...........+++++..........+++++++++....+++++..++++.........++++................................ ",
".............................++++.+++++.......+++++++........+++++++.........++++..........+++++.++++....++++..+++++.........++++................................ ",
"............................+++++++++++......+++++++++........+++++++........++++..........++++..++++....++++++++++..........++++................................ ",
"............................++++++++++.......+++++++++.........+++++++.......++++..........++++..++++....++++++++++..........++++................................ ",
"............................+++++++++........++++++++............+++++.......++++.........+++++..++++....+++++++++...........++++................................ ",
"............................+++++++++........++++.................++++.......++++.........+++++++++++....++++++++............++++................................ ",
"............................++++++++++.......++++..................++++......++++.........+++++++++++...++++++++++...........++++................................ ",
"............................++++.++++++......++++++++++...........+++++......++++.........+++++++++++...+++++++++++..........++++................................ ",
"............................++++..++++++.....+++++++++++...++++...++++.......++++........++++++++++++...++++..++++++.........++++................................ ",
"............................++++...++++++...++++++++++++...+++++++++++.......++++........++++....++++...++++....+++++.......+++++................................ ",
"............................++++....+++++...++++++++++++...++++++++++........++++........++++....++++...++++.....+++++......++++................................. ",
" ...........................++++.....+++++...++++++.........++++++++.........+++.........++++....++++...++++......++++.......+++................................. ",
" ...........................++++......+++.....................+++++......................++++.....+++...++++......++++..........................................  ",
" ...........................++++.........................................................+++......+++...++++....................................................  ",
" ...........................+++.........................................................................++++....................................................  ",
"  .............................................................................................................................................................   ",
"  .............................................................................................................................................................   ",
"   ............................................................................................................................................................   ",
"   ...........................................................................................................................................................    ",
"    ..........................................................................................................................................................    ",
"    .........................................................................................................................................................     ",
"     .......................................................................................................................................................      ",
"      ......................................................................................................................................................      ",
"      .....................................................................................................................................................       ",
"       ...................................................................................................................................................        ",
"        .................................................................................................................................................         ",
"         ...............................................................................................................................................          ",
"          .............................................................................................................................................           ",
"            ..........................................................................................................................................            ",
"             .......................................................................................................................................              ",
"               ...................................................................................................................................                ",
"                 ...............................................................................................................................                  ",
"                    ..........................................................................................................................                    ",
"                       ...................................................................................................................                        "};
