/* XPM */
static char * selector_xpm[] = {
"30 30 3 1",
" 	c None",
".	c #FFBC58",
"+	c #FFBD59",
"                              ",
"              .               ",
"             ++.              ",
"             .+..             ",
"            .+.++             ",
"           ..+.+.+            ",
"           ++.+.++            ",
"          +.+.++...           ",
"          ++.+++.+.           ",
"         ...+.+...+.          ",
"         .+.+++++.+..         ",
"        .+...+++++.++         ",
"       ..+.++++++..+.+        ",
"       ++.+++++++++.++        ",
"      ..+..+..+.++.+...       ",
"      .+.++.++.+++++.+.       ",
"     ...+..+..+.+.+...+.      ",
"     .+.++.+..++.++++.+..     ",
"    .+...+.+..+.+.++++.++     ",
"   ..+.++++.+...+.+++..+.+    ",
"   ++.++++.++..+.++++++.++    ",
"  ..+..+++++.++.+.++++.+...   ",
"  .+.++++++.+..+.+++++++.+.   ",
" ...+++++++++++++++++++...+.  ",
"..+.+++++++++++++++++++++.+.. ",
" +                         +  ",
"                              ",
"                              ",
"                              ",
"                              "};
