/* XPM */
static char * settings_xpm[] = {
"162 57 3 1",
" 	c #FFBD59",
".	c #FFD698",
"+	c #FFFFFF",
"++++++++++++++++++++++...                                                                                                               ...+++++++++++++++++++++++",
"+++++++++++++++++++. .                                                                                                                       ..+++++++++++++++++++",
"++++++++++++++++..                                                                                                                             ..+++++++++++++++++",
"++++++++++++++..                                                                                                                                  .+++++++++++++++",
"+++++++++++++                                                                                                                                       .+++++++++++++",
"+++++++++++.                                                                                                                                      .  .++++++++++++",
"++++++++++.                                                                                                                                            +++++++++++",
"+++++++++.                                                                                                                                              ++++++++++",
"++++++++                                                                                                                                                 +++++++++",
"+++++++.                                                                                                                                                  ++++++++",
"++++++.                                                                                                                                                    +++++++",
"+++++.                                                                                                                                                     .++++++",
"+++++                                                                                                                                                       .+++++",
"++++.                                                                                                                                                        +++++",
"+++.                                                                                                                                                         .++++",
"+++                                                                                                                                                           ++++",
"++..                                                                                                                                                           +++",
"++                            ..          .+..+..                                                                 ...+++.          ...                         +++",
"++                          .++++        +++++++++    ..+..+....     ...+.......      ..                         .+++++++.        .+++.                        .++",
"+.                          +++++.      .+++++++++.  ++++++++++++   .+++++++++++.    .++.             ...       .+++++++++       ++++++                         ++",
"+                          ++++++       .+++++++++   ++++++++++++.  +++++++++++++    ++++             +++.     .+++++++++.      .+++++.                         ++",
"+                         .++++.        ++++......   ++++++++++++.  .++++++++++++   .++++             ++++    .+++++.  ..       +++++                           .+",
".                         ++++.         ++++          ...++++.....   ...++++....    .+++.            .+++.    +++++            .+++.                            .+",
".                         ++++          ++++             ++++.          .+++.       .+++.     ..++   .+++.    ++++             .+++.                             +",
".                         ++++..       .++++...          ++++           ++++.       .+++..    .+++.  .+++.   ++++.             .++++.                            +",
"                          .+++++.      .+++++++.         ++++           .+++.       .+++.     +++++  ++++.   ++++      .        ++++++.                          +",
"                           +++++++     .++++++++        .++++           ++++.       ++++.     +++++  ++++   .+++.  .+++++.      .++++++.                         +",
"                            .+++++.   ..+++++++.         ++++           ++++.       .+++.     +++++. ++++   .+++. .+++++++.       ++++++.                        +",
"                             .+++++.   ++++.....        .+++.           ++++        ++++     .++++++.+++.   .+++. .++++++++        .++++.                        +",
"                               ++++.   ++++.            .+++.           ++++        ++++     +++++++++++.   .+++.  ++++++++         .++++                        +",
"                                ++++   ++++             .+++..          ++++        ++++     +++++++++++.   .++++   . .+++.          ++++.                       +",
".                        ..    .+++.   ++++..+.+.       .+++.           ++++        ++++     +++++++++++.    +++++.  .++++.    ..    ++++.                       +",
".                       .+++ ..++++.. .+++++++++++      .+++.          .++++        ++++    .+++..++++++     .++++++++++++    +++....++++                        +",
".                       +++++++++++   .+++++++++++     ..+++.           ++++        ++++    .+++. ++++++      +++++++++++.   .++++++++++.                        +",
"..                      .+++++++++.   .+++++++++++      .+++.          .+++.       .+++.    ++++. .++++.       .++++++++.     ++++++++++                        .+",
"+                        .+++++++.     .+.... . .        ++.            .++         +++.    ++++   ++++.        ...+++.        ++++++++                         .+",
"+                          .+.+.                                                    .+..   .++++   ++++           .             ..+...                          ++",
"+.                                                                                         .+++.    ++.                           .                             ++",
"++                                                                                          +++.                                                               .++",
"++.                                                                                         ...                                                                +++",
"++.                                                                                                                                                           .+++",
"+++                                                                                                                                                           ++++",
"++++                                                                                                                                                         .++++",
"++++.                                                                                                                                                        +++++",
"+++++                                                                                                                                                       .+++++",
"+++++.                                                                                                                                                     .++++++",
"++++++.                                                                                                                                                   .+++++++",
"+++++++.                                                                                                                                                  ++++++++",
"++++++++.                                                                                                                                                +++++++++",
"+++++++++.                                                                                                                                              ++++++++++",
"++++++++++.                                                                                                                                           .+++++++++++",
"+++++++++++.                                                                                                                                         .++++++++++++",
"+++++++++++++.                                                                                                                                      ++++++++++++++",
"++++++++++++++..                                                                                                                                  .+++++++++++++++",
"++++++++++++++++..                                                                                                                              .+++++++++++++++++",
"+++++++++++++++++++..                                                                                                                        .++++++++++++++++++++",
"++++++++++++++++++++++..... .. .. .. .. .. .. .. .. .. .. .. .. .. .. .. .. .. .. .. .. .. .. .. .. .. .. .. .. .. .. .. .. .. .. .. .. ...+++++++++++++++++++++++"};
