/* XPM */
static char * start_xpm[] = {
"162 57 4 1",
" 	c #FFF8ED",
".	c #FFBD59",
"+	c #FFD79C",
"@	c #FFFFFF",
"                       ...................................................................................................................                        ",
"                   ...........................................................................................................................                    ",
"                 ................................................................................................................................                 ",
"               ....................................................................................................................................               ",
"             .......................................................................................................................................              ",
"            ..........................................................................................................................................            ",
"          .............................................................................................................................................           ",
"         ...............................................................................................................................................          ",
"        .................................................................................................................................................         ",
"       ...................................................................................................................................................        ",
"      .....................................................................................................................................................       ",
"      ......................................................................................................................................................      ",
"     .......................................................................................................................................................      ",
"    .........................................................................................................................................................     ",
"    ..........................................................................................................................................................    ",
"   ...........................................................................................................................................................    ",
"   ..............................................+++...........................................................................................................   ",
"  ..............................................@@@@+......++++++++++............+++......................+++++++++++..........................................   ",
"  .............................................@@@@@+.....@@@@@@@@@@@@..........@@@@+........++@++.......+@@@@@@@@@@@+.........................................   ",
" .............................................@@@@@@.....+@@@@@@@@@@@@+.......+@@@@@@.......+@@@@@@......+@@@@@@@@@@@@..........................................  ",
" ............................................+@@@@+......+@@@@@@@@@@@@........@@@@@@@......+@@@@@@@@.....+@@@@@@@@@@@@..........................................  ",
" ............................................+@@@+........++++@@@@++++.......@@@@@@@@+....+@@@@@@@@@+.....++++@@@@++++..........................................  ",
" ............................................@@@@+...........+@@@@..........+@@@@@@@@+....@@@@@++@@@+........+@@@+............................................... ",
".............................................+@@@@+..........+@@@@..........@@@@@+@@@+...+@@@@+.@@@@+........+@@@+............................................... ",
".............................................+@@@@@@.........+@@@+.........+@@@@++@@@+...+@@@+.@@@@@+........+@@@+............................................... ",
"..............................................+@@@@@@........+@@@+.........@@@@@.+@@@+...+@@@@@@@@@@.........+@@@+............................................... ",
"...............................................+@@@@@@.......+@@@+.........@@@@..+@@@+...@@@@@@@@@@..........@@@@+............................................... ",
".................................................+@@@@+......+@@@+........+@@@@+++@@@+...@@@@@@@@@...........@@@@+............................................... ",
"..................................................+@@@@......+@@@+........@@@@@@@@@@@+...@@@@@@@@+...........@@@@................................................ ",
"...................................................@@@@......+@@@+........@@@@@@@@@@@+...@@@@@@@@@@..........@@@@................................................ ",
".............................................+.....@@@@......@@@@+.......+@@@@@@@@@@@+..+@@@@+@@@@@@.........@@@@................................................ ",
"...........................................+@@@+++@@@@@......@@@@+.......+@@@@+@@@@@@+..+@@@@.+@@@@@+........@@@@................................................ ",
"...........................................@@@@@@@@@@@+......@@@@+.......+@@@+...+@@@+..+@@@@...@@@@@+.......@@@@................................................ ",
"...........................................+@@@@@@@@@@.......@@@@........@@@@+...+@@@+..+@@@+....@@@@@+......@@@@................................................ ",
" ...........................................+@@@@@@@+........+@@+........@@@@....+@@@+..+@@@+.....@@@@+......+@@+................................................ ",
" .............................................++@@++.....................@@@@....+@@@+..+@@@+.....+@@@+.........................................................  ",
" ........................................................................+@@+.....+@@...+@@@+.......+...........................................................  ",
" .......................................................................................+@@@....................................................................  ",
"  ........................................................................................+....................................................................   ",
"  .............................................................................................................................................................   ",
"   ............................................................................................................................................................   ",
"   ...........................................................................................................................................................    ",
"    ..........................................................................................................................................................    ",
"    .........................................................................................................................................................     ",
"     .......................................................................................................................................................      ",
"      ......................................................................................................................................................      ",
"      .....................................................................................................................................................       ",
"       ...................................................................................................................................................        ",
"        .................................................................................................................................................         ",
"         ...............................................................................................................................................          ",
"          .............................................................................................................................................           ",
"            ..........................................................................................................................................            ",
"             .......................................................................................................................................              ",
"               ...................................................................................................................................                ",
"                 ...............................................................................................................................                  ",
"                    ..........................................................................................................................                    ",
"                       ...................................................................................................................                        "};
