/* XPM */
static char * win_xpm[] = {
"488 289 3 1",
" 	c None",
".	c #005B42",
"+	c #FFBC58",
"                                                                                                                                                                                                                                                                                                                                                                                                                                                                                                        ",
"                                                                                                                                                                                                                                                                                                                                                                                                                                                                                                        ",
"                                                                                                                                                                                                                                                                                                                                                                                                                                                                                                        ",
"                                                                                                                                                                                                                                                                                                                                                                                                                                                                                                        ",
"                                                                                                                                                                                                                                                                                                                                                                                                                                                                                                        ",
"                                                                                                                                                                                                                                                                                                                                                                                                                                                                                                        ",
"                                                                                                                                                                                                                                                                                                                                                                                                                                                                                                        ",
"                                                                                                                                                                                                                                                                                                                                                                                                                                                                                                        ",
"                                                                                                                                                                                                                                                                                                                                                                                                                                                                                                        ",
"                                                                                                                                                                                                                                                                                                                                                                                                                                                                                                        ",
"                                                                                                                                                                                                                                                                                                                                                                                                                                                                                                        ",
"                                                                                                                                                                                                                                                                                                                                                                                                                                                                                                        ",
"                                                                                                                                                                                                                                                                                                                                                                                                                                                                                                        ",
"                                                                                                                                                                                                                                                                                                                                                                                                                                                                                                        ",
"                                                                                                                                                                                                                                                                                                                                                                                                                                                                                                        ",
"                                                                                                                                                                                                                                                                                                                                                                                                                                                                                                        ",
"                                                                                                                                                                                                                                                                                                                                                                                                                                                                                                        ",
"                                                                                                                                                                                                                                                                                                                                                                                                                                                                                                        ",
"                                                                                                                                                                                                                                                                                                                                                                                                                                                                                                        ",
"                                                                                                                                                                                                                                                                                                                                                                                                                                                                                                        ",
"                                                                                                                                                                                                                                                                                                                                                                                                                                                                                                        ",
"                                                                                                                                                                                                                                                                                                                                                                                                                                                                                                        ",
"                                                                                                                                                                                                                                                                                                                                                                                                                                                                                                        ",
"                                                                                                                                                                                                                                                                                                                                                                                                                                                                                                        ",
"                                                                                                                                                                                                                                                                                                                                                                                                                                                                                                        ",
"                                                                                                                                                                                                                                                                                                                                                                                                                                                                                                        ",
"                                                                                                                                                                                                                                                                                                                                                                                                                                                                                                        ",
"                                                                                                                                                                                                                                                                                                                                                                                                                                                                                                        ",
"                                                                                                                                                                                                                                                                                                                                                                                                                                                                                                        ",
"                                                                                                                                                                                                                                                                                                                                                                                                                                                                                                        ",
"                                                                                                                                                                                                                                                                                                                                                                                                                                                                                                        ",
"                                                                                                                                                                                                                                                                                                                                                                                                                                                                                                        ",
"                                                                                                                                                                                                                                                                                                                                                                                                                                                                                                        ",
"                                                                                                                                                                                                                                                                                                                                                                                                                                                                                                        ",
"                                                                                                                                                                                                                                                                                                                                                                                                                                                                                                        ",
"                                                                                                                                                                                                                                                                                                                                                                                                                                                                                                        ",
"                                                                                                                                                                                                                                                                                                                                                                                                                                                                                                        ",
"                                                                                                                                                                                                                                                                                                                                                                                                                                                                                                        ",
"                                                                                                                                                                                                                                                                                                                                                                                                                                                                                                        ",
"                                                                                                                                                                                                                                                                                                                                                                                                                                                                                                        ",
"                                                                                                                                                                                                                                                                                                                                                                                                                                                                                                        ",
"                                                                                                                                                                                                                                                                                                                                                                                                                                                                                                        ",
"                                                                                                                                                                                                                                                                                                                                                                                                                                                                                                        ",
"                                                                                                                                                                                                                                                                                                                                                                                                                                                                                                        ",
"                                                                                                                                                                                                                                                                                                                                                                                                                                                                                                        ",
"                                                                                                                                                                                                                                                                                                                                                                                                                                                                                                        ",
"                                                                                                                                                                                                                                                                                                                                                                                                                                                                                                        ",
"                                                                                                                                                                                                                                                                                                                                                                                                                                                                                                        ",
"                                                                                                                                                                                                                                                                                                                                                                                                                                                                                                        ",
"                                                                                                                                                                                                                                                                                                                                                                                                                                                                                                        ",
"                                                                                                                                                                                                                                                                                                                                                                                                                                                                                                        ",
"                                                                                                                                                                                                                                                                                                                                                                                                                                                                                                        ",
"                                                                                                                                                                                                                                                                                                                                                                                                                                                                                                        ",
"                                                                                                                                                                                                                                                                                                                                                                                                                                                                                                        ",
"                                                                                                                                                                                                                                                                                                                                                                                                                                                                                                        ",
"                                                                                                                                                                                                                                                                                                                                                                                                                                                                                                        ",
"                                                                                                                                                                                                                                                                                                                                                                                                                                                                                                        ",
"                                                                                                                                                                                                                                                                                                                                                                                                                                                                                                        ",
"                                                                                                                                                                                                                                                                                                                                                                                                                                                                                                        ",
"                                                                                                                                                                                                                                                                                                                                                                                                                                                                                                        ",
"                                                                                                                                                                                                                                                                                                                                                                                                                                                                                                        ",
"                                                                                                                                                                                                                                                                                                                                                                                                                                                                                                        ",
"                                                                                                                                                                                                                                                                                                                                                                                                                                                                                                        ",
"                                                                                                                                                                                                                                                                                                                                                                                                                                                                                                        ",
"                                                                                                                                                                                                                                                                                                                                                                                                                                                                                                        ",
"                                                                                                                                                                                                                                                                                                                                                                                                                                                                                                        ",
"                                                                                                                                                                                                                                                                                                                                                                                                                                                ......                                                  ",
"                                                                                                                                                                                                                                                                                                                                                                                                                                              ...........                                               ",
"                                                                                                                                                                                                                                                                                                                                                                                                                                            ..............                                              ",
"                                                                                                                                                                                                                                                                                                                                                                                                                                            ...............                                             ",
"                                                                                                                                                                                                                                                                                                                                                                                                                                           .................                                            ",
"                                                                                                                                                                                                                                                                    .................                                                                                                                                                     ...................                                           ",
"                                                                                                                                                                                                                                                                .......................                                                                                                                                                   ....................                                          ",
"                                                                                                                                                                                                                                                             ...........................                                                                                                                                                 .....................                                          ",
"                                                                                                                                                                                   ......                                                                 ...............................                                                           ......                                                                               ......................                                         ",
"                                                                                                                                                                                ...........                                                             ..................................                                                       .............                                                                           ......................                                         ",
"                                                                                                                                                                              ...............                                                         .....................................                                                     ..................                                                                      .......................                                         ",
"                                                                                                                                                                             .................                                                      .......................................                                                    .......................                                                                  .......................                                         ",
"                                                                                                                                                                            ..................                                                    ..........................................                                                  ...........................                                                               ........................                                        ",
"                                                                                                                                                                           ....................                                                  ...........................................                                                 ................................                                                          ........................                                         ",
"                                                                                                                                                                          .....................                                                .............................................                                                 ...................................                                                       ........................                                         ",
"                                                                                                                                                                          ......................                                              ..............................................                                                .......................................                                                   .........................                                         ",
"                                                                                                                                                                          ......................                                             ...............................................                                                ..........................................                                                .........................                                         ",
"                                                                                                                                                                         .......................                                            ................................................                                               ..............................................                                             ........................                                          ",
"                                                                                                                                                                         .......................                                          ..................................................                                               .................................................                                         .........................                                          ",
"                                                                                                                                                                         .......................                                         ...................................................                                              ...................................................                                        .........................                                          ",
"                                                                                                                                                                         .......................                                        ....................................................                                              .....................................................                                     .........................                                           ",
"                                                                                                                                                                         .......................                                       .....................................................                                             ......................................................                                     .........................                                           ",
"                                                                                                                                                                         .......................                                      .....................................................                                              .......................................................                                    .........................                                           ",
"                                                                                                                             ....                                        .......................                                     ......................................................                                             .........................................................                                  .........................                                            ",
"                                                                                                                          ...........                                    .......................                                     .....................................................                                              .........................................................                                  .........................                                            ",
"                                                                                                                        ...............                                  .......................                                    .....................................................                                               .........................................................                                 .........................                                             ",
"                                                                                                                       .................                                 .......................                                   .....................................................                                               ...........................................................                                .........................                                             ",
"                                                                                                                      ...................                                .......................                                  ....................................................                                                 ...........................................................                                .........................                                             ",
"                                                                                                                     .....................                               .......................                                 ........................................                                                             ............................................................                               .........................                                              ",
"                                                                                                                     .....................                               ........................                                ....................................                                                                 ............................................................                               .........................                                              ",
"                                                                                                                     ......................                              ........................                               ..................................                                                                   .............................................................                              ..........................                                              ",
"                                                                                                                     ......................                               .......................                              .................................                                                                     .............................................................                              .........................                                               ",
"                                                                                                                     .......................                              .......................                              ...............................                                                                      .............................................................                               .........................                                               ",
"                                                                                                                     .......................                              .......................                             ...............................                                                                       ......................... ...................................                              .........................                                                ",
"                                                                                                                     .......................                              .......................                             .............................                                                                        ..........................     ...............................                              .........................                                                ",
"                                                                                                                     .......................                              .......................                            .............................                                                                         .........................          ..........................                              .........................                                                 ",
"                                                                                                                     ........................                             .......................                            ............................                                                                          .........................             ......................                               .........................                                                 ",
"                                                                                                                     ........................                             .......................                           ............................                                                                          .........................                 ...................                              ..........................                                                 ",
"                                                                                                                      .......................                             .......................                           ...........................                                                                           .........................                    ...............                               .........................                                                  ",
"                                                                                                                      .......................                             .......................                          ...........................                                                                           ..........................                       ..........                                 .........................                                                  ",
"                                                                                                                      .......................                             .......................                          ..........................                                                                            .........................                            ...                                   .........................                                                   ",
"                                                                                                                      ........................                            .......................                         ..........................                                                                            ..........................                                                                  .........................                                                   ",
"                                                                                                                      ........................                            .......................                         ..........................                                                                            .........................                                                                  ..........................                                                   ",
"                                                                                                                       .......................                            .......................                         .........................                                                                            ..........................                                                                  .........................                                                    ",
"                                                                                                                       .......................                            .......................                        .........................                                                                             .........................                                                                  ..........................                                                    ",
"                                                                                                                       .......................                            ........................                       .........................                                                                             .........................                                                                  .........................                                                     ",
"                                                                                                                       ........................                           ........................                       ........................                                                                             .........................                                                                  ..........................                                                     ",
"                                                                                                                       ........................                           ........................                      .........................                                                                             .........................                                                                  .........................                                                      ",
"                                                                                                                        .......................                            .......................                      ........................                                                                             .........................                                                                  ..........................                                                      ",
"                                                                                                                        .......................                            .......................                      ........................                                                                             .........................                                                                  ..........................                                                      ",
"                                                                                                                        .......................                            .......................                      ........................                                                                            ............................                                                                .........................                                                       ",
"                                                                                                                        ........................                           .......................                      .......................                                                                             ...............................                                                            ..........................                                                       ",
"                                                                                                                        ........................                           .......................                     ........................                                                                            ...................................                                                         .........................                                                        ",
"                                                                                                                         .......................                           .......................                     ........................                                                                            ......................................                                                     ..........................                                                        ",
"                                                                                                                         .......................                           .......................                     ........................                                                                            ........................................                                                   .........................                                                         ",
"                                                                                                                         .......................                           .......................                     .......................                                                                            ...........................................                                                ..........................                                                         ",
"                                                                                                                         ........................                          .......................                     .......................                                                                            ............................................                                               .........................                                                          ",
"                                                                                              ....                       ........................                          .......................                     .......................                                                                           ..............................................                                             ..........................                                                          ",
"                                                                                           .........                     ........................                          .......................                     .......................                                                                           ...............................................                                            .........................                                                           ",
"                                                                                         ............                     .......................                          ........................                    .......................                                                                          .................................................                                          ..........................                                                           ",
"                                                                                        ...............                   .......................                          ........................                    .......................                                                                          .................................................                                          ..........................                                                           ",
"                                                                                       .................                  .......................                          ........................                    .......................                                                                          ..................................................                                        ..........................                                                            ",
"                                                                                      ...................                 ........................                          .......................                    .......................                                                                         ...................................................                                        ..........................                                                            ",
"                                                                                     ....................                 ........................                          .......................                    .......................                                                                         ...................................................                                       ..........................                                                             ",
"                                                                                     .....................                 .......................                          .......................                    .......................                                                                        ....................................................                                       ..........................                                                             ",
"                                                                                    .......................                .......................                          .......................                    ........................                                                                       ....................................................                                      ..........................                                                              ",
"                                                                                    ........................               .......................                          .......................                    ........................                                                                      .....................................................                                      ..........................                                                              ",
"                                                                                    .........................              ........................                         .......................                    .........................                                                                     .....................................................                                     ..........................                                                               ",
"                                                                                   ...........................             ........................                         .......................                     ........................                                                                     .....................................................                                     ..........................                                                               ",
"                                                                                   ............................            ........................                         .......................                     .........................                                                                   .....................................................                                     ..........................                                                                ",
"                                                                                   .............................            .......................                         .......................                     ..........................                                                                  .....................................................                                     ..........................                                                                ",
"                                                                                    .............................           .......................                         ........................                    ...........................                                                                .......................... ..........................                                     ..........................                                                                 ",
"                                                                                    ..............................          .......................                         ........................                     ............................                                                              .........................     ......................                                      ..........................                                                                 ",
"                                                                                    ...............................         ........................                        ........................                     ..............................                            .......                         .........................        ..................                                      ..........................                                                                  ",
"                                                                                    ................................        ........................                         .......................                     .................................                    ..............                      .........................            ..............                                       ..........................                                                                  ",
"                                                                                    .................................        .......................                         .......................                      .......................................   .........................                     .........................               .........                                        ..........................                                                                   ",
"                                                                                    ..................................       .......................                         .......................                      ....................................................................                   .........................                    ..                                          ...........................                                                                   ",
"                                                                                    ...................................      .......................                         .......................                       ....................................................................                  .........................                                                                ..........................                                                                    ",
"                                                                                    ....................................     ........................                        .......................                       .....................................................................                .........................                                                                ...........................                                                                    ",
"                                                                                    .....................................    ........................                        .......................                        ....................................................................                .........................                                                                ..........................                                                                     ",
"                                                                                    ......................................   ........................                        .......................                        .....................................................................               .........................                                                               ...........................                                                                     ",
"                                                                                     ......................................   .......................                        .......................                         ....................................................................              .........................                                                                ..........................                                                                      ",
"                                                                                     .......................................  .......................                        .......................                          ...................................................................              .........................                                                               ...........................                                                                      ",
"                                                                                     ........................................ .......................                        ........................                          ..................................................................             .........................                                                                ..........................                                                                       ",
"                                                                                     .................................................................                       ........................                          ...................................................................            .........................                                                               ..........................                                                                        ",
"                                                                                     .................................................................                       ........................                           ..................................................................            ........................                                                                ..........................                                                                        ",
"                                                                                     .................................................................                        .......................                            .................................................................           .........................                                                               ..........................                                                                         ",
"                                                                                     .................................................................                        .......................                             ...............................................................            .........................                                                              ...........................                                                                         ",
"                                                                                     .................................................................                        .......................                              ..............................................................           ..............................                                                          ..........................                                                                          ",
"                                                                                     .................................................................                        .......................                               .............................................................           ...................................                                                    ...........................                                                                          ",
"                                                                                     ..................................................................                       .......................                                 ..........................................................            .......................................                                                ..........................                                                                           ",
"                                                                                      .................................................................                       .......................                                  .........................................................           .............................................                                           ..........................                                                                           ",
"                                                                                      .................................................................                       .......................                                   .......................................................            .................................................                                       .........................                                                                            ",
"                                                                                      .................................................................                       ........................                                    ....................................................            .....................................................                                    .........................                                                                            ",
"                                                                                      .................................................................                       ........................                                      .................................................             .........................................................                                ........................                                                                             ",
"                                                                                      .................................................................                       ........................                                        .............................................               ............................................................                             .......................                                                                              ",
"                                                                                      .................................................................                        .......................                                          .......................................                  ...............................................................                            ......................                                                                              ",
"                                                                                      ..................................................................                       .......................                                              ...............................                      ................................................................                           .....................                                                                               ",
"                                                                                      ..................................................................                       .......................                                                  .....................                            .................................................................                           ....................                                                                               ",
"                                                                                       .................................................................                       .......................                                                                                                   ..................................................................                           ..................                                                                                ",
"                                                                                       .................................................................                       .......................                                                                                                    .................................................................                            ................                                                                                 ",
"                                                                                       .................................................................                       .......................                                                                                                    ..................................................................                            .............                                                                                   ",
"                                                                                       ....................... .........................................                       .......................                                                                                                     .................................................................                              .........                                                                                     ",
"                                                                                       .......................  .........................................                      .......................                                                                                                     .................................................................                                                                                                                            ",
"                                                                                       ........................  ........................................                      .......................                                                                                                      .................................................................                                                                                                                           ",
"                                                                                       ........................   .......................................                      .......................                                                                                                       ................................................................                                                                                                                           ",
"                                                                                       ........................    ......................................                       ......................                                                                                                         ..............................................................                                                                                                                           ",
"                                                                                        .......................     .....................................                       ......................                                                                                                           ............................................................                                                                                                                           ",
"                                                                                        .......................      ....................................                       .....................                                                                                                              ..........................................................                                                                                                                           ",
"                                                                                        .......................       ...................................                        ...................                                                                                                                       .................................................                                                                                                                            ",
"                                                                                        .......................        ...................................                       ...................                                                                                                                             ...........................................                                                                                                                            ",
"                                                                                        ........................        ..................................                        .................                                                                                                                                    .....................................                                                                                                                            ",
"                                                                                        ........................         .................................                         ..............                                                                                                                                           ...............................                                                                                                                             ",
"                                                                                        ........................          ................................                           ...........                                                                                                                                                ..........................                                                                                                                              ",
"                                                                                        ........................           ...............................                             ......                                                                                                                                                       ......................                                                                                                                              ",
"                                                                                         .......................            ..............................                                                                                                                                                                                              .................                                                                                                                               ",
"                                                                                         .......................            ..............................                                                                                                                                                                                                 ............                    .......                                                                                                      ",
"                                                                                         .......................             ..............................                                                                                                                                                                                                    ......                   ............                                                                                                    ",
"                                                                                         .......................              .............................                                                                                                                                                                                                                           ................                                                                                                  ",
"                                                                                         ........................              ............................                                                                                                                                                                                                                          ..................                                                                                                 ",
"                                                                                         ........................               ...........................                                                                                                                                                                                                                         ....................                                                                                                ",
"                                                                                         ........................                ..........................                                                                                                                                                                                                                         ....................                                                                                                ",
"                                                                                          .......................                 ........................                                                                                                                                                                                                                         ......................                                                                                               ",
"                                                                                          .......................                  .......................                                                                                                                                                                                                                         ......................                                                                                               ",
"                                                                                          .......................                   .....................                                                                                                                                                                                                                         ........................                                                                                              ",
"                                                                                          .......................                    ....................                                                                                                                                                                                                                         ........................                                                                                              ",
"                                                                                          ........................                    ..................                                                                                                                                                                                                                          ........................                                                                                              ",
"                                                                                          ........................                     ................                                                                                                                                                                                                                           ........................                                                                                              ",
"                                                                                          ........................                      ..............                                                                                                                                                                                                                            ........................                                                                                              ",
"                                                                                           .......................                       ...........                                                                                                                                                                                                                              ........................                                                                                              ",
"                                                                                           .......................                         .......                                                                                                                                                                                                                                ........................                                                                                              ",
"                                                                                           .......................                                                                                                                                                                                                                                                                .......................                                                                                               ",
"                                                                                           ........................                                                                                                                                                                                                                                                               .......................                                                                                               ",
"                                                                                           ........................                                                                                                                                                                                                                                                                .....................                                                                                                ",
"                                                                                           ........................                                                                                                                                                                                                                                                                 ....................                                                                                                ",
"                                                                                            .......................                                                                                                                                                                                                                                                                 ...................                                                                                                 ",
"                                                                                            .......................                                                                                                                                                                                                                                                                  .................                                                                                                  ",
"                                                                                            .......................                                                                                                                                                                                                                                                                   ..............                                                                                                    ",
"                                                                                            ........................                                                                                                                                                                                                                                                                    ..........                                                                                                      ",
"                                                                                            ........................                                                                                                                                                                                                                                                                        ..                                                                                                          ",
"                                                                                            ........................                                                                                                                                                                                                                                                                                                                                                                                    ",
"                                                                                             .......................                                                                                                                                                                                                                                                                                                                                                                                    ",
"                                                                                             .......................                                                                                                                                                                                                                                                                                                                                                                                    ",
"                                                                                             .......................                                                                                                                                                                                                                                                                                                                                                                                    ",
"                                                                                             .......................                                                                                                                                                                                                                                                                                                                                                                                    ",
"                                                                                             .......................                                                                            ++                                                                                                                                                                                                                                                                                                      ",
"                                                                                              ......................                                                            ++             ++++                                                                                                                                                                                                                                                                                                     ",
"                                                                                              ......................                                                           ++++           +++++                                                                                                                                                                                                                                                                                                     ",
"                                                                                              ......................                                                           +++++         +++++                                                                                                                                                                                                                                                                                                      ",
"                                                                                               ....................                                                             ++++         +++++                                                                                                                                                                                                                                                                                                      ",
"                                                                                                ..................                                                              ++++        +++++                                                      ++++                     ++                                                                                                                                                                                                                      ",
"                                                                                                 .................                                                              +++++      +++++                                                       ++++                    ++++                                                                                                                                                                                                                     ",
"                                                                                                  ..............                                                                 ++++      +++++                                                       +++++       +++         ++++                                                                                                                                                                                                                     ",
"                                                                                                    ...........                                                                  +++++    +++++            ++                     ++                    ++++      +++++       +++++         ++          ++                                                                                                                                                                                              ",
"                                                                                                       ...                                                                       +++++   ++++++          +++++++        ++       ++++                   +++++    ++++++       +++++      +++++++       ++++    +++++                                                                                                                                                                                    ",
"                                                                                                                                                                                  +++++  +++++          ++++++++++     ++++      ++++                   +++++    +++++++     +++++      ++++++++++     +++++  +++++++                                                                                                                                                                                   ",
"                                                                                                                                                                                  +++++ +++++          ++++++++++++    ++++      +++++                   +++++   +++++++     +++++      ++++++++++++    ++++++++++++++                                                                                                                                                                                  ",
"                                                                                                                                                                                   ++++++++++          +++++++++++++   ++++      +++++                   +++++  +++++++++    ++++      ++++++++++++++   ++++++++++++++                                                                                                                                                                                  ",
"                                                                                                                                                                                   +++++++++          ++++++  ++++++   ++++      +++++                    ++++  +++++++++   +++++      +++++  +++++++   +++++++++++++++                                                                                                                                                                                 ",
"                                                                                                                                                                                   ++++++++           +++++   ++++++   ++++     ++++++                    +++++ +++++++++   +++++     +++++    ++++++    ++++++++ +++++                                                                                                                                                                                 ",
"                                                                                                                                                                                    +++++++           ++++     +++++   +++++    ++++++                    ++++++++++ +++++ +++++      +++++    +++++     +++++++   ++++                                                                                                                                                                                 ",
"                                                                                                                                                                                    ++++++           +++++     +++++   +++++    ++++++                     +++++++++ +++++ +++++      ++++      ++++     +++++++   +++++                                                                                                                                                                                ",
"                                                                                                                                                                                    ++++++           +++++     +++++   +++++   +++++++                     ++++++++   ++++++++++      ++++      ++++     +++++++   +++++                                                                                                                                                                                ",
"                                                                                                                                                                                    +++++            ++++      +++++    ++++   +++++++                      +++++++   +++++++++       ++++      ++++     ++++++     ++++                                                                                                                                                                                ",
"                                                                                                                                                                                     ++++            ++++      +++++    +++++ ++++++++                      +++++++    ++++++++       ++++      ++++     ++++++     ++++                                                                                                                                                                                ",
"                                                                                                                                                                                     ++++            +++++     +++++    ++++++++++++++                      +++++++    +++++++        ++++      ++++     ++++++     ++++                                                                                                                                                                                ",
"                                                                                                                                                                                     ++++            +++++     ++++      +++++++++++++                       +++++     +++++++        ++++     +++++      +++++     ++++                                                                                                                                                                                ",
"                                                                                                                                                                                     ++++            ++++++   +++++       ++++++++++++                       +++++      ++++++        +++++    +++++      ++++       +++                                                                                                                                                                                ",
"                                                                                                                                                                                     ++++             ++++++ ++++++       ++++++++++++                        ++++      +++++         +++++++++++++       ++++       +++                                                                                                                                                                                ",
"                                                                                                                                                                                     ++++             ++++++++++++         +++++  ++++                                   ++++          ++++++++++++       +++                                                                                                                                                                                           ",
"                                                                                                                                                                                     +++++             +++++++++++           +     ++                                     +             ++++++++++                                                                                                                                                                                                      ",
"                                                                                                                                                                                     +++++              +++++++++                                                                        ++++++++                                                                                                                                                                                                       ",
"                                                                                                                                                                                     +++++                +++++                                                                            ++++                                                                                                                                                                                                         ",
"                                                                                                                                                                                     +++++                                                                                                                                                                                                                                                                                                              ",
"                                                                                                                                                                                      +++                                                                                                                                                                                                                                                                                                               ",
"                                                                                                                                                                                                                                                                                                                                                                                                                                                                                                        ",
"                                                                                                                                                                                                                                                                                                                                                                                                                                                                                                        ",
"                                                                                                                                                                                                                                                                                                                                                                                                                                                                                                        ",
"                                                                                                                                                                                                                                                                                                                                                                                                                                                                                                        ",
"                                                                                                                                                                                                                                                                                                                                                                                                                                                                                                        ",
"                                                                                                                                                                                                                                                                                                                                                                                                                                                                                                        ",
"                                                                                                                                                                                                                                                                                                                                                                                                                                                                                                        ",
"                                                                                                                                                                                                                                                                                                                                                                                                                                                                                                        ",
"                                                                                                                                                                                                                                                                                                                                                                                                                                                                                                        ",
"                                                                                                                                                                                                                                                                                                                                                                                                                                                                                                        ",
"                                                                                                                                                                                                                                                                                                                                                                                                                                                                                                        ",
"                                                                                                                                                                                                                                                                                                                                                                                                                                                                                                        ",
"                                                                                                                                                                                                                                                                                                                                                                                                                                                                                                        ",
"                                                                                                                                                                                                                                                                                                                                                                                                                                                                                                        ",
"                                                                                                                                                                                                                                                                                                                                                                                                                                                                                                        ",
"                                                                                                                                                                                                                                                                                                                                                                                                                                                                                                        ",
"                                                                                                                                                                                                                                                                                                                                                                                                                                                                                                        ",
"                                                                                                                                                                                                                                                                                                                                                                                                                                                                                                        ",
"                                                                                                                                                                                                                                                                                                                                                                                                                                                                                                        ",
"                                                                                                                                                                                                                                                                                                                                                                                                                                                                                                        ",
"                                                                                                                                                                                                                                                                                                                                                                                                                                                                                                        ",
"                                                                                                                                                                                                                                                                                                                                                                                                                                                                                                        ",
"                                                                                                                                                                                                                                                                                                                                                                                                                                                                                                        ",
"                                                                                                                                                                                                                                                                                                                                                                                                                                                                                                        ",
"                                                                                                                                                                                                                                                                                                                                                                                                                                                                                                        ",
"                                                                                                                                                                                                                                                                                                                                                                                                                                                                                                        ",
"                                                                                                                                                                                                                                                                                                                                                                                                                                                                                                        ",
"                                                                                                                                                                                                                                                                                                                                                                                                                                                                                                        ",
"                                                                                                                                                                                                                                                                                                                                                                                                                                                                                                        ",
"                                                                                                                                                                                                                                                                                                                                                                                                                                                                                                        ",
"                                                                                                                                                                                                                                                                                                                                                                                                                                                                                                        ",
"                                                                                                                                                                                                                                                                                                                                                                                                                                                                                                        ",
"                                                                                                                                                                                                                                                                                                                                                                                                                                                                                                        ",
"                                                                                                                                                                                                                                                                                                                                                                                                                                                                                                        ",
"                                                                                                                                                                                                                                                                                                                                                                                                                                                                                                        ",
"                                                                                                                                                                                                                                                                                                                                                                                                                                                                                                        ",
"                                                                                                                                                                                                                                                                                                                                                                                                                                                                                                        ",
"                                                                                                                                                                                                                                                                                                                                                                                                                                                                                                        ",
"                                                                                                                                                                                                                                                                                                                                                                                                                                                                                                        ",
"                                                                                                                                                                                                                                                                                                                                                                                                                                                                                                        ",
"                                                                                                                                                                                                                                                                                                                                                                                                                                                                                                        ",
"                                                                                                                                                                                                                                                                                                                                                                                                                                                                                                        ",
"                                                                                                                                                                                                                                                                                                                                                                                                                                                                                                        ",
"                                                                                                                                                                                                                                                                                                                                                                                                                                                                                                        ",
"                                                                                                                                                                                                                                                                                                                                                                                                                                                                                                        ",
"                                                                                                                                                                                                                                                                                                                                                                                                                                                                                                        ",
"                                                                                                                                                                                                                                                                                                                                                                                                                                                                                                        ",
"                                                                                                                                                                                                                                                                                                                                                                                                                                                                                                        "};
